{"tilesets":[{"columns":64,"firstgid":1,"image":"festival-chunk-1.png","imageheight":512,"imagewidth":2048,"margin":0,"name":"Chunk 1","properties":[],"spacing":0,"tilecount":963,"tileheight":32,"tilewidth":32,"tiles":[{"id":1,"properties":[{"name":"collides","type":"bool","value":true}]}]}],"type":"map","tileheight":32,"tilewidth":32,"layers":[{"type":"tilelayer","data":[0,0,0,0,0,0,0,0,0,0,0,0,0,0,0,0,0,0,0,0,0,0,0,0,0,0,0,0,0,0,0,0,0,0,0,0,0,0,0,0,0,0,0,0,0,0,0,0,0,0,0,0,0,0,0,0,0,0,0,0,0,0,0,0,0,0,0,0,0,0,0,0,0,0,0,0,0,0,0,0,0,0,0,0,0,0,0,0,0,0,0,0,0,0,0,0,0,0,0,0,0,0,0,0,0,0,0,0,0,0,0,0,0,0,0,0,0,0,0,0,0,0,0,0,0,0,0,0,0,0,0,0,0,0,0,0,0,0,0,0,0,0,0,0,0,0,0,0,0,0,0,0,0,0,0,0,0,0,0,0,0,0,0,0,0,0,0,0,0,0,0,0,0,0,0,0,0,0,0,0,0,0,0,0,0,0,0,0,0,0,0,0,0,0,0,0,0,0,0,0,0,0,0,0,0,0,0,0,0,0,0,0,0,0,0,0,0,0,0,0,0,0,0,0,0,0,0,0,0,0,0,0,0,0,0,0,0,0,0,0,0,0,0,0,0,0,0,0,0,0,0,0,0,0,0,0,0,0,0,0,0,0,0,0,0,0,0,0,0,0,0,0,0,0,0,0,0,0,0,0,0,0,0,0,0,0,0,0,0,0,0,0,0,0,0,0,0,0,0,0,0,0,0,0,0,0,0,0,0,0,0,0,0,0,0,0,0,0,0,0,0,0,0,0,0,0,0,0,0,0,0,0,0,0,0,0,0,0,0,0,0,0,0,0,0,0,0,0,0,0,0,0,0,0,0,0,0,0,0,0,0,0,0,0,0,0,0,0,0,0,0,0,0,0,0,0,0,0,0,0,0,0,0,0,0,0,0,0,0,0,0,0,0,0,0,0,0,0,0,0,0,0,0,0,0,0,0,0,0,0,0,0,0,0,0,0,0,0,0,0,0,0,0,0,0,0,0,0,0,0,0,0,0,0,0,0,0,0,0,0,0,0,0,0,0,0,0,0,0,0,0,0,0,0,0,0,0,0,0,0,0,0,0,0,0,0,0,0,0,0,0,0,0,0,0,0,0,0,0,0,0,0,0,0,0,0,0,0,0,0,0,0,0,0,0,0,0,0,0,0,0,0,0,0,0,0,0,0,0,0,0,0,0,0,0,0,0,0,0,0,0,0,0,0,0,0,0,0,0,0,0,0,0,0,0,0,0,0,0,0,0,0,0,0,0,0,0,0,0,0,0,0,0,0,0,0,0,0,0,0,0,0,0,0,0,0,0,0,0,0,0,0,0,0,0,0,0,0,0,0,0,0,0,0,0,0,0,0,0,0,0,0,0,0,0,0,0,0,0,0,0,0,0,0,0,0,0,0,0,0,0,0,0,0,0,0,0,0,0,0,0,0,0,0,0,0,0,0,0,0,0,0,0,0,0,0,0,0,0,0,0,0,0,0,0,0,0,0,0,0,0,0,0,0,0,0,0,0,0,0,0,0,0,0,0,0,0,0,0,0,0,0,0,0,0,0,0,0,0,0,0,0,0,0,0,0,0,0,0,0,0,0,0,0,0,0,0,0,0,0,0,0,0,0,0,0,0,0,0,0,0,0,0,0,0,0,0,0,0,0,0,0,0,0,0,0,0,0,0,0,0,0,0,0,0,0,0,0,0,0,0,0,0,0,0,0,0,0,0,0,0,0,0,0,0,0,0,0,0,0,0,0,0,0,0,0,0,0,0,0,0,0,0,0,0,0,0,0,0,0,0,0,0,0,0,0,0,0,0,0,0,0,0,0,0,0,0,0,0,0,0,0,0,0,0,0,0,0,0,0,0,0,0,0,0,0,0,0,0,0,0,0,0,0,0,0,0,0,0,0,0,0,0,0,0,0,0,0,0,0,0,0,0,0,0,0,0,0,0,0,0,0,0,0,0,0,0,0,0,0,0,0,0,0,0,0,0,0,0,0,0,0,0,0,0,0,0,0,0,0,0,0,0,0,0,0,0,0,0,0,0,0,0,0,0,0,0,0,0,0,0,0,0,0,0,0,0,0,0,0,0,0,0,0,0,0,0,0,0,0,0,0,0,0,0,0,0,0,0,0,0,0,0,0,0,0,0,0,0,0,0,0,0,0,0,0,0,0,0,0,0,0,0,0,0,0,0,0,0,0,0,0,0,0,0,0,0,0,0,0,0,0,0,0,0,0,0,0,0,0,0,0,0,0,0,0,0,0,0,0,0,0,0,0,0,0,0,0,0,0,0,0,0,0,0,0,0,0,0,0,0,0,0,0,0,0,0,0,0,0,0,0,0,0,0,0,0,0,0,0,0,0,0,0,0,0,0,0,0,0,0,0,0,0,0,0,0,0,0,0,0,0,0,0,0,0,0,0,0,0,0,0,0,0,0,0,0,0,0,0,0,0,0,0,0,0,0,0,0,0,0,0,0,0,0,0,0,0,0,0,0,0,0,0,0,0,0,0,0,0,0,0,0,0,0,0,0,0,0,0,0,0,0,0,0,0,0,0,0,0,0,0,0,0,0,0,0,0,0,0,0,0,0,0,0,0,0,0,0,0,0,0,0,0,0,0,0,0,0,0,0,0,0,0,0,0,0,0,0,0,0,0,0,0,0,0,0,0,0,0,0,0,0,0,0,0,0,0,0,0,0,0,0,0,0,0,0,0,0,0,0,0,0,0,0,0,0,0,0,0,0,0,0,0,0,0,0,0,0,0,0,0,0,0,0,0,0,0,0,0,0,0,0,0,0,0,0,0,0,0,0,0,0,0,0,0,0,0,0,0,0,0,0,0,0,0,0,0,0,0,0,0,0,0,0,0,0,0,0,0,0,0,0,0,0,0,0,0,0,0,0,0,0,0,0,0,0,0,0,0,0,0,0,0,0,0,0,0,0,0,0,0,0,0,0,0,0,0,0,0,0,0,0,0,0,0,0,0,0,0,0,0,0,0,0,0,0,0,0,0,0,0,0,0,0,0,0,0,0,0,0,0,0,0,0,0,0,0,0,0,0,0,0,0,0,0,0,0,0,0,0,0,0,0,0,0,0,0,0,0,0,0,0,0,0,0,0,0,0,0,0,0,0,0,0,0,0,0,0,0,0,0,0,0,0,0,0,0,0,0,0,0,0,0,0,0,0,0,0,0,0,0,0,0,0,0,0,0,0,0,0,0,0,0,0,0,0,0,0,0,0,0,0,0,0,0,0,0,0,0,0,0,0,0,0,0,0,0,0,0,0,0,0,0,0,0,0,0,0,0,0,0,0,0,0,0,0,0,0,0,0,0,0,0,0,0,0,0,0,0,0,0,0,0,0,0,0,0,0,0,0,0,0,0,0,0,0,0,0,0,0,0,0,0,0,0,0,0,0,0,0,0,0,0,0,0,0,0,0,0,0,0,0,0,0,0,0,0,0,0,0,0,0,0,0,0,0,0,0,0,0,0,0,0,0,0,0,0,0,0,0,0,0,0,0,0,0,0,0,0,0,0,0,0,0,0,0,0,0,0,0,0,0,0,0,0,0,0,0,0,0,0,0,0,0,0,0,0,0,0,0,0,0,0,0,0,0,0,0,0,0,0,0,0,0,0,0,0,0,0,0,0,0,0,0,0,0,0,0,0,0,0,0,0,0,0,0,0,0,0,0,0,0,0,0,0,0,0,0,0,0,0,0,0,0,0,0,0,0,0,0,0,0,0,0,0,0,0,0,0,0,0,0,0,0,0,0,0,0,0,0,0,0,0,0,0,0,0,0,0,0,0,0,0,0,0,0,0,0,0,0,0,0,0,0,0,0,0,0,0,0,0,0,0,0,0,0,0,0,0,0,0,0,0,0,0,0,0,0,0,0,0,0,0,0,0,0,0,0,0,0,0,0,0,0,0,0,0,0,0,0,0,0,0,0,0,0,0,0,0,0,0,0,0,0,0,0,0,0,0,0,0,0,0,0,0,0,0,0,0,0,0,0,0,0,0,0,0,0,0,0,0,0,0,0,0,0,0,0,0,0,0,0,0,0,0,0,0,0,0,0,0,0,0,0,0,0,0,0,0,0,0,0,0,0,0,0,0,0,0,0,0,0,0,0,0,0,0,0,0,0,0,0,0,0,0,0,0,0,0,0,0,0,0,0,0,0,0,0,0,0,0,0,0,0,0,0,0,0,0,0,0,0,0,0,0,0,0,0,0,0,0,0,0,0,0,0,0,0,0,0,0,0,0,0,0,0,0,0,0,0,0,0,0,0,0,0,0,0,0,0,0,0,0,0,0,0,0,0,0,0,0,0,0,0,0,0,0,0,0,0,0,0,0,0,0,0,0,0,0,0,0,0,0,0,0,0,0,0,0,0,0,0,0,0,0,0,0,0,0,0,0,0,0,0,0,0,0,0,0,0,0,0,0,0,0,0,0,0,0,0,0,0,0,0,0,0,0,0,0,0,0,0,0,0,0,0,0,0,0,0,0,0,0,0,0,0,0,0,0,0,0,0,0,0,0,0,0,0,0,0,0,0,0,0,0,0,0,0,0,0,0,0,0,0,0,0,0,0,0,0,0,0,0,0,0,0,0,0,0,0,0,0,0,0,0,0,0,0,0,0,0,0,0,0,0,0,0,0,0,0,0,0,0,0,0,0,0,0,0,0,0,0,0,0,0,0,0,0,0,0,0,0,0,0,0,0,0,0,0,0,0,0,0,0,0,0,0,0,0,0,0,0,0,0,0,0,0,0,0,0,0,0,0,0,0,0,0,0,0,0,0,0,0,0,0,0,0,0,0,0,0,0,0,0,0,0,0,0,0,0,0,0,0,0,0,0,0,0,0,0,0,0,0,0,0,0,0,0,0,0,0,0,0,0,0,0,0,0,0,0,0,0,0,0,0,0,0,0,0,0,0,0,0,0,0,0,0,0,0,0,0,0,0,0,0,0,0,0,0,0,0,0,0,0,0,0,0,0,0,0,0,0,0,0,0,0,0,0,0,0,0,0,0,0,0,0,0,0,0,0,0,0,0,0,0,0,0,0,0,0,0,0,0,0,0,0,0,0,0,0,0,0,0,0,0,0,0,0,0,0,0,0,0,0,0,0,0,0,0,0,0,0,0,0,0,0,0,0,0,0,0,0,0,0,0,0,0,0,0,0,0,0,0,0,0,0,0,0,0,0,0,0,0,0,0,0,0,0,0,0,0,0,0,0,0,0,0,0,0,0,0,0,0,0,0,0,0,0,0,0,0,0,0,0,0,0,0,0,0,0,0,0,0,0,0,0,0,0,0,0,0,0,0,0,0,0,0,0,0,0,0,0,0,0,0,0,0,0,0,0,0,0,0,0,0,0,0,0,0,0,0,0,0,0,0,0,0,0,0,0,0,0,0,0,0,0,0,0,0,0,0,0,0,0,0,0,0,0,0,0,0,0,0,0,0,0,0,0,0,0,0,0,0,0,0,0,0,0,0,0,0,0,0,0,0,0,0,0,0,0,0,0,0,0,0,0,0,0,0,0,0,0,0,0,0,0,0,0,0,0,0,0,0,0,0,0,0,0,0,0,0,0,0,0,0,0,0,0,0,0,0,0,0,0,0,0,0,0,0,0,0,0,0,0,0,0,0,0,0,0,0,0,0,0,0,0,0,0,0,0,0,0,0,0,0,0,0,0,0,0,0,0,0,0,0,0,0,0,0,0,0,0,0,0,0,0,0,0,0,0,0,0,0,0,0,0,0,0,0,0,0,0,0,0,0,0,0,0,0,0,0,0,0,0,0,0,0,0,0,0,0,0,0,0,0,0,0,0,0,0,0,0,0,0,0,0,0,0,0,0,0,0,0,0,0,0,0,0,0,0,0,0,0,0,0,0,0,0,0,0,0,0,0,0,0,0,0,0,0,0,0,0,0,0,0,0,0,0,0,0,0,0,0,0,0,0,0,0,0,0,0,0,0,0,0,0,0,0,0,0,0,0,0,0,0,0,0,0,0,0,0,0,0,0,0,0,0,0,0,0,0,0,0,0,0,0,0,0,0,0,0,0,0,0,0,0,0,0,0,0,0,0,0,0,0,0,0,0,0,0,0,0,0,0,0,0,0,0,0,0,0,0,0,0,0,0,0,0,0,0,0,0,0,0,0,0,0,0,0,0,0,0,0,0,0,0,0,0,0,0,0,0,0,0,0,0,0,0,0,0,0,0,0,0,0,0,0,0,0,0,0,0,0,0,0,0,0,0,0,0,0,0,0,0,0,0,0,0,0,0,0,0,0,0,0,0,0,0,0,0,0,0,0,0,0,0,0,0,0,0,0,0,0,0,0,0,0,0,0,0,0,0,0,0,0,0,0,0,0,0,0,0,0,0,0,0,0,0,0,0,0,0,0,0,0,0,0,0,0,0,0,0,0,0,0,0,0,0,0,0,0,0,0,0,0,0,0,0,0,0,0,0,0,0,0,0,0,0,0,0,0,0,0,0,0,0,0,0,0,0,0,0,0,0,0,0,0,0,0,0,0,0,0,0,0,0,0,0,0,0,0,0,0,0,0,0,0,0,0,0,0,0,0,0,0,0,0,0,0,0,0,0,0,0,0,0,0,0,0,0,0,0,0,0,0,0,0,0,0,0,0,0,0,0,0,0,0,0,0,0,0,0,0,0,0,0,0,0,0,0,0,0,0,0,0,0,0,0,0,0,0,0,0,0,0,0,0,0,0,0,0,0,0,0,0,0,0,0,0,0,0,0,0,0,0,0,0,0,0,0,0,0,0,0,0,0,0,0,0,0,0,0,0,0,0,0,0,0,0,0,0,0,0,0,0,0,0,0,0,0,0,0,0,0,0,0,0,0,0,0,0,0,0,0,0,0,0,0,0,0,0,0,0,0,0,0,0,0,0,0,0,0,0,0,0,0,0,0,0,0,0,0,0,0,0,0,0,0,0,0,0,0,0,0,0,0,0,0,0,0,0,0,0,0,0,0,0,0,0,0,0,0,0,0,0,0,0,0,0,0,0,0,0,0,0,0,0,0,0,0,0,0,0,0,0,0,0,0,0,0,0,0,0,0,0,0,0,0,0,0,0,0,0,0,0,0,0,0,0,0,0,0,0,0,0,0,0,0,0,0,0,0,0,0,0,0,0,0,0,0,0,0,0,0,0,0,0,0,0,0,0,0,0,0,0,0,0,0,0,0,0,0,0,0,0,0,0,0,0,0,0,0,0,0,0,0,0,0,0,0,0,0,0,0,0,0,0,0,0,0,0,0,0,0,0,0,0,0,0,0,0,0,0,0,0,0,0,0,0,0,0,0,0,0,0,0,0,0,0,0,0,0,0,0,0,0,0,0,0,0,0,0,0,0,0,0,0,0,0,0,0,0,0,0,0,0,0,0,0,0,0,0,0,0,0,0,0,0,0,0,0,0,0,0,0,0,0,0,0,0,0,0,0,0,0,0,0,0,0,0,0,0,0,0,0,0,0,0,0,0,0,0,0,0,0,0,0,0,0,0,0,0,0,0,0,0,0,0,0,0,0,0,0,0,0,0,0,0,0,0,0,0,0,0,0,0,0,0,0,0,0,0,0,0,0,0,0,0,0,0,0,0,0,0,0,0,0,0,0,0,0,0,0,0,0,0,0,0,0,0,0,0,0,0,0,0,0,0,0,0,0,0,0,0,0,0,0,0,0,0,0,0,0,0,0,0,0,0,0,0,0,0,0,0,0,0,0,0,0,0,0,0,0,0,0,0,0,0,0,0,0,0,0,0,0,0,0,0,0,0,0,0,0,0,0,0,0,0,0,0,0,0,0,0,0,0,0,0,0,0,0,0,0,0,0,0,0,0,0,0,0,0,0,0,0,0,0,0,0,0,0,0,0,0,0,0,0,0,0,0,0,0,0,0,0,0,0,0,0,0,0,0,0,0,0,0,0,0,0,0,0,0,0,0,0,0,0,0,0,0,0,0,0,0,0,0,0,0,0,0,0,0,0,0,0,0,0,0,0,0,0,0,0,0,0,0,0,0,0,0,0,0,0,0,0,0,0,0,0,0,0,0,0,0,0,0,0,0,0,0,0,0,0,0,0,0,0,0,0,0,0,0,0,0,0,0,0,0,0,0,0,0,0,0,0,0,0,0,0,0,0,0,0,0,0,0,0,0,0,0,0,0,0,0,0,0,0,0,0,0,0,0,0,0,0,0,0,0,0,0,0,0,0,0,0,0,0,0,0,0,0,0,0,0,0,0,0,0,0,0,0,0,0,0,0,0,0,0,0,0,0,0,0,0,0,0,0,0,0,0,0,0,0,0,0,0,0,0,0,0,0,0,0,0,0,0,0,0,0,0,0,0,0,0,0,0,0,0,0,0,0,0,0,0,0,0,0,0,0,0,0,0,0,0,0,0,0,0,0,0,0,0,0,0,0,0,0,0,0,0,0,0,0,0,0,0,0,0,0,0,0,0,0,0,0,0,0,0,0,0,0,0,0,0,0,0,0,0,0,0,0,0,0,0,0,0,0,0,0,0,0,0,0,0,0,0,0,0,0,0,0,0,0,0,0,0,0,0,0,0,0,0,0,0,0,0,0,0,0,0,0,0,0,0,0,0,0,0,0,0,0,0,0,0,0,0,0,0,0,0,0,0,0,0,0,0,0,0,0,0,0,0,0,0,0,0,0,0,0,0,0,0,0,0,0,0,0,0,0,0,0,0,0,0,0,0,0,0,0,0,0,0,0,0,0,0,0,0,0,0,0,0,0,0,0,0,0,0,0,0,0,0,0,0,0,0,0,0,0,0,0,0,0,0,0,0,0,0,0,0,0,0,0,0,0,0,0,0,0,0,0,0,0,0,0,0,0,0,0,0,0,0,0,0,0,0,0,0,0,0,0,0,0,0,0,0,0,0,0,0,0,0,0,0,0,0,0,0,0,0,0,0,0,0,0,0,0,0,0,0,0,0,0,0,0,0,0,0,0,0,0,0,0,0,0,0,0,0,0,0,0,0,0,0,0,0,0,0,0,0,0,0,0,0,0,0,0,0,0,0,0,0,0,0,0,0,0,0,0,0,0,0,0,0,0,0,0,0,0,0,0,0,0,0,0,0,0,0,0,0,0,0,0,0,0,0,0,0,0,0,0,0,0,0,0,0,0,0,0,0,0,0,0,0,0,0,0,0,0,0,0,0,0,0,0,0,0,0,0,0,0,0,0,0,0,0,0,0,0,0,0,0,0,0,0,0,0,0,0,0,0,0,0,0,0,0,0,0,0,0,0,0,0,0,0,0,0,0,0,0,0,0,0,0,0,0,0,0,0,0,0,0,0,0,0,0,0,0,0,0,0,0,0,0,0,0,0,0,0,0,0,0,0,0,0,0,0,0,0,0,0,0,0,0,0,0,0,0,0,0,0,0,0,0,0,0,0,0,0,0,0,0,0,0,0,0,0,0,0,0,0,1,1,0,0,0,0,0,0,0,0,0,0,0,0,0,0,0,0,0,0,0,0,0,0,0,0,0,0,0,0,0,0,0,0,0,0,0,0,0,0,0,0,0,0,0,0,0,0,0,0,0,0,0,0,0,0,0,0,0,0,0,0,0,0,0,0,0,0,0,0,0,0,0,0,0,0,0,0,0,0,0,0,0,0,0,0,0,0,0,0,0,0,0,0,1,1,0,0,0,0,0,0,0,0,0,0,0,0,0,0,0,0,0,0,0,0,0,0,0,0,0,0,0,0,0,0,0,0,0,0,0,0,0,0,0,0,0,0,0,0,0,0,0,0,0,0,0,0,0,0,0,0,0,0,0,0,0,0,0,0,0,0,0,0,0,0,0,0,0,0,0,0,0,0,0,0,0,0,0,0,0,0,0,0,0,0,0,0,0,0,0,0,0,0,0,0,0,0,0,0,0,0,0,0,0,0,0,0,0,0,0,0,0,0,0,0,0,0,0,0,0,0,0,0,0,0,0,0,0,0,0,0,0,0,0,0,0,0,0,0,0,0,0,0,0,0,0,0,0,0,0,0,0,0,0,0,0,0,0,0,0,0,0,0,0,0,0,0,0,0,0,0,0,0,0,0,0,0,0,0,0,0,0,0,0,0,0,0,0,0,0,0,0,0,0,0,0,0,0,0,0,0,0,0,0,0,0,0,0,0,0,0,0,0,0,0,0,0,0,0,0,0,0,0,0,0,0,0,0,0,0,0,0,0,0,0,0,0,0,0,0,0,0,0,0,0,0,0,0,0,0,0,0,0,0,0,0,0,0,0,0,0,0,0,0,0,0,0,0,0,0,0,0,0,0,0,0,0,0,0,0,0,0,0,0,0,0,0,0,0,0,0,0,0,0,0,0,0,0,0,0,0,0,0,0,0,0,0,0,0,0,0,0,0,0,0,0,0,0,0,0,0,0,0,0,0,0,0,0,0,0,0,0,0,0,0,0,0,0,0,0,0,0,0,0,0,0,0,0,0,0,0,0,0,0,0,0,0,0,0,0,0,0,0,0,0,0,0,0,0,0,0,0,0,0,0,0,0,0,0,0,0,0,0,0,0,0,0,0,0,0,0,0,0,0,0,0,0,0,0,0,0,0,0,0,0,0,0,0,0,0,0,0,0,0,0,0,0,0,0,0,0,0,0,0,0,0,0,0,0,0,0,0,0,0,0,0,0,0,0,0,0,0,0,0,0,0,0,0,0,0,0,0,0,0,0,0,0,0,0,0,0,0,0,0,0,0,0,0,0,0,0,0,0,0,0,0,0,0,0,0,0,0,0,0,0,0,0,0,0,0,0,0,0,0,0,0,0,0,0,0,0,0,0,0,0,0,0,0,0,0,0,0,0,0,0,0,0,0,0,0,0,0,0,0,0,0,0,0,0,0,0,0,0,0,0,0,0,0,0,0,0,0,0,0,0,0,0,0,0,0,0,0,0,0,0,0,0,0,0,0,0,0,0,0,0,0,0,0,0,0,0,0,0,0,0,0,0,0,0,0,0,0,0,0,0,0,0,0,0,0,0,0,0,0,0,0,0,0,0,0,0,0,0,0,0,0,0,0,0,0,0,0,0,0,0,0,0,0,0,0,0,0,0,0,0,0,0,0,0,0,0,0,0,0,0,0,0,0,0,0,0,0,0,0,0,0,0,0,0,0,0,0,0,0,0,0,0,0,0,0,0,0,0,0,0,0,0,0,0,0,0,0,0,0,0,0,0,0,0,0,0,0,0,0,0,0,0,0,0,0,0,0,0,0,0,0,0,0,0,0,0,0,0,0,0,0,0,0,0,0,0,0,0,0,0,0,0,0,0,0,0,0,0,0,0,0,0,0,0,0,0,0,0,0,0,0,0,0,0,0,0,0,0,0,0,0,0,0,0,0,0,0,0,0,0,0,0,0,0,0,0,0,0,0,0,0,0,0,0,0,0,0,0,0,0,0,0,0,0,0,0,0,0,0,0,0,0,0,0,0,0,0,0,0,0,0,0,0,0,0,0,0,0,0,0,0,0,0,0,0,0,0,0,0,0,0,0,0,0,0,0,0,0,0,0,0,0,0,0,0,0,0,0,0,0,0,0,0,0,0,0,0,0,0,0,0,0,0,0,0,0,0,0,0,0,0,0,0,0,0,0,0,0,0,0,0,0,0,0,0,0,0,0,0,0,0,0,0,0,0,0,0,0,0,0,0,0,0,0,0,0,0,0,0,0,0,0,0,0,0,0,0,0,0,0,0,0,0,0,0,0,0,0,0,0,0,0,0,0,0,0,0,0,0,0,0,0,0,0,0,0,0,0,0,0,0,0,0,0,0,0,0,0,0,0,0,0,0,0,0,0,0,0,0,0,0,0,0,0,0,0,0,0,0,0,0,0,0,0,0,0,0,0,0,0,0,0,0,0,0,0,0,0,0,0,0,0,0,0,0,0,0,0,0,0,0,0,0,0,0,0,0,0,0,0,0,0,0,0,0,0,0,0,0,0,0,0,0,0,0,0,0,0,0,0,0,0,0,0,0,0,0,0,0,0,0,0,0,0,0,0,0,0,0,0,0,0,0,0,0,0,0,0,0,0,0,0,0,0,0,0,0,0,0,0,0,0,0,0,0,0,0,0,0,0,0,0,0,0,0,0,0,0,0,0,0,0,0,0,0,0,0,0,0,0,0,0,0,0,0,0,0,0,0,0,0,0,0,0,0,0,0,0,0,0,0,0,0,0,0,0,0,0,0,0,0,0,0,0,0,0,0,0,0,0,0,0,0,0,0,0,0,0,0,0,0,0,0,0,0,0,0,0,0,0,0,0,0,0,0,0,0,0,0,0,0,0,0,0,0,0,0,0,0,0,0,0,0,0,0,0,0,0,0,0,0,0,0,0,0,0,0,0,0,0,0,0,0,0,0,0,0,0,0,0,0,0,0,0,0,0,0,0,0,0,0,0,0,0,0,0,0,0,0,0,0,0,0,0,0,0,0,0,0,0,0,0,0,0,0,0,0,0,0,0,0,0,0,0,0,0,0,0,0,0,0,0,0,0,0,0,0,0,0,0,0,0,0,0,0,0,0,0,0,0,0,0,0,0,0,0,0,0,0,0,0,0,0,0,0,0,0,0,0,0,0,0,0,0,0,0,0,0,0,0,0,0,0,0,0,0,0,0,0,0,0,0,0,0,0,0,0,0,0,0,0,0,0,0,0,0,0,0,0,0,0,0,0,0,0,0,0,0,0,0,0,0,0,0,0,0,0,0,0,0,0,0,0,0,0,0,0,0,0,0,0,0,0,0,0,0,0,0,0,0,0,0,0,0,0,0,0,0,0,0,0,0,0,0,0,0,0,0,0,0,0,0,0,0,0,0,0,0,0,0,0,0,0,0,0,0,0,0,0,0,0,0,0,0,0,0,0,0,0,0,0,0,0,0,0,0,0,0,0,0,0,0,0,0,0,0,0,0,0,0,0,0,0,0,0,0,0,0,0,0,0,0,0,0,0,0,0,0,0,0,0,0,0,0,0,0,0,0,0,0,0,0,0,0,0,0,0,0,0,0,0,0,0,0,0,0,0,0,0,0,0,0,0,0,0,0,0,0,0,0,0,0,0,0,0,0,0,0,0,0,0,0,0,0,0,0,0,0,0,0,0,0,0,0,0,0,0,0,0,0,0,0,0,0,0,0,0,0,0,0,0,0,0,0,0,0,0,0,0,0,0,0,0,0,0,0,0,0,0,0,0,0,0,0,0,0,0,0,0,0,0,0,0,0,0,0,0,0,0,0,0,0,0,0,0,0,0,0,0,0,0,0,0,0,0,0,0,0,0,0,0,0,0,0,0,0,0,0,0,0,0,0,0,0,0,0,0,0,0,0,0,0,0,0,0,0,0,0,0,0,0,0,0,0,0,0,0,0,0,0,0,0,0,0,0,0,0,0,0,0,0,0,0,0,0,0,0,0,0,0,0,0,0,0,0,0,0,0,0,0,0,0,0,0,0,0,0,0,0,0,0,0,0,0,0,0,0,0,0,0,0,0,0,0,0,0,0,0,0,0,0,0,0,0,0,0,0,0,0,0,0,0,0,0,0,0,0,0,0,0,0,0,0,0,0,0,0,0,0,0,0,0,0,0,0,0,0,0,0,0,0,0,0,0,0,0,0,0,0,0,0,0,0,0,0,0,0,0,0,0,0,0,0,0,0,0,0,0,0,0,0,0,0,0,0,0,0,0,0,0,0,0,0,0,0,0,0,0,0,0,0,0,0,0,0,0,0,0,0,0,0,0,0,0,0,0,0,0,0,0,0,0,0,0,0,0,0,0,0,0,0,0,0,0,0,0,0,0,0,0,0,0,0,0,0,0,0,0,0,0,0,0,0,0,0,0,0,0,0,0,0,0,0,0,0,0,0,0,0,0,0,0,0,0,0,0,0,0,0,0,0,0,0,0,0,0,0,0,0,0,0,0,0,0,0,0,0,0,0,0,0,0,0,0,0,0,0,0,0,0,0,0,0,0,0,0,0,0,0,0,0,0,0,0,0,0,0,0,0,0,0,0,0,0,0,0,0,0,0,0,0,0,0,0,0,0,0,0,0,0,0,0,0,0,0,0,0,0,0,0,0,0,0,0,0,0,0,0,0,0,0,0,0,0,0,0,0,0,0,0,0,0,0,0,0,0,0,0,0,0,0,0,0,0,0,0,0,0,0,0,0,0,0,0,0,0,0,0,0,0,0,0,0,0,0,0,0,0,0,0,0,0,0,0,0,0,0,0,0,0,0,0,0,0,0,0,0,0,0,0,0,0,0,0,0,0,0,0,0,0,0,0,0,0,0,0,0,0,0,0,0,0,0,0,0,0,0,0,0,0,0,0,0,0,0,0,0,0,0,0,0,0,0,0,0,0,0,0,0,0,0,0,0,0,0,0,0,0,0,0,0,0,0,0,0,0,0,0,0,0,0,0,0,0,0,0,0,0,0,0,0,0,0,0,0,0,0,0,0,0,0,0,0,0,0,0,0,0,0,0,0,0,0,0,0,0,0,0,0,0,0,0,0,0,0,0,0,0,0,0,0,0,0,0,0,0,0,0,0,0,0,0,0,0,0,0,0,0,0,0,0,0,0,0,0,0,0,0,0,0,0,0,0,0,0,0,0,0,0,0,0,0,0,0,0,0,0,0,0,0,0,0,0,0,0,0,0,0,0,0,0,0,0,0,0,0,0,0,0,0,0,0,0,0,0,0,0,0,0,0,0,0,0,0,0,0,0,0,0,0,0,0,0,0,0,0,0,0,0,0,0,0,0,0,0,0,0,0,0,0,0,0,0,0,0,0,0,0,0,0,0,0,0,0,0,0,0,0,0,0,0,0,0,0,0,0,0,0,0,0,0,0,0,0,0,0,0,0,0,0,0,0,0,0,0,0,0,0,0,0,0,0,0,0,0,0,0,0,0,0,0,0,0,0,0,0,0,0,0,0,0,0,0,0,0,0,0,0,0,0,0,0,0,0,0,0,0,0,0,0,0,0,0,0,0,0,0,0,0,0,0,0,0,0,0,0,0,0,0,0,0,0,0,0,0,0,0,0,0,0,0,0,0,0,0,0,0,0,0,0,0,0,0,0,0,0,0,0,0,0,0,0,0,0,0,0,0,0,0,0,0,0,0,0,0,0,0,0,0,0,0,0,0,0,0,0,0,0,0,0,0,0,0,0,0,0,0,0,0,0,0,0,0,0,0,0,0,0,0,0,0,0,0,0,0,0,0,0,0,0,0,0,0,0,0,0,0,0,0,0,0,0,0,0,0,0,0,0,0,0,0,0,0,0,0,0,0,0,0,0,0,0,0,0,0,0,0,0,0,0,0,0,0,0,0,0,0,0,0,0,0,0,0,0,0,0,0,0,0,0,0,0,0,0,0,0,0,0,0,0,0,0,0,0,0,0,0,0,0,0,0,0,0,0,0,0,0,0,0,0,0,0,0,0,0,0,0,0,0,0,0,0,0,0,0,0,0,0,0,0,0,0,0,0,0,0,0,0,0,0,0,0,0,0,0,0,0,0,0,0,0,0,0,0,0,0,0,0,0,0,0,0,0,0,0,0,0,0,0,0,0,0,0,0,0,0,0,0,0,0,0,0,0,0,0,0,0,0,0,0,0,0,0,0,0,0,0,0,0,0,0,0,0,0,0,0,0,0,0,0,0,0,0,0,0,0,0,0,0,0,0,0,0,0,0,0,0,0,0,0,0,0,0,0,0,0,0,0,0,0,0,0,0,0,0,0,0,0,0,0,0,0,0,0,0,0,0,0,0,0,0,0,0,0,0,0,0,0,0,0,0,0,0,0,0,0,0,0,0,0,0,0,0,0,0,0,0,0,0,0,0,0,0,0,0,0,0,0,0,0,0,0,0,0,0,0,0,0,0,0,0,0,0,0,0,0,0,0,0,0,0,0,0,0,0,0,0,0,0,0,0,0,0,0,0,0,0,0,0,0,0,0,0,0,0,0,0,0,0,0,0,0,0,0,0,0,0,0,0,0,0,0,0,0,0,0,0,0,0,0,0,0,0,0,0,0,0,0,0,0,0,0,0,0,0,0,0,0,0,0,0,0,0,0,0,0,0,0,0,0,0,0,0,0,0,0,0,0,0,0,0,0,0,0,0,0,0,0,0,0,0,0,0,0,0,0,0,0,0,0,0,0,0,0,0,0,0,0,0,0,0,0,0,0,0,0,0,0,0,0,0,0,0,0,0,0,0,0,0,0,0,0,0,0,0,0,0,0,0,0,0,0,0,0,0,0,0,0,0,0,0,0,0,0,0,0,0,0,0,0,0,0,0,0,0,0,0,0,0,0,0,0,0,0,0,0,0,0,0,0,0,0,0,0,0,0,0,0,0,0,0,0,0,0,0,0,0,0,0,0,0,0,0,0,0,0,0,0,0,0,0,0,0,0,0,0,0,0,0,0,0,0,0,0,0,0,0,0,0,0,0,0,0,0,0,0,0,0,0,0,0,0,0,0,0,0,0,0,0,0,0,0,0,0,0,0,0,0,0,0,0,0,0,0,0,0,0,0,0,0,0,0,0,0,0,0,0,0,0,0,0,0,0,0,0,0,0,0,0,0,0,0,0,0,0,0,0,0,0,0,0,0,0,0,0,0,0,0,0,0,0,0,0,0,0,0,0,0,0,0,0,0,0,0,0,0,0,0,0,0,0,0,0,0,0,0,0,0,0,0,0,0,0,0,0,0,0,0,0,0,0,0,0,0,0,0,0,0,0,0,0,0,0,0,0,0,0,0,0,0,0,0,0,0,0,0,0,0,0,0,0,0,0,0,0,0,0,0,0,0,0,0,0,0,0,0,0,0,0,0,0,0,0,0,0,0,0,0,0,0,0,0,0,0,0,0,0,0,0,0,0,0,0,0,0,0,0,0,0,0,0,0,0,0,0,0,0,0,0,0,0,0,0,0,0,0,0,0,0,0,0,0,0,0,0,0,0,0,0,0,0,0,0,0,0,0,0,0,0,0,0,0,0,0,0,0,0,0,0,0,0,0,0,0,0,0,0,0,0,0,0,0,0,0,0,0,0,0,0,0,0,0,0,0,0,0,0,0,0,0,0,0,0,0,0,0,0,0,0,0,0,0,0,0,0,0,0,0,0,0,0,0,0,0,0,0,0,0,0,0,0,0,0,0,0,0,0,0,0,0,0,0,0,0,0,0,0,0,0,0,0,0,0,0,0,0,0,0,0,0,0,0,0,0,0,0,0,0,0,0,0,0,0,0,0,0,0,0,0,0,0,0,0,0,0,0,0,0,0,0,0,0,0,0,0,0,0,0,0,0,0,0,0,0,0,0,0,0,0,0,0,0,0,0,0,0,0,0,0,0,0,0,0,0,0,0,0,0,0,0,0,0,0,0,0,0,0,0,0,0,0,0,0,0,0,0,0,0,0,0,0,0,0,0,0,0,0,0,0,0,0,0,0,0,0,0,0,0,0,0,0,0,0,0,0,0,0,0,0,0,0,0,0,0,0,0,0,0,0,0,0,0,0,0,0,0,0,0,0,0,0,0,0,0,0,0,0,0,0,0,0,0,0,0,0,0,0,0,0,0,0,0,0,0,0,0,0,0,0,0,0,0,0,0],"height":83,"id":6,"name":"start","opacity":1,"visible":true,"width":94,"x":0,"y":0},{"type":"tilelayer","data":[2,2,2,2,2,2,2,2,2,0,0,0,0,2147483650,2147483650,2147483650,2147483650,2147483650,2147483650,2147483650,2147483650,2147483650,2,2,2,2,2,2,2,2,2,0,0,0,0,2,2,2,2,2,2,2,2,2,2,2,0,0,2,2,2,2,2,2,2,2,2,2,2,0,0,0,0,2147483650,2147483650,2147483650,2147483650,2147483650,2147483650,2147483650,2147483650,2147483650,2,2,2,2,2,2,2,2,2,0,0,0,0,2147483650,2147483650,2147483650,2147483650,2147483650,2147483650,2147483650,2147483650,2147483650,2,0,0,0,0,0,0,0,2,0,0,0,0,2147483650,0,0,0,0,0,0,0,2147483650,2,0,0,0,0,0,0,0,2,0,0,0,0,2,0,0,0,0,0,0,0,0,0,2,0,0,2,0,0,0,0,0,0,0,0,0,2,0,0,0,0,2147483650,0,0,0,0,0,0,0,2147483650,2,0,0,0,0,0,0,0,2,0,0,0,0,2147483650,0,0,0,0,0,0,0,2147483650,2,0,0,0,0,0,0,0,2,0,0,0,0,2147483650,0,0,0,0,0,0,0,2147483650,2,0,0,0,0,0,0,0,2,0,0,0,0,2,2,2,2,2,2,2,2,2,2,2,0,0,2,2,2,2,2,2,2,2,2,2,2,0,0,0,0,2147483650,0,0,0,0,0,0,0,2147483650,2,0,0,0,0,0,0,0,2,0,0,0,0,2147483650,0,0,0,0,0,0,0,2147483650,2,2,2,2,2,2,2,2,2,0,0,0,0,2147483650,2147483650,2147483650,2147483650,2147483650,2147483650,2147483650,2147483650,2147483650,2,2,2,2,2,2,2,2,2,0,0,0,0,2,0,0,0,0,0,0,0,0,0,2,0,0,2,0,0,0,0,0,0,0,0,0,2,0,0,0,0,2147483650,2147483650,2147483650,2147483650,2147483650,2147483650,2147483650,2147483650,2147483650,2,2,2,2,2,2,2,2,2,0,0,0,0,2147483650,2147483650,2147483650,2147483650,2147483650,2147483650,2147483650,2147483650,2147483650,2,0,0,0,0,0,0,0,0,0,0,0,0,0,0,0,0,0,0,0,0,2147483650,2,0,0,0,0,0,0,0,0,0,0,0,0,2,0,0,0,0,0,0,0,0,0,2,0,0,2,0,0,0,0,0,0,0,0,0,2,0,0,0,0,0,0,0,0,0,0,0,0,2147483650,2,0,0,0,0,0,0,0,0,0,0,0,0,0,0,0,0,0,0,0,0,2147483650,2,0,0,0,0,0,0,0,0,0,0,0,0,0,0,0,0,0,0,0,0,2147483650,2,0,0,0,0,0,0,0,0,0,0,0,0,2,0,0,0,0,0,0,0,0,0,2,0,0,2,0,0,0,0,0,0,0,0,0,2,0,0,0,0,0,0,0,0,0,0,0,0,2147483650,2,0,0,0,0,0,0,0,0,0,0,0,0,0,0,0,0,0,0,0,0,2147483650,2,0,0,0,0,0,0,0,0,0,0,0,0,0,0,0,0,0,0,0,0,2147483650,2,0,0,0,0,0,0,0,0,0,0,0,0,0,0,0,0,0,0,0,0,0,0,0,0,0,0,0,0,0,0,0,0,0,0,0,0,0,0,0,0,0,0,0,0,0,0,0,0,2147483650,2,0,0,0,0,0,0,0,0,0,0,0,0,0,0,0,0,0,0,0,0,2147483650,2,0,0,0,0,0,0,0,0,0,0,0,0,0,0,0,0,0,0,0,0,2147483650,2,0,0,0,0,0,0,0,0,0,0,0,0,0,0,0,0,0,0,0,0,0,0,0,0,0,0,0,0,0,0,0,0,0,0,0,0,0,0,0,0,0,0,0,0,0,0,0,0,2147483650,2,0,0,0,0,0,0,0,0,0,0,0,0,0,0,0,0,0,0,0,0,2147483650,2,0,0,0,0,0,0,0,0,0,0,0,0,0,0,0,0,0,0,0,0,2147483650,2,0,0,0,0,0,0,0,0,0,0,0,0,0,0,0,0,0,0,0,0,0,0,0,0,0,0,0,0,0,0,0,0,0,0,0,0,0,0,0,0,0,0,0,0,0,0,0,0,2147483650,2,0,0,0,0,0,0,0,0,0,0,0,0,0,0,0,0,0,0,0,0,2147483650,2,0,0,0,0,0,0,0,0,0,0,0,0,0,0,0,0,0,0,0,0,2147483650,2,0,0,0,0,0,0,0,0,0,0,0,0,0,0,0,0,0,0,0,0,0,0,0,0,0,0,0,0,0,0,0,0,0,0,0,0,0,0,0,0,0,0,0,0,0,0,0,0,2147483650,2,0,0,0,0,0,0,0,0,0,0,0,0,0,0,0,0,0,0,0,0,2147483650,0,0,0,0,0,0,0,0,0,0,0,0,0,0,0,0,0,0,0,0,0,0,0,0,0,0,0,0,0,0,0,0,0,0,0,0,0,0,0,0,0,0,0,0,0,0,0,0,0,0,0,0,0,0,0,0,0,0,0,0,0,0,0,0,0,0,0,0,0,0,0,0,0,0,0,0,0,0,0,0,0,0,0,0,0,0,0,0,0,0,0,0,0,0,2,2,2,2,2,2,2,2,2,0,0,0,0,0,0,0,0,0,0,0,0,0,0,0,0,0,0,0,0,0,0,0,0,0,0,0,0,0,0,0,0,0,0,0,0,0,0,0,0,0,0,0,0,0,0,0,0,0,0,0,0,0,0,0,0,0,0,0,0,0,0,0,0,0,0,0,0,0,0,0,0,0,0,0,0,2147483650,2147483650,2147483650,2147483650,2147483650,2147483650,2147483650,2147483650,2147483650,2,0,0,0,0,0,0,0,2,0,0,0,0,0,0,0,0,0,0,0,0,0,0,0,0,0,0,0,0,0,0,0,0,0,0,0,0,0,0,0,0,0,0,0,0,0,0,0,0,0,0,0,0,0,0,0,0,0,0,0,0,0,0,0,0,0,0,0,0,0,0,0,0,0,0,0,0,0,0,0,0,0,0,0,0,2147483650,0,0,0,0,0,0,0,2147483650,2,0,0,0,0,0,0,0,2,0,0,0,0,0,0,0,0,0,0,0,0,0,0,0,0,0,0,0,0,0,0,0,0,0,0,0,0,0,0,0,0,0,0,0,0,0,0,0,0,0,0,0,0,0,0,0,0,0,0,0,0,0,0,0,0,0,0,0,0,0,0,0,0,0,0,0,0,0,0,0,0,0,0,0,0,2147483650,0,0,0,0,0,0,0,2147483650,2,2,2,2,2,2,2,2,2,0,0,0,0,0,0,0,0,0,0,0,0,0,0,0,0,0,0,0,0,0,0,0,0,0,0,0,0,0,0,0,0,0,0,0,0,0,0,0,0,0,0,0,0,0,0,0,0,0,0,0,0,0,0,0,0,0,0,0,0,0,0,0,0,0,0,0,0,0,0,0,0,0,0,0,0,2147483650,2147483650,2147483650,2147483650,2147483650,2147483650,2147483650,2147483650,2147483650,2,0,0,0,0,0,0,0,0,0,0,0,0,0,0,0,0,0,0,0,0,0,0,2,2,2,2,2,2,2,2,2,2,2,2,2,2,2,2,2,2,2,2,2,2,2,2,2,2,2,2,2,2,2,2,2,2,2,2,2,2,2,2,2,2,2,2,2,2,2,2,0,0,0,0,0,0,0,0,0,0,0,0,0,0,0,0,0,0,0,0,0,0,2147483650,2,0,0,0,0,0,0,0,0,0,0,0,0,0,0,0,0,0,0,0,0,0,0,2,0,0,0,0,0,0,0,0,0,0,2,2,0,0,0,0,0,0,0,0,0,0,2,2,0,0,0,0,0,0,0,0,0,0,2,2,0,0,0,0,0,0,0,0,0,0,2,0,0,0,0,0,0,0,0,0,0,0,0,0,0,0,0,0,0,0,0,0,0,2147483650,2,0,0,0,0,0,0,0,0,0,0,0,0,0,0,0,0,0,0,0,0,0,0,2,0,0,0,0,0,0,0,0,0,0,2,2,0,0,0,0,0,0,0,0,0,0,2,2,0,0,0,0,0,0,0,0,0,0,2,2,0,0,0,0,0,0,0,0,0,0,2,0,0,0,0,0,0,0,0,0,0,0,0,0,0,0,0,0,0,0,0,0,0,2147483650,2,0,0,0,0,0,0,0,0,0,0,0,0,0,0,0,0,0,0,0,0,0,0,2,2,2,2,2,2,2,2,2,2,2,2,2,2,2,2,2,2,2,2,2,2,2,2,2,2,2,2,2,2,2,2,2,2,2,2,2,2,2,2,2,2,2,2,2,2,2,2,0,0,0,0,0,0,0,0,0,0,0,0,0,0,0,0,0,0,0,0,0,0,2147483650,2,0,0,0,0,0,0,0,0,0,0,0,0,0,0,0,0,0,0,0,0,0,0,0,0,0,0,0,0,0,0,0,0,0,0,2,0,0,0,0,0,0,0,0,0,0,0,2,0,0,0,0,0,0,0,0,0,0,0,2,0,0,0,0,0,0,0,0,0,0,0,0,0,0,0,0,0,0,0,0,0,0,0,0,0,0,0,0,0,0,0,0,0,2147483650,2,0,0,0,0,0,0,0,0,0,0,0,0,0,0,0,0,0,0,0,0,0,0,0,0,0,0,0,0,0,0,0,0,0,0,2,0,0,0,0,0,0,0,0,0,0,0,2,0,0,0,0,0,0,0,0,0,0,0,2,0,0,0,0,0,0,0,0,0,0,0,0,0,0,0,0,0,0,0,0,0,0,0,0,0,0,0,0,0,0,0,0,0,2147483650,0,0,0,0,0,0,0,0,0,0,0,0,0,0,0,0,0,0,0,0,0,0,0,0,0,0,0,0,0,0,0,0,0,0,0,2,0,0,0,0,0,0,0,0,0,0,0,2,0,0,0,0,0,0,0,0,0,0,0,2,0,0,0,0,0,0,0,0,0,0,0,0,0,0,0,0,0,0,0,0,0,0,0,0,0,0,0,0,0,0,0,0,0,0,2,2,2,2,2,2,2,2,2,0,0,0,0,0,0,0,0,0,0,0,0,0,0,0,0,0,0,0,0,0,0,0,0,0,0,2,0,0,0,0,0,0,0,0,0,0,0,2,0,0,0,0,0,0,0,0,0,0,0,2,0,0,0,0,0,0,0,0,0,0,0,0,0,0,0,0,0,0,0,0,0,0,0,0,0,2147483650,2147483650,2147483650,2147483650,2147483650,2147483650,2147483650,2147483650,2147483650,2,0,0,0,0,0,0,0,2,0,0,0,0,0,0,0,0,0,0,0,0,0,0,0,0,0,0,0,0,0,0,0,0,0,0,2,0,0,0,0,0,0,0,0,0,0,0,2,0,0,0,0,0,0,0,0,0,0,0,2,0,0,0,0,0,0,0,0,0,0,0,0,0,0,0,0,0,0,0,0,0,0,0,0,0,2147483650,0,0,0,0,0,0,0,2147483650,2,0,0,0,0,0,0,0,2,0,0,0,0,0,0,0,0,0,0,0,0,0,0,0,0,0,0,0,0,0,0,0,0,0,0,2,0,0,0,0,0,0,0,0,0,0,0,2,0,0,0,0,0,0,0,0,0,0,0,2,0,0,0,0,0,0,0,0,0,0,0,0,0,0,0,0,0,0,0,0,0,0,0,0,0,2147483650,0,0,0,0,0,0,0,2147483650,2,2,2,2,2,2,2,2,2,0,0,0,0,0,0,0,0,0,0,0,0,0,0,0,0,0,0,0,0,0,0,0,0,0,0,2,0,0,0,0,0,0,0,0,0,0,0,2,0,0,0,0,0,0,0,0,0,0,0,2,0,0,0,0,0,0,0,0,0,0,0,0,0,0,0,0,0,0,0,0,0,0,0,0,0,2147483650,2147483650,2147483650,2147483650,2147483650,2147483650,2147483650,2147483650,2147483650,2,0,0,0,0,0,0,0,0,0,0,0,0,0,0,0,0,0,0,0,0,0,0,0,0,0,0,0,0,0,0,0,0,0,0,2,0,0,0,0,0,0,0,0,0,0,0,2,0,0,0,0,0,0,0,0,0,0,0,2,0,0,0,0,0,0,0,0,0,0,0,0,0,0,0,0,0,0,0,0,0,0,0,0,0,0,0,0,0,0,0,0,0,2147483650,2,0,0,0,0,0,0,0,0,0,0,0,0,0,0,0,0,0,0,0,0,0,0,0,0,0,0,0,0,0,0,0,0,0,0,2,0,0,0,0,0,0,0,0,0,0,0,2,0,0,0,0,0,0,0,0,0,0,0,2,0,0,0,0,0,0,0,0,0,0,0,0,0,0,0,0,0,0,0,0,0,0,0,0,0,0,0,0,0,0,0,0,0,2147483650,2,0,0,0,0,0,0,0,0,0,0,0,0,0,0,0,0,0,0,0,0,0,0,0,0,0,0,0,0,0,0,0,0,0,0,2,0,0,0,0,0,0,0,0,0,0,0,2,0,0,0,0,0,0,0,0,0,0,0,2,0,0,0,0,0,0,0,0,0,0,0,0,0,0,0,0,0,0,0,0,0,0,0,0,0,0,0,0,0,0,0,0,0,2147483650,2,0,0,0,0,0,0,0,0,0,0,0,0,0,0,0,0,0,0,0,0,0,0,0,0,0,0,0,0,0,0,0,0,0,0,0,0,0,0,0,0,0,0,0,0,0,0,0,0,0,0,0,0,0,0,0,0,0,0,0,0,0,0,0,0,0,0,0,0,0,0,0,0,0,0,0,0,0,0,0,0,0,0,0,0,0,0,0,0,0,0,0,0,2147483650,2,0,0,0,0,0,0,0,0,0,0,0,0,0,0,0,0,0,0,0,0,0,0,0,0,0,0,0,0,0,0,0,0,0,0,0,0,0,0,0,0,0,0,0,0,0,0,0,0,0,0,0,0,0,0,0,0,0,0,0,0,0,0,0,0,0,0,0,0,0,0,0,0,0,0,0,0,0,0,0,0,0,0,0,0,0,0,0,0,0,0,0,0,2147483650,2,0,0,0,0,0,0,0,0,0,0,0,0,0,0,0,0,0,0,0,0,0,0,0,0,0,0,0,0,0,0,0,0,0,0,0,0,0,0,0,0,0,0,0,0,0,0,0,0,0,0,0,0,0,0,0,0,0,0,0,0,0,0,0,0,0,0,0,0,0,0,0,0,0,0,0,0,0,0,0,0,0,0,0,0,0,0,0,0,0,0,0,0,2147483650,0,0,0,0,0,0,0,0,0,0,0,0,0,0,0,0,0,0,0,0,0,0,0,0,0,0,0,0,0,0,0,0,0,0,0,0,0,0,0,0,0,0,0,0,0,0,0,0,0,0,0,0,0,0,0,0,0,0,0,0,0,0,0,0,0,0,0,0,0,0,0,0,0,0,0,0,0,0,0,0,0,0,0,0,0,0,0,0,0,0,0,0,0,0,2,2,2,2,2,2,2,2,2,0,0,0,0,2147483650,2147483650,2147483650,2147483650,2147483650,2147483650,2147483650,2147483650,2147483650,2147483650,2147483650,2147483650,2,2,2,2,2,2,2,2,2,2,2,2,0,0,0,0,0,0,0,0,0,0,0,0,0,0,0,0,0,0,0,0,2147483650,2147483650,2147483650,2147483650,2147483650,2147483650,2147483650,2147483650,2147483650,2147483650,2147483650,2,2,2,2,2,2,2,2,2,2,2,2,2,0,0,0,0,2147483650,2147483650,2147483650,2147483650,2147483650,2147483650,2147483650,2147483650,2147483650,2,0,0,0,0,0,0,0,2,0,0,0,0,2147483650,0,0,0,0,0,0,0,0,0,0,2147483650,2,0,0,0,0,0,0,0,0,0,0,2,0,0,0,0,0,0,0,2,2,2,2,2,2,0,0,0,0,0,0,0,2147483650,0,0,0,0,0,0,0,0,0,0,2,2,0,0,0,0,0,0,0,0,0,2,2,0,0,0,0,2147483650,0,0,0,0,0,0,0,2147483650,2,0,0,0,0,0,0,0,2,0,0,0,0,2147483650,0,0,0,0,0,0,0,0,0,0,2147483650,2,0,0,0,0,0,0,0,0,0,0,2,0,0,0,0,0,0,2,2,2,2,2,2,2,2,0,0,0,0,0,0,2147483650,0,0,0,0,0,0,0,0,0,0,2,2,0,0,0,0,0,0,0,0,0,2,2,0,0,0,0,2147483650,0,0,0,0,0,0,0,2147483650,2,2,2,2,2,2,2,2,2,0,0,0,0,2147483650,2147483650,2147483650,2147483650,2147483650,2147483650,2147483650,2147483650,2147483650,2147483650,2147483650,2147483650,2,2,2,2,2,2,2,2,2,2,2,2,0,0,0,0,0,0,2,2,2,2,2,2,2,2,0,0,0,0,0,0,2147483650,2147483650,2147483650,2147483650,2147483650,2147483650,2147483650,2147483650,2147483650,2147483650,2147483650,2,2,2,2,2,2,2,2,2,2,2,2,2,0,0,0,0,2147483650,2147483650,2147483650,2147483650,2147483650,2147483650,2147483650,2147483650,2147483650,2,0,0,0,0,0,0,0,0,0,0,0,0,0,0,0,0,0,0,0,0,0,0,0,2147483650,2,0,0,0,0,0,0,0,0,0,0,0,0,0,0,0,0,0,2,0,0,0,0,0,0,2,0,0,0,0,0,0,0,0,0,0,0,0,0,0,0,0,0,2,2,0,0,0,0,0,0,0,0,0,0,0,0,0,0,0,0,0,0,0,0,0,0,0,2147483650,2,0,0,0,0,0,0,0,0,0,0,0,0,0,0,0,0,0,0,0,0,0,0,0,2147483650,2,0,0,0,0,0,0,0,0,0,0,0,0,0,0,0,0,0,0,0,0,0,0,0,0,0,0,0,0,0,0,0,0,0,0,0,0,0,0,0,0,0,0,2,2,0,0,0,0,0,0,0,0,0,0,0,0,0,0,0,0,0,0,0,0,0,0,0,2147483650,2,0,0,0,0,0,0,0,0,0,0,0,0,0,0,0,0,0,0,0,0,0,0,0,2147483650,2,0,0,0,0,0,0,0,0,0,0,0,0,0,0,0,0,0,0,0,0,0,0,0,0,0,0,0,0,0,0,0,0,0,0,0,0,0,0,0,0,0,0,2,2,0,0,0,0,0,0,0,0,0,0,0,0,0,0,0,0,0,0,0,0,0,0,0,2147483650,2,0,0,0,0,0,0,0,0,0,0,0,0,0,0,0,0,0,0,0,0,0,0,0,2147483650,2,0,0,0,0,0,0,0,0,0,0,0,0,0,0,0,0,0,0,0,0,0,0,0,0,0,0,0,0,0,0,0,0,0,0,0,0,0,0,0,0,0,0,2,2,0,0,0,0,0,0,0,0,0,0,0,0,0,0,0,0,0,0,0,0,0,0,0,2147483650,2,0,0,0,0,0,0,0,0,0,0,0,0,0,0,0,0,0,0,0,0,0,0,0,2147483650,2,0,0,0,0,0,0,0,0,0,0,0,0,0,0,0,0,0,0,0,0,0,0,0,0,0,0,0,0,0,0,0,0,0,0,0,0,0,0,0,0,0,0,2,2,0,0,0,0,0,0,0,0,0,0,0,0,0,0,0,0,0,0,0,0,0,0,0,2147483650,2,0,0,0,0,0,0,0,0,0,0,0,0,0,0,0,0,0,0,0,0,0,0,0,2147483650,2,0,0,0,0,0,0,0,0,0,0,0,0,0,0,0,0,0,0,0,0,0,0,0,0,0,0,0,0,0,0,0,0,0,0,0,0,0,0,0,0,0,0,2,2,0,0,0,0,0,0,0,0,0,0,0,0,0,0,0,0,0,0,0,0,0,0,0,2147483650,0,0,0,0,0,0,0,0,0,0,0,0,0,0,0,0,0,0,0,0,0,0,0,0,2147483650,2,0,0,0,0,0,0,0,0,0,0,0,0,0,0,0,0,0,0,0,0,0,0,0,0,0,0,0,0,0,0,0,0,0,0,0,0,0,0,0,0,0,0,2,2,0,0,0,0,0,0,0,0,0,0,0,0,0,0,0,0,0,0,0,0,0,0,0,0,2,2,2,2,2,2,2,2,2,0,0,0,0,0,0,0,0,0,0,0,0,0,0,0,2147483650,2,0,0,0,0,0,0,0,0,0,0,0,0,0,0,0,0,0,2,0,0,0,0,0,0,2,0,0,0,0,0,0,0,0,0,0,0,0,0,0,0,0,0,2,2,0,0,0,0,0,0,0,0,0,0,0,0,0,0,0,2147483650,2147483650,2147483650,2147483650,2147483650,2147483650,2147483650,2147483650,2147483650,2,0,0,0,0,0,0,0,2,0,0,0,0,0,0,0,0,0,0,0,0,0,0,0,2147483650,2,0,0,0,0,0,0,0,0,0,0,0,0,0,0,0,0,0,0,0,0,0,0,0,0,0,0,0,0,0,0,0,0,0,0,0,0,0,0,0,0,0,0,2,2,0,0,0,0,0,0,0,0,0,0,0,0,0,0,0,2147483650,0,0,0,0,0,0,0,2147483650,2,0,0,0,0,0,0,0,2,0,0,0,0,0,0,0,0,0,0,0,0,0,0,0,2147483650,2,0,0,0,0,0,0,0,0,0,0,0,0,0,0,0,0,0,0,0,0,0,0,0,0,0,0,0,0,0,0,0,0,0,0,0,0,0,0,0,0,0,0,2,2,0,0,0,0,0,0,0,0,0,0,0,0,0,0,0,2147483650,0,0,0,0,0,0,0,2147483650,2,2,2,2,2,2,2,2,2,0,0,0,0,0,0,0,0,0,0,0,0,0,0,0,0,0,0,0,0,0,0,0,0,0,0,0,0,0,0,0,0,0,0,0,0,0,0,0,0,0,0,0,0,0,0,0,0,0,0,0,0,0,0,0,0,0,0,0,0,0,0,0,0,0,0,0,0,0,0,0,0,0,0,0,0,2147483650,2147483650,2147483650,2147483650,2147483650,2147483650,2147483650,2147483650,2147483650,2,0,0,0,0,0,0,0,0,0,0,0,0,0,0,0,0,0,0,0,0,0,0,0,0,0,0,0,0,0,0,0,0,0,0,0,0,0,0,0,0,0,0,0,0,0,0,0,0,0,0,0,0,0,0,0,0,0,0,0,0,0,0,0,0,0,0,0,0,0,0,0,0,0,0,0,0,0,0,0,0,0,0,0,0,0,0,0,0,0,0,0,0,2147483650,2,0,0,0,0,0,0,0,0,0,0,0,0,0,0,0,0,0,0,0,0,0,0,0,0,0,0,0,0,0,0,0,0,0,0,0,0,0,0,0,0,0,0,0,0,0,0,0,0,0,0,0,0,0,0,0,0,0,0,0,0,0,0,0,0,0,0,0,0,0,0,0,0,0,0,0,0,0,0,0,0,0,0,0,0,0,0,0,0,0,0,0,0,2147483650,2,0,0,0,0,0,0,0,0,0,0,0,0,0,0,0,0,0,0,0,0,0,0,0,0,0,0,0,0,0,0,0,0,0,0,0,0,0,0,0,0,0,0,0,0,0,0,0,0,0,0,0,0,0,0,0,0,0,0,0,0,0,0,0,0,0,0,0,0,0,0,0,0,0,0,0,0,0,0,0,0,0,0,0,0,0,0,0,0,0,0,0,0,2147483650,2,0,0,0,0,0,0,0,0,0,0,0,0,2,2,2,2,2,2,2,2,2,2,2,0,2,2,2,2,2,2,2,2,2,2,2,2,0,0,0,0,0,0,0,0,0,0,0,0,0,0,0,0,0,0,0,0,2147483650,2147483650,2147483650,2147483650,2147483650,2147483650,2147483650,2147483650,2147483650,2147483650,2147483650,2147483650,0,2,2,2,2,2,2,2,2,2,2,2,0,0,0,0,0,0,0,0,0,0,0,0,2147483650,2,0,0,0,0,0,0,0,0,0,0,0,0,2,0,0,0,0,0,0,0,0,0,2,0,2,0,0,0,0,0,0,0,0,0,0,2,0,0,0,0,0,0,0,0,0,0,0,0,0,0,0,0,0,0,0,0,2147483650,0,0,0,0,0,0,0,0,0,0,2147483650,0,2,0,0,0,0,0,0,0,0,0,2,0,0,0,0,0,0,0,0,0,0,0,0,2147483650,2,0,0,0,0,0,0,0,0,0,0,0,0,2,2,2,2,2,2,2,2,2,2,2,0,2,0,0,0,0,0,0,0,0,0,0,2,0,0,0,0,0,0,0,0,0,0,0,0,0,0,0,0,0,0,0,0,2147483650,0,0,0,0,0,0,0,0,0,0,2147483650,0,2,2,2,2,2,2,2,2,2,2,2,0,0,0,0,0,0,0,0,0,0,0,0,2147483650,0,0,0,0,0,0,0,0,0,0,0,0,0,2,0,0,0,0,0,0,0,0,0,2,0,2,2,2,2,2,2,2,2,2,2,2,2,0,0,0,0,0,0,0,0,0,0,0,0,0,0,0,0,0,0,0,0,2147483650,2147483650,2147483650,2147483650,2147483650,2147483650,2147483650,2147483650,2147483650,2147483650,2147483650,2147483650,0,2,0,0,0,0,0,0,0,0,0,2,0,0,0,0,0,0,0,0,0,0,0,0,0,2,2,2,2,2,2,2,2,2,0,0,0,0,2,0,0,0,0,0,0,0,0,0,2,0,2,0,0,0,0,0,0,0,0,0,0,0,0,0,0,0,0,0,0,0,0,0,0,0,0,0,0,0,0,0,0,0,0,0,0,0,0,0,0,0,0,0,0,2147483650,0,2,0,0,0,0,0,0,0,0,0,2,0,0,0,0,2147483650,2147483650,2147483650,2147483650,2147483650,2147483650,2147483650,2147483650,2147483650,2,0,0,0,0,0,0,0,2,0,0,0,0,2,0,0,0,0,0,0,0,0,0,2,0,2,0,0,0,0,0,0,0,0,0,0,0,0,0,0,0,0,0,0,0,0,0,0,0,0,0,0,0,0,0,0,0,0,0,0,0,0,0,0,0,0,0,0,2147483650,0,2,0,0,0,0,0,0,0,0,0,2,0,0,0,0,2147483650,0,0,0,0,0,0,0,2147483650,2,0,0,0,0,0,0,0,2,0,0,0,0,0,0,0,0,0,0,0,0,0,0,0,0,2,0,0,0,0,0,0,0,0,0,0,0,0,0,0,0,0,0,0,0,0,0,0,0,0,0,0,0,0,0,0,0,0,0,0,0,0,0,0,0,0,0,0,2147483650,0,0,0,0,0,0,0,0,0,0,0,0,0,0,0,0,2147483650,0,0,0,0,0,0,0,2147483650,2,2,2,2,2,2,2,2,2,0,0,0,0,0,0,0,0,0,0,0,0,0,0,0,0,2,0,0,0,0,0,0,0,0,0,0,0,0,0,0,0,0,0,0,0,0,0,0,0,0,0,0,0,0,0,0,0,0,0,0,0,0,0,0,0,0,0,0,2147483650,0,0,0,0,0,0,0,0,0,0,0,0,0,0,0,0,2147483650,2147483650,2147483650,2147483650,2147483650,2147483650,2147483650,2147483650,2147483650,2,0,0,0,0,0,0,0,0,0,0,0,0,0,0,0,0,0,0,0,0,0,0,0,0,2,0,0,0,0,0,0,0,0,0,0,0,0,0,0,0,0,0,0,0,0,0,0,0,0,0,0,0,0,0,0,0,0,0,0,0,0,0,0,0,0,0,0,2147483650,0,0,0,0,0,0,0,0,0,0,0,0,0,0,0,0,0,0,0,0,0,0,0,0,2147483650,2,0,0,0,0,0,0,0,0,0,0,0,0,0,0,0,0,0,0,0,0,0,0,0,0,2,0,0,0,0,0,0,0,0,0,0,0,0,0,0,0,0,0,0,0,0,0,0,0,0,0,0,0,0,0,0,0,0,0,0,0,0,0,0,0,0,0,0,2147483650,0,0,0,0,0,0,0,0,0,0,0,0,0,0,0,0,0,0,0,0,0,0,0,0,2147483650,2,0,0,0,0,0,0,0,0,0,0,0,0,0,0,0,0,0,0,0,0,0,0,0,0,2,0,0,0,0,0,0,0,0,0,0,0,0,0,0,0,0,0,0,0,0,0,0,0,0,0,0,0,0,0,0,0,0,0,0,0,0,0,0,0,0,0,0,2147483650,0,0,0,0,0,0,0,0,0,0,0,0,0,0,0,0,0,0,0,0,0,0,0,0,2147483650,2,0,0,0,0,0,0,0,0,0,0,0,0,0,0,0,0,0,0,0,0,0,0,0,0,2,0,0,0,0,0,0,0,0,0,0,0,0,0,0,0,0,0,0,0,0,0,0,0,0,0,0,0,0,0,0,0,0,0,0,0,0,0,0,0,0,0,0,2147483650,0,0,0,0,0,0,0,0,0,0,0,0,0,0,0,0,0,0,0,0,0,0,0,0,2147483650,2,0,0,0,0,0,0,0,0,0,0,0,0,0,0,0,0,0,0,0,0,0,0,0,0,2,0,0,0,0,0,0,0,0,0,0,0,0,0,0,0,0,0,0,0,0,0,0,0,0,0,0,0,0,0,0,0,0,0,0,0,0,0,0,0,0,0,0,2147483650,0,0,0,0,0,0,0,0,0,0,0,0,0,0,0,0,0,0,0,0,0,0,0,0,2147483650,2,0,0,0,0,0,0,0,0,0,0,0,0,0,0,0,0,0,0,0,0,0,0,0,0,2,0,0,0,0,0,0,0,0,0,0,0,0,0,0,0,0,0,0,0,0,0,0,0,0,0,0,0,0,0,0,0,0,0,0,0,0,0,0,0,0,0,0,2147483650,0,0,0,0,0,0,0,0,0,0,0,0,0,0,0,0,0,0,0,0,0,0,0,0,2147483650,0,0,0,0,0,0,0,0,0,0,0,0,0,0,0,0,0,0,0,0,0,0,0,0,0,0,0,0,0,0,0,0,0,0,0,0,0,0,0,0,0,0,0,0,0,0,0,0,0,0,0,0,0,0,0,0,0,0,0,0,0,0,0,0,0,0,0,0,0,0,0,0,0,0,0,0,0,0,0,0,0,0,0,0,0,0,0,0,0,0,0,0,0,0,0,0,0,0,0,0,0,0,0,0,0,0,0,0,0,0,0,0,0,0,0,0,0,0,0,0,0,0,0,0,0,0,0,0,0,0,0,0,0,0,0,0,0,0,0,0,0,0,0,0,0,0,0,0,0,0,0,0,0,0,0,0,0,0,0,0,0,0,0,0,0,0,0,0,0,0,0,0,0,0,0,0,0,0,0,0,0,0,0,0,0,0,0,0,0,0,0,0,0,0,0,0,0,0,0,0,0,0,0,0,0,0,0,0,0,0,0,0,0,0,0,0,0,0,0,0,0,0,0,0,0,0,0,0,0,0,0,0,0,0,0,0,0,0,0,0,0,0,0,0,0,0,0,0,0,0,0,0,0,0,0,0,0,0,0,0,0,0,0,0,0,0,0,0,0,0,0,0,0,0,0,0,0,0,0,0,0,0,0,0,0,0,0,0,0,0,0,0,0,0,0,0,0,0,0,0,0,0,0,0,0,0,0,0,0,0,0,0,0,0,0,0,0,0,0,0,0,0,0,0,0,0,0,0,0,0,0,0,0,0,0,0,0,0,0,0,0,0,0,0,0,0,0,0,0,0,0,0,0,0,0,0,0,0,0,0,0,0,0,0,0,0,0,0,0,0,0,0,0,0,0,0,0,0,0,0,0,0,0,0,0,0,0,0,0,0,2147483650,2147483650,2147483650,2147483650,2147483650,2147483650,2147483650,2147483650,2147483650,2,2,2,2,2,2,2,2,2,0,0,0,2,2,2,2,2,2,2,2,2,2,2,0,0,2,2,2,2,2,2,2,2,2,2,2,0,0,0,2147483650,2147483650,2147483650,2147483650,2147483650,2147483650,2147483650,2147483650,2147483650,2,2,2,2,2,2,2,2,2,0,0,0,2,2,2,2,2,2,2,2,2,2,2,2,2,2,2,2,2,2,2,2,2,2,0,0,0,2147483650,0,0,0,0,0,0,0,2147483650,2,0,0,0,0,0,0,0,2,0,0,0,2,0,0,0,0,0,0,0,0,0,2,0,0,2,0,0,0,0,0,0,0,0,0,2,0,0,0,2147483650,0,0,0,0,0,0,0,2147483650,2,0,0,0,0,0,0,0,2,0,0,0,2,0,0,0,0,0,0,0,0,0,2,2,0,0,0,0,0,0,0,0,0,2,0,0,0,2147483650,0,0,0,0,0,0,0,2147483650,2,0,0,0,0,0,0,0,2,0,0,0,2,2,2,2,2,2,2,2,2,2,2,0,0,2,2,2,2,2,2,2,2,2,2,2,0,0,0,2147483650,0,0,0,0,0,0,0,2147483650,2,0,0,0,0,0,0,0,2,0,0,0,2,2,2,2,2,2,2,2,2,2,2,2,2,2,2,2,2,2,2,2,2,2,0,0,0,2147483650,2147483650,2147483650,2147483650,2147483650,2147483650,2147483650,2147483650,2147483650,2,2,2,2,2,2,2,2,2,0,0,0,2,0,0,0,0,0,0,0,0,0,2,0,0,2,0,0,0,0,0,0,0,0,0,2,0,0,0,2147483650,2147483650,2147483650,2147483650,2147483650,2147483650,2147483650,2147483650,2147483650,2,2,2,2,2,2,2,2,2,0,0,0,2,0,0,0,0,0,0,0,0,0,2,2,0,0,0,0,0,0,0,0,0,2,0,0,0,0,0,0,0,0,0,0,0,2147483650,2,0,0,0,0,0,0,0,0,0,0,0,2,0,0,0,0,0,0,0,0,0,2,0,0,2,0,0,0,0,0,0,0,0,0,2,0,0,0,0,0,0,0,0,0,0,0,2147483650,2,0,0,0,0,0,0,0,0,0,0,0,2,0,0,0,0,0,0,0,0,0,2,2,0,0,0,0,0,0,0,0,0,2,0,0,0,0,0,0,0,0,0,0,0,2147483650,2,0,0,0,0,0,0,0,0,0,0,0,2,0,0,0,0,0,0,0,0,0,2,0,0,2,0,0,0,0,0,0,0,0,0,2,0,0,0,0,0,0,0,0,0,0,0,2147483650,2,0,0,0,0,0,0,0,0,0,0,0,2,0,0,0,0,0,0,0,0,0,2,2,0,0,0,0,0,0,0,0,0,2,0,0,0,0,0,0,0,0,0,0,0,2147483650,2,0,0,0,0,0,0,0,0,0,0,0,0,0,0,0,0,0,0,0,0,0,0,0,0,0,0,0,0,0,0,0,0,0,0,0,0,0,0,0,0,0,0,0,0,0,0,2147483650,2,0,0,0,0,0,0,0,0,0,0,0,0,0,0,0,0,0,0,0,0,0,0,0,0,0,0,0,0,0,0,0,0,0,0,0,0,0,0,0,0,0,0,0,0,2147483650,2,0,0,0,0,0,0,0,0,0,0,0,0,0,0,0,0,0,0,0,0,0,0,0,0,0,0,0,0,0,0,0,0,0,0,0,0,0,0,0,0,0,0,0,0,0,0,2147483650,2,0,0,0,0,0,0,0,0,0,0,0,0,0,0,0,0,0,0,0,0,0,0,0,0,0,0,0,0,0,0,0,0,0,0,0,0,0,0,0,0,0,0,0,0,2147483650,2,0,0,0,0,0,0,0,0,0,0,0,0,0,0,0,0,0,0,0,0,0,0,0,0,0,0,0,0,0,0,0,0,0,0,0,0,0,0,0,0,0,0,0,0,0,0,2147483650,2,0,0,0,0,0,0,0,0,0,0,0,0,0,0,0,0,0,0,0,0,0,0,0,0,0,0,0,0,0,0,0,0,0,0,0,0,0,0,0,0,0,0,0,0,2147483650,2,0,0,0,0,0,0,0,0,0,0,0,0,0,0,0,0,0,0,0,0,0,0,0,0,0,0,0,0,0,0,0,0,0,0,0,0,0,0,0,0,0,0,0,0,0,0,2147483650,2,0,0,0,0,0,0,0,0,0,0,0,0,0,0,0,0,0,0,0,0,0,0,0,0,0,0,0,0,0,0,0,0,0,0,0,0,0,0,0,0,0,0,0,0,0,0,0,0,0,0,0,0,0,0,0,0,0,0,0,0,0,0,0,0,0,0,0,0,0,0,0,0,0,0,0,0,0,0,0,0,0,0,0,0,0,0,0,0,0,0,0,0,0,0,0,0,0,0,0,0,0,0,0,0,0,0,0,0,0,0,0,0,0,0,0,0,0,0,0,0,0,0,0,0,0,0,0,0,0,0,0,0,0,0,0,0,0,0,0,0,0,0,0,0,0,0,0,0,0,0,0,0,0,0,0,0,0,0,0,0,0,0,0,0,0,0,0,0,0,0,0,0,0,0,0,0,0,0,0,0,0,0,0,0,0,0,0,0,0,0,0,0,0,0,0,0,0,0,0,0,0,0,0,0,0,0,0,0,0,0,0,0,0,0,0,0,0,0,0,0,0,0,0,0,0,0,0,0,0,0,0,0,0,0,0,0,0,0,0,0,0,0,0,0,0,0,0,0,0,0,0,0,0,0,0,0,0,0,0,0,0,0,0,0,0,0,0,0,0,0,0,0,0,0,0,0,0,0,0,0,0,0,0,0,0,0,0,0,0,0,0,0,0,0,0,0,0,0,0,0,0,0,0,0,0,0,0,0,0,0,0,0,0,0,0,0,0,0,0,0,0,0,0,0,0,0,0,0,0,0,0,0,0,0,0,0,0,0,0,0,0,0,0,0,0,0,0,0,0,0,0,0,0,0,0,0,0,0,0,0,0,0,0,0,0,0,0,0,0,0,0,0,0,0,0,0,0,0,0,0,0,0,0,0,0,0,0,0,0,0,0,0,0,0,0,0,0,0],"height":83,"id":7,"name":"collisions","opacity":1,"visible":true,"width":94,"x":0,"y":0},{"type":"tilelayer","data":[3,4,5,6,7,8,9,10,11,12,3,4,5,6,7,8,9,10,11,12,3,4,5,6,7,8,9,10,11,12,3,4,5,6,7,8,9,10,11,12,3,4,5,6,7,8,9,10,11,12,3,4,5,6,7,8,9,10,11,12,3,4,5,6,7,8,9,10,11,12,3,4,5,6,7,8,9,10,11,12,3,4,5,6,7,8,9,10,11,12,3,4,5,6,13,14,15,16,17,18,19,20,21,22,13,14,15,16,17,18,19,20,21,22,13,14,15,16,17,18,19,20,21,22,13,14,15,16,17,18,19,20,21,22,13,14,15,16,17,18,19,20,21,22,13,14,15,16,17,18,19,20,21,22,13,14,15,16,17,18,19,20,21,22,13,14,15,16,17,18,19,20,21,22,13,14,15,16,17,18,19,20,21,22,13,14,15,16,23,24,25,26,27,28,29,30,31,32,23,24,25,26,27,28,29,30,31,32,23,24,25,26,27,28,29,30,31,32,23,24,25,26,27,28,29,30,31,32,23,24,25,26,27,28,29,30,31,32,23,24,25,26,27,28,29,30,31,32,23,24,25,26,27,28,29,30,31,32,23,24,25,26,27,28,29,30,31,32,23,24,25,26,27,28,29,30,31,32,23,24,25,26,33,34,35,36,37,38,39,40,41,42,43,44,45,2147483689,2147483688,2147483687,2147483686,2147483685,2147483684,2147483683,2147483682,2147483681,33,34,35,36,37,38,39,40,41,44,45,46,47,48,49,50,51,52,53,54,55,56,57,58,59,60,48,49,50,51,52,53,54,55,56,57,58,42,43,44,45,2147483689,2147483688,2147483687,2147483686,2147483685,2147483684,2147483683,2147483682,2147483681,33,34,35,36,37,38,39,40,41,44,45,46,47,2147483689,2147483688,2147483687,2147483686,2147483685,2147483684,2147483683,2147483682,2147483681,61,62,63,64,65,66,67,68,69,70,71,72,73,2147483717,2147483716,2147483715,2147483714,2147483713,2147483712,2147483711,2147483710,2147483709,61,62,63,64,65,66,67,68,69,72,73,74,75,76,77,78,79,80,81,82,83,84,85,86,87,88,76,77,78,79,80,81,82,83,84,85,86,70,71,72,73,2147483717,2147483716,2147483715,2147483714,2147483713,2147483712,2147483711,2147483710,2147483709,61,62,63,64,65,66,67,68,69,72,73,74,75,2147483717,2147483716,2147483715,2147483714,2147483713,2147483712,2147483711,2147483710,2147483709,89,90,91,92,93,94,95,96,97,98,99,100,101,2147483745,2147483744,2147483743,2147483742,2147483741,2147483740,2147483739,2147483738,2147483737,89,90,91,92,93,94,95,96,97,100,101,102,103,104,105,106,107,108,109,110,111,112,113,114,115,116,104,105,106,107,108,109,110,111,112,113,114,98,99,100,101,2147483745,2147483744,2147483743,2147483742,2147483741,2147483740,2147483739,2147483738,2147483737,89,90,91,92,93,94,95,96,97,100,101,102,103,2147483745,2147483744,2147483743,2147483742,2147483741,2147483740,2147483739,2147483738,2147483737,117,118,119,120,121,122,123,124,125,126,127,128,129,2147483773,2147483772,2147483771,2147483770,2147483769,2147483768,2147483767,2147483766,2147483765,117,118,119,120,121,122,123,124,125,128,129,130,131,132,133,134,135,136,137,138,139,140,141,142,143,144,132,133,134,135,136,137,138,139,140,141,142,126,127,128,129,2147483773,2147483772,2147483771,2147483770,2147483769,2147483768,2147483767,2147483766,2147483765,117,118,119,120,121,122,123,124,125,128,129,130,131,2147483773,2147483772,2147483771,2147483770,2147483769,2147483768,2147483767,2147483766,2147483765,145,146,147,148,149,150,151,152,153,154,155,156,157,2147483801,2147483800,2147483799,2147483798,2147483797,2147483796,2147483795,2147483794,2147483793,145,146,147,148,149,150,151,152,153,156,157,158,159,160,161,162,163,164,165,166,167,168,169,170,171,172,160,161,162,163,164,165,166,167,168,169,170,154,155,156,157,2147483801,2147483800,2147483799,2147483798,2147483797,2147483796,2147483795,2147483794,2147483793,145,146,147,148,149,150,151,152,153,156,157,158,159,2147483801,2147483800,2147483799,2147483798,2147483797,2147483796,2147483795,2147483794,2147483793,173,174,175,176,177,178,179,180,181,182,183,184,185,2147483829,2147483828,2147483827,2147483826,2147483825,2147483824,2147483823,2147483822,2147483821,173,174,175,176,177,178,179,180,181,184,185,186,187,188,189,190,191,192,193,194,195,196,197,198,199,200,188,189,190,191,192,193,194,195,196,197,198,182,183,184,185,2147483829,2147483828,2147483827,2147483826,2147483825,2147483824,2147483823,2147483822,2147483821,173,174,175,176,177,178,179,180,181,184,185,186,187,2147483829,2147483828,2147483827,2147483826,2147483825,2147483824,2147483823,2147483822,2147483821,201,202,203,204,205,206,207,208,209,210,211,212,213,2147483857,2147483856,2147483855,2147483854,2147483853,2147483852,2147483851,2147483850,2147483849,201,202,203,204,205,206,207,208,209,212,213,214,215,216,217,218,219,220,221,222,223,224,225,226,227,228,216,217,218,219,220,221,222,223,224,225,226,210,211,212,213,2147483857,2147483856,2147483855,2147483854,2147483853,2147483852,2147483851,2147483850,2147483849,201,202,203,204,205,206,207,208,209,212,213,214,215,2147483857,2147483856,2147483855,2147483854,2147483853,2147483852,2147483851,2147483850,2147483849,3,4,5,6,7,8,9,10,11,12,3,4,5,6,7,8,9,10,11,12,3,4,5,6,7,8,9,10,11,12,3,4,5,6,7,8,9,10,11,12,3,4,5,6,7,8,9,10,11,12,3,4,5,6,7,8,9,10,11,12,3,4,5,6,7,8,9,10,11,12,3,4,5,6,7,8,9,10,11,12,3,4,5,6,7,8,9,10,11,12,3,4,5,6,13,14,15,16,17,18,19,20,21,22,13,14,15,16,17,18,19,20,21,22,13,14,15,16,17,18,19,20,21,22,13,14,15,16,17,18,19,20,21,22,13,14,15,16,17,18,19,20,21,22,13,14,15,16,17,18,19,20,21,22,13,14,15,16,17,18,19,20,21,22,13,14,15,16,17,18,19,20,21,22,13,14,15,16,17,18,19,20,21,22,13,14,15,16,23,24,25,26,27,28,29,30,31,32,23,24,25,26,27,28,29,30,31,32,23,24,25,26,27,28,29,30,31,32,23,24,25,26,27,28,29,30,31,32,23,24,25,26,27,28,29,30,31,32,23,24,25,26,27,28,29,30,31,32,23,24,25,26,27,28,29,30,31,32,23,24,25,26,27,28,29,30,31,32,23,24,25,26,27,28,29,30,31,32,23,24,25,26,43,44,45,46,47,229,59,60,230,42,43,44,45,46,47,229,59,60,230,42,43,44,45,46,47,229,59,60,230,42,43,44,45,46,47,229,59,60,230,42,43,44,45,46,47,229,59,60,230,42,43,44,45,46,47,229,59,60,230,42,43,44,45,46,47,229,59,60,230,42,43,44,45,46,47,229,59,60,230,42,43,44,45,46,47,229,59,60,230,42,43,44,45,46,33,34,35,36,37,38,39,40,41,70,71,72,73,74,75,231,87,88,232,70,71,72,73,74,75,231,87,88,232,70,71,72,73,74,75,231,87,88,232,70,71,72,73,74,75,231,87,88,232,70,71,72,73,74,75,231,87,88,232,70,71,72,73,74,75,231,87,88,232,70,71,72,73,74,75,231,87,88,232,70,71,72,73,74,75,2147483689,2147483688,2147483687,2147483686,2147483685,2147483684,2147483683,2147483682,2147483681,61,62,63,64,65,66,67,68,69,98,99,100,101,102,103,233,115,116,234,98,99,100,101,102,103,233,115,116,234,98,99,100,101,102,103,233,115,116,234,98,99,100,101,102,103,233,115,116,234,98,99,100,101,102,103,233,115,116,234,98,99,100,101,102,103,233,115,116,234,98,99,100,101,102,103,233,115,116,234,98,99,100,101,102,103,2147483717,2147483716,2147483715,2147483714,2147483713,2147483712,2147483711,2147483710,2147483709,89,90,91,92,93,94,95,96,97,126,127,128,129,130,131,235,143,144,236,126,127,128,129,130,131,235,143,144,236,126,127,128,129,130,131,235,143,144,236,126,127,128,129,130,131,235,143,144,236,126,127,128,129,130,131,235,143,144,236,126,127,128,129,130,131,235,143,144,236,126,127,128,129,130,131,235,143,144,236,126,127,128,129,130,131,2147483745,2147483744,2147483743,2147483742,2147483741,2147483740,2147483739,2147483738,2147483737,117,118,119,120,121,122,123,124,125,154,155,156,157,158,159,237,171,172,238,154,155,156,157,158,159,237,171,172,238,154,155,156,157,158,159,237,171,172,238,154,155,156,157,158,159,237,171,172,238,154,155,156,157,158,159,237,171,172,238,154,155,156,157,158,159,237,171,172,238,154,155,156,157,158,159,237,171,172,238,154,155,156,157,158,159,2147483773,2147483772,2147483771,2147483770,2147483769,2147483768,2147483767,2147483766,2147483765,145,146,147,148,149,150,151,152,153,182,183,184,185,186,187,239,199,200,240,182,183,184,185,2147483889,2147483890,2147483891,2147483892,2147483893,2147483894,2147483895,2147483896,2147483897,2147483898,2147483899,2147483900,2147483889,2147483890,2147483891,2147483892,2147483893,2147483894,2147483895,2147483896,2147483897,2147483898,2147483899,2147483900,2147483889,2147483890,2147483891,2147483892,2147483893,2147483894,2147483895,2147483896,2147483897,2147483898,2147483899,2147483900,2147483889,2147483890,2147483891,2147483892,2147483893,2147483894,2147483895,2147483896,2147483897,2147483898,2147483899,2147483900,184,185,186,187,239,199,200,240,182,183,184,185,186,187,2147483801,2147483800,2147483799,2147483798,2147483797,2147483796,2147483795,2147483794,2147483793,173,174,175,176,177,178,179,180,181,210,211,212,213,214,215,253,227,228,254,210,211,212,213,2147483903,2147483904,2147483905,2147483906,2147483907,2147483908,2147483909,2147483910,2147483911,2147483912,2147483913,2147483914,2147483903,2147483904,2147483905,2147483906,2147483907,2147483908,2147483909,2147483910,2147483911,2147483912,2147483913,2147483914,2147483903,2147483904,2147483905,2147483906,2147483907,2147483908,2147483909,2147483910,2147483911,2147483912,2147483913,2147483914,2147483903,2147483904,2147483905,2147483906,2147483907,2147483908,2147483909,2147483910,2147483911,2147483912,2147483913,2147483914,212,213,214,215,253,227,228,254,210,211,212,213,214,215,2147483829,2147483828,2147483827,2147483826,2147483825,2147483824,2147483823,2147483822,2147483821,201,202,203,204,205,206,207,208,209,12,3,4,5,6,7,8,9,10,11,12,3,4,5,2147483915,2147483916,2147483917,2147483918,2147483919,2147483920,2147483921,2147483922,2147483923,2147483924,2147483925,2147483926,2147483915,2147483916,2147483917,2147483918,2147483919,2147483920,2147483921,2147483922,2147483923,2147483924,2147483925,2147483926,2147483915,2147483916,2147483917,2147483918,2147483919,2147483920,2147483921,2147483922,2147483923,2147483924,2147483925,2147483926,2147483915,2147483916,2147483917,2147483918,2147483919,2147483920,2147483921,2147483922,2147483923,2147483924,2147483925,2147483926,4,5,6,7,8,9,10,11,12,3,4,5,6,7,2147483857,2147483856,2147483855,2147483854,2147483853,2147483852,2147483851,2147483850,2147483849,13,14,15,16,17,18,19,20,21,22,13,14,15,16,17,18,19,20,21,22,13,14,15,2147483927,2147483928,2147483929,2147483930,2147483931,2147483932,2147483933,2147483934,2147483935,2147483936,2147483937,2147483938,2147483927,2147483928,2147483929,2147483930,2147483931,2147483932,2147483933,2147483934,2147483935,2147483936,2147483937,2147483938,2147483927,2147483928,2147483929,2147483930,2147483931,2147483932,2147483933,2147483934,2147483935,2147483936,2147483937,2147483938,2147483927,2147483928,2147483929,2147483930,2147483931,2147483932,2147483933,2147483934,2147483935,2147483936,2147483937,2147483938,14,15,16,17,18,19,20,21,22,13,14,15,16,17,18,19,20,21,22,13,14,15,16,23,24,25,26,27,28,29,30,31,32,23,24,25,26,27,28,29,30,31,32,23,24,25,2147483939,2147483940,2147483941,2147483942,2147483943,2147483944,2147483945,2147483946,2147483947,2147483948,2147483949,2147483950,2147483939,2147483940,2147483941,2147483942,2147483943,2147483944,2147483945,2147483946,2147483947,2147483948,2147483949,2147483950,2147483939,2147483940,2147483941,2147483942,2147483943,2147483944,2147483945,2147483946,2147483947,2147483948,2147483949,2147483950,2147483939,2147483940,2147483941,2147483942,2147483943,2147483944,2147483945,2147483946,2147483947,2147483948,2147483949,2147483950,24,25,26,27,28,29,30,31,32,23,24,25,26,27,28,29,30,31,32,23,24,25,26,43,44,45,46,47,229,59,60,230,42,43,44,45,46,47,229,59,60,230,42,43,44,45,2147483951,2147483952,2147483953,2147483954,2147483955,2147483956,2147483957,2147483958,2147483959,2147483960,2147483961,2147483962,2147483951,2147483952,2147483953,2147483954,2147483955,2147483956,2147483957,2147483958,2147483959,2147483960,2147483961,2147483962,2147483951,2147483952,2147483953,2147483954,2147483955,2147483956,2147483957,2147483958,2147483959,2147483960,2147483961,2147483962,2147483951,2147483952,2147483953,2147483954,2147483955,2147483956,2147483957,2147483958,2147483959,2147483960,2147483961,2147483962,44,45,46,47,229,59,60,230,42,43,44,45,46,47,229,59,60,230,42,43,44,45,46,71,72,73,74,75,231,87,88,232,70,71,72,73,74,75,231,87,88,232,70,71,72,73,2147483963,2147483964,2147483965,2147483966,2147483967,2147483968,2147483969,2147483970,2147483971,2147483972,2147483973,2147483974,2147483963,2147483964,2147483965,2147483966,2147483967,2147483968,2147483969,2147483970,2147483971,2147483972,2147483973,2147483974,2147483963,2147483964,2147483965,2147483966,2147483967,2147483968,2147483969,2147483970,2147483971,2147483972,2147483973,2147483974,2147483963,2147483964,2147483965,2147483966,2147483967,2147483968,2147483969,2147483970,2147483971,2147483972,2147483973,2147483974,72,73,74,75,231,87,88,232,70,71,72,73,74,75,231,87,88,232,70,71,72,73,74,33,34,35,36,37,38,39,40,41,98,99,100,101,102,103,233,115,116,234,98,99,100,101,2147483975,2147483976,2147483977,2147483978,2147483979,2147483980,2147483981,2147483982,2147483983,2147483984,2147483985,2147483986,2147483975,2147483976,2147483977,2147483978,2147483979,2147483980,2147483981,2147483982,2147483983,2147483984,2147483985,2147483986,2147483975,2147483976,2147483977,2147483978,2147483979,2147483980,2147483981,2147483982,2147483983,2147483984,2147483985,2147483986,2147483975,2147483976,2147483977,2147483978,2147483979,2147483980,2147483981,2147483982,2147483983,2147483984,2147483985,2147483986,100,101,102,103,233,115,116,234,98,99,100,101,102,103,2147483689,2147483688,2147483687,2147483686,2147483685,2147483684,2147483683,2147483682,2147483681,61,62,63,64,65,66,67,68,69,126,127,128,129,130,131,235,143,144,236,126,127,128,129,2147483987,2147483988,2147483989,2147483990,2147483991,2147483992,2147483993,2147483994,2147483995,2147483996,2147483997,2147483998,2147483987,2147483988,2147483989,2147483990,2147483991,2147483992,2147483993,2147483994,2147483995,2147483996,2147483997,2147483998,2147483987,2147483988,2147483989,2147483990,2147483991,2147483992,2147483993,2147483994,2147483995,2147483996,2147483997,2147483998,2147483987,2147483988,2147483989,2147483990,2147483991,2147483992,2147483993,2147483994,2147483995,2147483996,2147483997,2147483998,128,129,130,131,235,143,144,236,126,127,128,129,130,131,2147483717,2147483716,2147483715,2147483714,2147483713,2147483712,2147483711,2147483710,2147483709,89,90,91,92,93,94,95,96,97,154,155,156,157,158,159,237,171,172,238,154,155,156,157,2147483999,2147484000,2147484001,2147484002,2147484003,2147484004,2147484005,2147484006,2147484007,2147484008,2147484009,2147484010,2147483999,2147484000,2147484001,2147484002,2147484003,2147484004,2147484005,2147484006,2147484007,2147484008,2147484009,2147484010,2147483999,2147484000,2147484001,2147484002,2147484003,2147484004,2147484005,2147484006,2147484007,2147484008,2147484009,2147484010,2147483999,2147484000,2147484001,2147484002,2147484003,2147484004,2147484005,2147484006,2147484007,2147484008,2147484009,2147484010,156,157,158,159,237,171,172,238,154,155,156,157,158,159,2147483745,2147483744,2147483743,2147483742,2147483741,2147483740,2147483739,2147483738,2147483737,117,118,119,120,121,122,123,124,125,182,183,184,185,186,187,239,199,200,240,182,183,184,185,2147484011,2147484012,2147484013,2147484014,2147484015,2147484016,2147484017,2147484018,2147484019,2147484020,2147484021,2147484022,2147484011,2147484012,2147484013,2147484014,2147484015,2147484016,2147484017,2147484018,2147484019,2147484020,2147484021,2147484022,2147484011,2147484012,2147484013,2147484014,2147484015,2147484016,2147484017,2147484018,2147484019,2147484020,2147484021,2147484022,2147484011,2147484012,2147484013,2147484014,2147484015,2147484016,2147484017,2147484018,2147484019,2147484020,2147484021,2147484022,184,185,186,187,239,199,200,240,182,183,184,185,186,187,2147483773,2147483772,2147483771,2147483770,2147483769,2147483768,2147483767,2147483766,2147483765,145,146,147,148,149,150,151,152,153,210,211,212,213,214,215,253,227,228,254,210,211,212,213,214,215,253,227,228,254,210,211,212,213,214,215,253,227,228,254,210,211,212,213,214,215,253,227,228,254,210,211,212,213,214,215,253,227,228,254,210,211,212,213,214,215,253,227,228,254,210,211,212,213,214,215,253,227,228,254,210,211,212,213,214,215,2147483801,2147483800,2147483799,2147483798,2147483797,2147483796,2147483795,2147483794,2147483793,173,174,175,176,177,178,179,180,181,12,3,4,5,6,7,8,9,10,11,12,3,4,5,6,7,8,9,10,11,12,3,4,5,6,7,8,9,10,11,12,3,4,5,6,7,8,9,10,11,12,3,4,5,6,7,8,9,10,11,12,3,4,5,6,7,8,9,10,11,12,3,4,5,6,7,8,9,10,11,12,3,4,5,6,7,2147483829,2147483828,2147483827,2147483826,2147483825,2147483824,2147483823,2147483822,2147483821,201,202,203,204,205,206,207,208,209,22,13,14,15,16,17,18,19,20,21,22,13,14,15,16,17,18,19,20,21,22,13,14,15,16,17,18,19,20,21,22,13,14,15,16,17,18,19,20,21,22,13,14,15,16,17,18,19,20,21,22,13,14,15,16,17,18,19,20,21,22,13,14,15,16,17,18,19,20,21,22,13,14,15,16,17,2147483857,2147483856,2147483855,2147483854,2147483853,2147483852,2147483851,2147483850,2147483849,23,24,25,26,27,28,29,30,31,32,23,24,25,26,27,28,29,30,31,32,23,24,25,26,27,28,29,30,31,32,23,24,25,26,27,28,29,30,31,32,23,24,25,26,27,28,29,30,31,32,23,24,25,26,27,28,29,30,31,32,23,24,25,26,27,28,29,30,31,32,23,24,25,26,27,28,29,30,31,32,23,24,25,26,27,28,29,30,31,32,23,24,25,26,43,44,45,46,47,229,59,60,230,42,43,44,45,46,47,229,59,60,230,42,43,44,45,46,47,229,59,60,230,42,43,44,45,46,47,229,59,60,230,42,43,44,45,46,47,229,59,60,230,42,43,44,45,46,47,229,59,60,230,42,43,44,45,46,47,229,59,60,230,42,43,44,45,46,47,229,59,60,230,42,43,44,45,46,47,229,59,60,230,42,43,44,45,46,71,72,73,74,75,231,87,88,232,70,71,72,73,74,75,231,87,88,232,70,71,72,73,74,75,231,87,88,232,70,71,72,73,74,75,231,87,88,232,70,71,72,73,74,75,231,87,88,232,70,71,72,73,74,75,231,87,88,232,70,71,72,73,74,75,231,87,88,232,70,71,72,73,74,75,231,87,88,232,70,71,72,73,74,75,231,87,88,232,70,71,72,73,74,99,100,101,102,103,233,115,116,234,98,99,100,101,102,103,233,115,116,234,98,99,100,101,102,103,233,115,116,234,98,99,100,101,102,103,233,115,116,234,98,99,100,101,102,103,233,115,116,234,98,99,100,101,102,103,233,115,116,234,98,99,100,101,102,103,233,115,116,234,98,99,100,101,102,103,233,115,116,234,98,99,100,101,102,103,233,115,116,234,98,99,100,101,102,33,34,35,36,37,38,39,40,41,126,127,128,129,252,251,250,249,248,247,246,245,244,243,242,241,2147483889,2147483890,2147483891,2147483892,2147483893,2147483894,2147483895,2147483896,2147483897,2147483898,2147483899,2147483900,144,236,126,127,128,129,130,131,235,143,144,236,126,127,128,129,130,131,235,143,252,251,250,249,248,247,246,245,244,243,242,241,2147483889,2147483890,2147483891,2147483892,2147483893,2147483894,2147483895,2147483896,2147483897,2147483898,2147483899,2147483900,128,129,130,131,2147483689,2147483688,2147483687,2147483686,2147483685,2147483684,2147483683,2147483682,2147483681,61,62,63,64,65,66,67,68,69,154,155,156,157,266,265,264,263,262,261,260,259,258,257,256,255,2147483903,2147483904,2147483905,2147483906,2147483907,2147483908,2147483909,2147483910,2147483911,2147483912,2147483913,2147483914,172,238,154,155,156,157,158,159,237,171,172,238,154,155,156,157,158,159,237,171,266,265,264,263,262,261,260,259,258,257,256,255,2147483903,2147483904,2147483905,2147483906,2147483907,2147483908,2147483909,2147483910,2147483911,2147483912,2147483913,2147483914,156,157,158,159,2147483717,2147483716,2147483715,2147483714,2147483713,2147483712,2147483711,2147483710,2147483709,89,90,91,92,93,94,95,96,97,182,183,184,185,278,277,276,275,274,273,272,271,270,269,268,267,2147483915,2147483916,2147483917,2147483918,2147483919,2147483920,2147483921,2147483922,2147483923,2147483924,2147483925,2147483926,200,240,182,183,184,185,186,187,239,199,200,240,182,183,184,185,186,187,239,199,278,277,276,275,274,273,272,271,270,269,268,267,2147483915,2147483916,2147483917,2147483918,2147483919,2147483920,2147483921,2147483922,2147483923,2147483924,2147483925,2147483926,184,185,186,187,2147483745,2147483744,2147483743,2147483742,2147483741,2147483740,2147483739,2147483738,2147483737,117,118,119,120,121,122,123,124,125,210,211,212,213,290,289,288,287,286,285,284,283,282,281,280,279,2147483927,2147483928,2147483929,2147483930,2147483931,2147483932,2147483933,2147483934,2147483935,2147483936,2147483937,2147483938,228,254,210,211,212,213,214,215,253,227,228,254,210,211,212,213,214,215,253,227,290,289,288,287,286,285,284,283,282,281,280,279,2147483927,2147483928,2147483929,2147483930,2147483931,2147483932,2147483933,2147483934,2147483935,2147483936,2147483937,2147483938,212,213,214,215,2147483773,2147483772,2147483771,2147483770,2147483769,2147483768,2147483767,2147483766,2147483765,145,146,147,148,149,150,151,152,153,12,3,4,5,302,301,300,299,298,297,296,295,294,293,292,291,2147483939,2147483940,2147483941,2147483942,2147483943,2147483944,2147483945,2147483946,2147483947,2147483948,2147483949,2147483950,10,11,12,3,4,5,6,7,8,9,10,11,12,3,4,5,6,7,8,9,302,301,300,299,298,297,296,295,294,293,292,291,2147483939,2147483940,2147483941,2147483942,2147483943,2147483944,2147483945,2147483946,2147483947,2147483948,2147483949,2147483950,4,5,6,7,2147483801,2147483800,2147483799,2147483798,2147483797,2147483796,2147483795,2147483794,2147483793,173,174,175,176,177,178,179,180,181,22,13,14,15,314,313,312,311,310,309,308,307,306,305,304,303,2147483951,2147483952,2147483953,2147483954,2147483955,2147483956,2147483957,2147483958,2147483959,2147483960,2147483961,2147483962,20,21,22,13,14,15,16,17,18,19,20,21,22,13,14,15,16,17,18,19,314,313,312,311,310,309,308,307,306,305,304,303,2147483951,2147483952,2147483953,2147483954,2147483955,2147483956,2147483957,2147483958,2147483959,2147483960,2147483961,2147483962,14,15,16,17,2147483829,2147483828,2147483827,2147483826,2147483825,2147483824,2147483823,2147483822,2147483821,201,202,203,204,205,206,207,208,209,32,23,24,25,326,325,324,323,322,321,320,319,318,317,316,315,2147483963,2147483964,2147483965,2147483966,2147483967,2147483968,2147483969,2147483970,2147483971,2147483972,2147483973,2147483974,30,31,32,23,24,25,26,27,28,29,30,31,32,23,24,25,26,27,28,29,326,325,324,323,322,321,320,319,318,317,316,315,2147483963,2147483964,2147483965,2147483966,2147483967,2147483968,2147483969,2147483970,2147483971,2147483972,2147483973,2147483974,24,25,26,27,2147483857,2147483856,2147483855,2147483854,2147483853,2147483852,2147483851,2147483850,2147483849,43,44,45,46,47,229,59,60,230,42,43,44,45,338,337,336,335,334,333,332,331,330,329,328,327,2147483975,2147483976,2147483977,2147483978,2147483979,2147483980,2147483981,2147483982,2147483983,2147483984,2147483985,2147483986,60,230,42,43,44,45,46,47,229,59,60,230,42,43,44,45,46,47,229,59,338,337,336,335,334,333,332,331,330,329,328,327,2147483975,2147483976,2147483977,2147483978,2147483979,2147483980,2147483981,2147483982,2147483983,2147483984,2147483985,2147483986,44,45,46,47,229,59,60,230,42,43,44,45,46,71,72,73,74,75,231,87,88,232,70,71,72,73,350,349,348,347,346,345,344,343,342,341,340,339,2147483987,2147483988,2147483989,2147483990,2147483991,2147483992,2147483993,2147483994,2147483995,2147483996,2147483997,2147483998,88,232,70,71,72,73,74,75,231,87,88,232,70,71,72,73,74,75,231,87,350,349,348,347,346,345,344,343,342,341,340,339,2147483987,2147483988,2147483989,2147483990,2147483991,2147483992,2147483993,2147483994,2147483995,2147483996,2147483997,2147483998,72,73,74,75,231,87,88,232,70,71,72,73,74,99,100,101,102,103,233,115,116,234,98,99,100,101,362,361,360,359,358,357,356,355,354,353,352,351,2147483999,2147484000,2147484001,2147484002,2147484003,2147484004,2147484005,2147484006,2147484007,2147484008,2147484009,2147484010,116,234,98,99,100,101,102,103,233,115,116,234,98,99,100,101,102,103,233,115,362,361,360,359,358,357,356,355,354,353,352,351,2147483999,2147484000,2147484001,2147484002,2147484003,2147484004,2147484005,2147484006,2147484007,2147484008,2147484009,2147484010,100,101,102,103,233,115,116,234,98,99,100,101,102,127,128,129,130,131,235,143,144,236,126,127,128,129,374,373,372,371,370,369,368,367,366,365,364,363,2147484011,2147484012,2147484013,2147484014,2147484015,2147484016,2147484017,2147484018,2147484019,2147484020,2147484021,2147484022,144,236,126,127,128,129,130,131,235,143,144,236,126,127,128,129,130,131,235,143,374,373,372,371,370,369,368,367,366,365,364,363,2147484011,2147484012,2147484013,2147484014,2147484015,2147484016,2147484017,2147484018,2147484019,2147484020,2147484021,2147484022,128,129,130,131,235,143,144,236,126,127,128,129,130,33,34,35,36,37,38,39,40,41,154,155,156,157,158,159,237,171,172,238,154,155,156,157,158,159,237,171,172,238,154,155,156,157,158,159,237,171,172,238,154,155,156,157,158,159,237,171,172,238,154,155,156,157,158,159,237,171,172,238,154,155,156,157,158,159,237,171,172,238,154,155,156,157,158,159,237,171,172,238,154,155,156,157,158,159,2147483689,2147483688,2147483687,2147483686,2147483685,2147483684,2147483683,2147483682,2147483681,61,62,63,64,65,66,67,68,69,182,183,184,185,186,187,239,199,200,240,182,183,184,185,186,187,239,199,200,240,182,183,184,185,186,187,239,199,200,240,182,183,184,185,186,187,239,199,200,240,182,183,184,185,186,187,239,199,200,240,182,183,184,185,186,187,239,199,200,240,182,183,184,185,186,187,239,199,200,240,182,183,184,185,186,187,2147483717,2147483716,2147483715,2147483714,2147483713,2147483712,2147483711,2147483710,2147483709,89,90,91,92,93,94,95,96,97,210,211,212,213,214,215,253,227,228,254,210,211,212,213,214,215,253,227,228,254,210,211,212,213,214,215,253,227,228,254,210,211,212,213,214,215,253,227,228,254,210,211,212,213,214,215,253,227,228,254,210,211,212,213,214,215,253,227,228,254,210,211,212,213,214,215,253,227,228,254,210,211,212,213,214,215,2147483745,2147483744,2147483743,2147483742,2147483741,2147483740,2147483739,2147483738,2147483737,117,118,119,120,121,122,123,124,125,12,3,4,5,6,7,8,9,10,11,12,3,4,5,6,7,8,9,10,11,12,3,4,5,6,7,8,9,10,11,12,3,4,5,6,7,8,9,10,11,12,3,4,5,6,7,8,9,10,11,12,3,4,5,6,7,8,9,10,11,12,3,4,5,6,7,8,9,10,11,12,3,4,5,6,7,2147483773,2147483772,2147483771,2147483770,2147483769,2147483768,2147483767,2147483766,2147483765,145,146,147,148,149,150,151,152,153,22,13,14,15,16,17,18,19,20,21,22,13,14,15,16,17,18,19,20,21,22,13,14,15,16,17,18,19,20,21,22,13,14,15,16,17,18,19,20,21,22,13,14,15,16,17,18,19,20,21,22,13,14,15,16,17,18,19,20,21,22,13,14,15,16,17,18,19,20,21,22,13,14,15,16,17,2147483801,2147483800,2147483799,2147483798,2147483797,2147483796,2147483795,2147483794,2147483793,173,174,175,176,177,178,179,180,181,32,23,24,25,26,27,28,29,30,31,32,23,24,25,26,27,28,29,30,31,32,23,24,25,26,27,28,29,30,31,32,23,24,25,26,27,28,29,30,31,32,23,24,25,26,27,28,29,30,31,32,23,24,25,26,27,28,29,30,31,32,23,24,25,26,27,28,29,30,31,32,23,24,25,26,27,2147483829,2147483828,2147483827,2147483826,2147483825,2147483824,2147483823,2147483822,2147483821,201,202,203,204,205,206,207,208,209,42,43,44,45,46,47,229,59,60,230,42,43,44,45,46,47,229,59,60,230,42,43,44,45,46,47,229,59,60,230,42,43,44,45,46,47,229,59,60,230,42,43,44,45,46,47,229,59,60,230,42,43,44,45,46,47,229,59,60,230,42,43,44,45,46,47,229,59,60,230,42,43,44,45,46,47,2147483857,2147483856,2147483855,2147483854,2147483853,2147483852,2147483851,2147483850,2147483849,71,72,73,74,75,231,87,88,232,70,71,72,73,48,49,50,51,52,53,54,55,56,57,58,75,2147483889,2147483890,2147483891,2147483892,2147483893,2147483894,2147483895,2147483896,2147483897,2147483898,2147483899,2147483900,88,232,70,71,72,73,74,75,231,87,88,232,70,71,72,73,74,75,231,87,252,251,250,249,248,247,246,245,244,243,242,241,70,48,49,50,51,52,53,54,55,56,57,58,72,73,74,75,231,87,88,232,70,71,72,73,74,99,100,101,102,103,233,115,116,234,98,99,100,101,76,77,78,79,80,81,82,83,84,85,86,103,2147483903,2147483904,2147483905,2147483906,2147483907,2147483908,2147483909,2147483910,2147483911,2147483912,2147483913,2147483914,116,234,98,99,100,101,102,103,233,115,116,234,98,99,100,101,102,103,233,115,266,265,264,263,262,261,260,259,258,257,256,255,98,76,77,78,79,80,81,82,83,84,85,86,100,101,102,103,233,115,116,234,98,99,100,101,102,127,128,129,130,131,235,143,144,236,126,127,128,129,104,105,106,107,108,109,110,111,112,113,114,131,2147483915,2147483916,2147483917,2147483918,2147483919,2147483920,2147483921,2147483922,2147483923,2147483924,2147483925,2147483926,144,236,126,127,128,129,130,131,235,143,144,236,126,127,128,129,130,131,235,143,278,277,276,275,274,273,272,271,270,269,268,267,126,104,105,106,107,108,109,110,111,112,113,114,128,129,130,131,235,143,144,236,126,127,128,129,130,155,156,157,158,159,237,171,172,238,154,155,156,157,132,133,134,135,136,137,138,139,140,141,142,159,2147483927,2147483928,2147483929,2147483930,2147483931,2147483932,2147483933,2147483934,2147483935,2147483936,2147483937,2147483938,172,238,154,155,156,157,158,159,237,171,172,238,154,155,156,157,158,159,237,171,290,289,288,287,286,285,284,283,282,281,280,279,154,132,133,134,135,136,137,138,139,140,141,142,156,157,158,159,237,171,172,238,154,155,156,157,158,33,34,35,36,37,38,39,40,41,182,183,184,185,160,161,162,163,164,165,166,167,168,169,170,187,2147483939,2147483940,2147483941,2147483942,2147483943,2147483944,2147483945,2147483946,2147483947,2147483948,2147483949,2147483950,200,240,182,183,184,185,186,187,239,199,200,240,182,183,184,185,186,187,239,199,302,301,300,299,298,297,296,295,294,293,292,291,182,160,161,162,163,164,165,166,167,168,169,170,184,185,186,187,2147483689,2147483688,2147483687,2147483686,2147483685,2147483684,2147483683,2147483682,2147483681,61,62,63,64,65,66,67,68,69,210,211,212,213,188,189,190,191,192,193,194,195,196,197,198,215,2147483951,2147483952,2147483953,2147483954,2147483955,2147483956,2147483957,2147483958,2147483959,2147483960,2147483961,2147483962,228,254,210,211,212,213,214,215,253,227,228,254,210,211,212,213,214,215,253,227,314,313,312,311,310,309,308,307,306,305,304,303,210,188,189,190,191,192,193,194,195,196,197,198,212,213,214,215,2147483717,2147483716,2147483715,2147483714,2147483713,2147483712,2147483711,2147483710,2147483709,89,90,91,92,93,94,95,96,97,12,3,4,5,216,217,218,219,220,221,222,223,224,225,226,7,2147483963,2147483964,2147483965,2147483966,2147483967,2147483968,2147483969,2147483970,2147483971,2147483972,2147483973,2147483974,10,11,12,3,4,5,6,7,8,9,10,11,12,3,4,5,6,7,8,9,326,325,324,323,322,321,320,319,318,317,316,315,12,216,217,218,219,220,221,222,223,224,225,226,4,5,6,7,2147483745,2147483744,2147483743,2147483742,2147483741,2147483740,2147483739,2147483738,2147483737,117,118,119,120,121,122,123,124,125,22,13,14,15,16,17,18,19,20,21,22,13,14,15,16,17,2147483975,2147483976,2147483977,2147483978,2147483979,2147483980,2147483981,2147483982,2147483983,2147483984,2147483985,2147483986,20,21,22,13,14,15,16,17,18,19,20,21,22,13,14,15,16,17,18,19,338,337,336,335,334,333,332,331,330,329,328,327,22,13,14,15,16,17,18,19,20,21,22,13,14,15,16,17,2147483773,2147483772,2147483771,2147483770,2147483769,2147483768,2147483767,2147483766,2147483765,145,146,147,148,149,150,151,152,153,32,23,24,25,26,27,28,29,30,31,32,23,24,25,26,27,2147483987,2147483988,2147483989,2147483990,2147483991,2147483992,2147483993,2147483994,2147483995,2147483996,2147483997,2147483998,30,31,32,23,24,25,26,27,28,29,30,31,32,23,24,25,26,27,28,29,350,349,348,347,346,345,344,343,342,341,340,339,32,23,24,25,26,27,28,29,30,31,32,23,24,25,26,27,2147483801,2147483800,2147483799,2147483798,2147483797,2147483796,2147483795,2147483794,2147483793,173,174,175,176,177,178,179,180,181,42,43,44,45,46,47,229,59,60,230,42,43,44,45,46,47,2147483999,2147484000,2147484001,2147484002,2147484003,2147484004,2147484005,2147484006,2147484007,2147484008,2147484009,2147484010,60,230,42,43,44,45,46,47,229,59,60,230,42,43,44,45,46,47,229,59,362,361,360,359,358,357,356,355,354,353,352,351,42,43,44,45,46,47,229,59,60,230,42,43,44,45,46,47,2147483829,2147483828,2147483827,2147483826,2147483825,2147483824,2147483823,2147483822,2147483821,201,202,203,204,205,206,207,208,209,70,71,72,73,74,75,231,87,88,232,70,71,72,73,74,75,2147484011,2147484012,2147484013,2147484014,2147484015,2147484016,2147484017,2147484018,2147484019,2147484020,2147484021,2147484022,88,232,70,71,72,73,74,75,231,87,88,232,70,71,72,73,74,75,231,87,374,373,372,371,370,369,368,367,366,365,364,363,70,71,72,73,74,75,231,87,88,232,70,71,72,73,74,75,2147483857,2147483856,2147483855,2147483854,2147483853,2147483852,2147483851,2147483850,2147483849,99,100,101,102,103,233,115,116,234,98,99,100,101,102,103,233,115,116,234,98,99,100,101,102,103,233,115,116,234,98,99,100,101,102,103,233,115,116,234,98,99,100,101,102,103,233,115,116,234,98,99,100,101,102,103,233,115,116,234,98,99,100,101,102,103,233,115,116,234,98,99,100,101,102,103,233,115,116,234,98,99,100,101,102,103,233,115,116,234,98,99,100,101,102,127,128,129,130,131,235,143,144,236,126,127,128,129,130,131,235,143,144,236,126,127,128,129,130,131,235,143,144,236,126,127,128,129,130,131,235,143,144,236,126,127,128,129,130,131,235,143,144,236,126,127,128,129,130,131,235,143,144,236,126,127,128,129,130,131,235,143,144,236,126,127,128,129,130,131,235,143,144,236,126,127,128,129,130,131,235,143,144,236,126,127,128,129,130,155,156,157,158,159,237,171,172,238,154,155,156,157,158,159,237,171,172,238,154,155,156,157,158,159,237,171,172,238,154,155,156,157,158,159,237,171,172,238,154,155,156,157,158,159,237,171,172,238,154,155,156,157,158,159,237,171,172,238,154,155,156,157,158,159,237,171,172,238,154,155,156,157,158,159,237,171,172,238,154,155,156,157,158,159,237,171,172,238,154,155,156,157,158,183,184,185,186,187,239,199,200,240,182,183,184,185,186,187,239,199,200,240,182,183,184,185,186,187,239,199,200,240,182,183,184,185,186,187,239,199,200,240,182,183,184,185,186,187,239,199,200,240,182,183,184,185,186,187,239,199,200,240,182,183,184,185,186,187,239,199,200,240,182,183,184,185,186,187,239,199,200,240,182,183,184,185,186,187,239,199,200,240,182,183,184,185,186,211,212,213,214,215,253,227,228,254,210,211,212,213,214,215,253,227,228,254,210,211,212,213,214,215,253,227,228,254,210,211,212,213,214,215,253,227,228,254,210,211,212,213,214,215,253,227,228,254,210,211,212,213,214,215,253,227,228,254,210,211,212,213,214,215,253,227,228,254,210,211,212,213,214,215,253,227,228,254,210,211,212,213,214,215,253,227,228,254,210,211,212,213,214,3,4,5,6,7,8,9,10,11,12,3,4,5,6,7,8,9,10,11,12,3,4,5,6,7,8,9,10,11,12,3,4,5,6,7,8,9,10,11,12,3,4,5,6,7,8,9,10,11,12,3,4,5,6,7,8,9,10,11,12,3,4,5,6,7,8,9,10,11,12,3,4,5,6,7,8,9,10,11,12,3,4,5,6,7,8,9,10,11,12,3,4,5,6,13,14,15,16,17,18,19,20,21,22,13,14,15,16,17,18,19,20,21,22,13,14,15,16,17,18,19,20,21,22,13,14,15,16,17,18,19,20,21,22,13,14,15,16,17,18,19,20,21,22,13,14,15,16,17,18,19,20,21,22,13,14,15,16,17,18,19,20,21,22,13,14,15,16,17,18,19,20,21,22,13,14,15,16,17,18,19,20,21,22,13,14,15,16,48,49,50,51,52,53,54,55,56,57,58,24,25,26,2147483689,2147483688,2147483687,2147483686,2147483685,2147483684,2147483683,2147483682,2147483681,33,34,35,36,37,38,39,40,41,25,26,27,48,49,50,51,52,53,54,55,56,57,58,29,30,48,49,50,51,52,53,54,55,56,57,58,32,23,24,2147483689,2147483688,2147483687,2147483686,2147483685,2147483684,2147483683,2147483682,2147483681,33,34,35,36,37,38,39,40,41,23,24,25,48,49,50,51,52,53,54,55,56,57,58,76,77,78,79,80,81,82,83,84,85,86,44,45,46,2147483717,2147483716,2147483715,2147483714,2147483713,2147483712,2147483711,2147483710,2147483709,61,62,63,64,65,66,67,68,69,45,46,47,76,77,78,79,80,81,82,83,84,85,86,59,60,76,77,78,79,80,81,82,83,84,85,86,42,43,44,2147483717,2147483716,2147483715,2147483714,2147483713,2147483712,2147483711,2147483710,2147483709,61,62,63,64,65,66,67,68,69,43,44,45,76,77,78,79,80,81,82,83,84,85,86,104,105,106,107,108,109,110,111,112,113,114,72,73,74,2147483745,2147483744,2147483743,2147483742,2147483741,2147483740,2147483739,2147483738,2147483737,89,90,91,92,93,94,95,96,97,73,74,75,104,105,106,107,108,109,110,111,112,113,114,87,88,104,105,106,107,108,109,110,111,112,113,114,70,71,72,2147483745,2147483744,2147483743,2147483742,2147483741,2147483740,2147483739,2147483738,2147483737,89,90,91,92,93,94,95,96,97,71,72,73,104,105,106,107,108,109,110,111,112,113,114,132,133,134,135,136,137,138,139,140,141,142,100,101,102,2147483773,2147483772,2147483771,2147483770,2147483769,2147483768,2147483767,2147483766,2147483765,117,118,119,120,121,122,123,124,125,101,102,103,132,133,134,135,136,137,138,139,140,141,142,115,116,132,133,134,135,136,137,138,139,140,141,142,98,99,100,2147483773,2147483772,2147483771,2147483770,2147483769,2147483768,2147483767,2147483766,2147483765,117,118,119,120,121,122,123,124,125,99,100,101,132,133,134,135,136,137,138,139,140,141,142,160,161,162,163,164,165,166,167,168,169,170,128,129,130,2147483801,2147483800,2147483799,2147483798,2147483797,2147483796,2147483795,2147483794,2147483793,145,146,147,148,149,150,151,152,153,129,130,131,160,161,162,163,164,165,166,167,168,169,170,143,144,160,161,162,163,164,165,166,167,168,169,170,126,127,128,2147483801,2147483800,2147483799,2147483798,2147483797,2147483796,2147483795,2147483794,2147483793,145,146,147,148,149,150,151,152,153,127,128,129,160,161,162,163,164,165,166,167,168,169,170,188,189,190,191,192,193,194,195,196,197,198,156,157,158,2147483829,2147483828,2147483827,2147483826,2147483825,2147483824,2147483823,2147483822,2147483821,173,174,175,176,177,178,179,180,181,157,158,159,188,189,190,191,192,193,194,195,196,197,198,171,172,188,189,190,191,192,193,194,195,196,197,198,154,155,156,2147483829,2147483828,2147483827,2147483826,2147483825,2147483824,2147483823,2147483822,2147483821,173,174,175,176,177,178,179,180,181,155,156,157,188,189,190,191,192,193,194,195,196,197,198,216,217,218,219,220,221,222,223,224,225,226,184,185,186,2147483857,2147483856,2147483855,2147483854,2147483853,2147483852,2147483851,2147483850,2147483849,201,202,203,204,205,206,207,208,209,185,186,187,216,217,218,219,220,221,222,223,224,225,226,199,200,216,217,218,219,220,221,222,223,224,225,226,182,183,184,2147483857,2147483856,2147483855,2147483854,2147483853,2147483852,2147483851,2147483850,2147483849,201,202,203,204,205,206,207,208,209,183,184,185,216,217,218,219,220,221,222,223,224,225,226,211,212,213,214,215,253,227,228,254,210,211,212,213,214,215,253,227,228,254,210,211,212,213,214,215,253,227,228,254,210,211,212,213,214,215,253,227,228,254,210,211,212,213,214,215,253,227,228,254,210,211,212,213,214,215,253,227,228,254,210,211,212,213,214,215,253,227,228,254,210,211,212,213,214,215,253,227,228,254,210,211,212,213,214,215,253,227,228,254,210,211,212,213,214,3,4,5,6,7,8,9,10,11,12,3,4,5,6,7,8,9,10,11,12,3,4,5,6,7,8,9,10,11,12,3,4,5,6,7,8,9,10,11,12,3,4,5,6,7,8,9,10,11,12,3,4,5,6,7,8,9,10,11,12,3,4,5,6,7,8,9,10,11,12,3,4,5,6,7,8,9,10,11,12,3,4,5,6,7,8,9,10,11,12,3,4,5,6,13,14,15,16,17,18,19,20,21,22,13,14,15,16,17,18,19,20,21,22,13,14,15,16,17,18,19,20,21,22,13,14,15,16,17,18,19,20,21,22,13,14,15,16,17,18,19,20,21,22,13,14,15,16,17,18,19,20,21,22,13,14,15,16,17,18,19,20,21,22,13,14,15,16,17,18,19,20,21,22,13,14,15,16,17,18,19,20,21,22,13,14,15,16,23,24,25,26,27,28,29,30,31,32,23,24,25,26,27,28,29,30,31,32,23,24,25,26,27,28,29,30,31,32,23,24,25,26,27,28,29,30,31,32,23,24,25,26,27,28,29,30,31,32,23,24,25,26,27,28,29,30,31,32,23,24,25,26,27,28,29,30,31,32,23,24,25,26,27,28,29,30,31,32,23,24,25,26,27,28,29,30,31,32,23,24,25,26],"height":83,"id":4,"name":"floor","opacity":1,"visible":true,"width":94,"x":0,"y":0},{"type":"tilelayer","data":[375,376,377,378,379,380,381,382,383,0,0,0,0,2147484031,2147484030,2147484029,2147484028,2147484027,2147484026,2147484025,2147484024,2147484023,375,376,377,378,379,380,381,382,383,0,0,0,384,385,386,387,388,389,390,391,392,393,394,395,396,384,385,386,387,388,389,390,391,392,393,394,395,396,0,0,0,2147484031,2147484030,2147484029,2147484028,2147484027,2147484026,2147484025,2147484024,2147484023,375,376,377,378,379,380,381,382,383,0,0,0,0,0,0,0,0,0,0,0,0,0,397,398,399,400,401,402,403,404,405,0,0,0,0,2147484053,2147484052,2147484051,2147484050,2147484049,2147484048,2147484047,2147484046,2147484045,397,398,399,400,401,402,403,404,405,0,0,0,406,407,408,409,410,411,412,413,414,415,416,417,418,406,407,408,409,410,411,412,413,414,415,416,417,418,0,0,0,2147484053,2147484052,2147484051,2147484050,2147484049,2147484048,2147484047,2147484046,2147484045,397,398,399,400,401,402,403,404,405,0,0,0,0,2147484053,2147484052,2147484051,2147484050,2147484049,2147484048,2147484047,2147484046,2147484045,419,420,421,422,423,424,425,426,427,0,0,0,0,2147484075,2147484074,2147484073,2147484072,2147484071,2147484070,2147484069,2147484068,2147484067,419,420,421,422,423,424,425,426,427,0,0,0,428,429,430,431,432,433,434,435,436,437,438,439,440,428,429,430,431,432,433,434,435,436,437,438,439,440,0,0,0,2147484075,2147484074,2147484073,2147484072,2147484071,2147484070,2147484069,2147484068,2147484067,419,420,421,422,423,424,425,426,427,0,0,0,0,2147484075,2147484074,2147484073,2147484072,2147484071,2147484070,2147484069,2147484068,2147484067,441,442,443,444,445,446,447,448,449,0,0,0,0,2147484097,2147484096,2147484095,2147484094,2147484093,2147484092,2147484091,2147484090,2147484089,441,442,443,444,445,446,447,448,449,0,0,0,450,451,452,453,454,455,456,457,458,459,460,461,0,450,451,452,453,454,455,456,457,458,459,460,461,0,0,0,0,2147484097,2147484096,2147484095,2147484094,2147484093,2147484092,2147484091,2147484090,2147484089,441,442,443,444,445,446,447,448,449,0,0,0,0,2147484097,2147484096,2147484095,2147484094,2147484093,2147484092,2147484091,2147484090,2147484089,462,463,464,465,466,467,468,469,470,0,0,0,0,2147484118,2147484117,2147484116,2147484115,2147484114,2147484113,2147484112,2147484111,2147484110,462,463,464,465,466,467,468,469,470,0,0,0,0,0,0,0,0,0,0,0,0,0,0,0,0,0,0,0,0,0,0,0,0,0,0,0,0,0,0,0,0,2147484118,2147484117,2147484116,2147484115,2147484114,2147484113,2147484112,2147484111,2147484110,462,463,464,465,466,467,468,469,470,0,0,0,0,2147484118,2147484117,2147484116,2147484115,2147484114,2147484113,2147484112,2147484111,2147484110,0,0,0,0,0,0,0,0,0,0,0,0,0,0,0,0,0,0,0,0,0,0,0,0,0,0,0,0,0,0,0,0,0,0,0,0,0,0,0,0,0,0,0,0,0,0,0,0,0,0,0,0,0,0,0,0,0,0,0,0,0,0,0,0,0,0,0,0,0,0,0,0,0,0,0,0,0,0,0,0,0,0,0,0,0,0,0,0,0,0,0,0,0,0,0,0,0,0,0,0,0,0,0,0,0,0,0,0,0,0,0,0,0,0,0,0,0,0,0,0,0,0,0,0,0,0,0,0,0,0,0,0,0,0,0,0,0,0,0,0,0,0,0,0,0,0,0,0,0,0,0,0,0,0,0,0,0,0,0,0,0,0,0,0,0,0,0,0,0,0,0,0,0,0,0,0,0,0,0,0,0,0,0,0,0,0,0,0,0,0,0,0,0,0,0,0,0,0,0,0,0,0,0,0,0,0,0,0,0,0,0,0,0,0,0,0,0,0,0,0,0,0,0,0,0,0,0,0,0,0,0,0,0,0,0,0,0,0,0,0,0,0,0,0,0,0,0,0,0,0,0,0,0,0,0,0,0,0,0,0,0,0,0,0,0,0,0,0,0,0,0,0,0,0,0,0,0,0,0,0,0,0,0,0,0,0,0,0,0,0,0,0,0,0,0,0,0,0,0,0,0,0,0,0,0,0,0,0,0,0,0,0,0,0,0,0,0,0,0,0,0,0,0,0,0,0,0,0,0,0,0,0,0,0,0,0,0,0,0,0,0,0,0,0,0,0,0,0,0,0,0,0,0,0,0,0,0,0,0,0,0,0,0,0,0,0,0,0,0,0,0,0,0,0,0,0,0,0,0,0,0,0,0,0,0,0,0,0,0,0,0,0,0,0,0,0,0,0,0,0,0,0,0,0,0,0,0,0,0,0,0,0,0,0,0,0,0,0,0,0,0,0,0,0,0,0,0,0,0,0,0,0,0,0,0,0,0,0,0,0,0,0,0,0,0,0,0,0,0,0,0,0,0,0,0,0,0,0,0,0,0,0,0,0,0,0,0,0,0,0,0,0,0,0,0,0,0,0,0,0,0,0,0,0,0,0,0,0,0,0,0,0,0,0,0,0,0,0,0,0,0,0,0,0,0,0,0,0,0,0,0,0,0,0,0,0,0,0,0,0,0,0,0,0,0,0,0,0,0,0,0,0,0,0,0,0,0,0,0,0,0,0,0,0,0,0,0,0,0,0,0,0,0,0,0,0,0,0,0,0,0,0,0,0,375,376,377,378,379,380,381,382,383,0,0,0,0,0,0,0,0,0,0,0,0,0,0,0,0,0,0,0,0,0,0,0,0,0,0,0,0,0,0,0,0,0,0,0,0,0,0,0,0,0,0,0,0,0,0,0,0,0,0,0,0,0,0,0,0,0,0,0,0,0,0,0,0,0,0,0,0,0,0,0,0,0,0,0,0,2147484031,2147484030,2147484029,2147484028,2147484027,2147484026,2147484025,2147484024,2147484023,397,398,399,400,401,402,403,404,405,0,0,0,0,0,0,0,0,0,0,0,0,0,0,0,0,0,0,0,0,0,0,0,0,0,0,0,0,0,0,0,0,0,0,0,0,0,0,0,0,0,0,0,0,0,0,0,0,0,0,0,0,0,0,0,0,0,0,0,0,0,0,0,0,0,0,0,0,0,0,0,0,0,0,0,0,2147484053,2147484052,2147484051,2147484050,2147484049,2147484048,2147484047,2147484046,2147484045,419,420,421,422,423,424,425,426,427,0,0,0,0,0,0,0,0,0,0,0,0,0,0,0,0,0,0,0,0,0,0,0,0,0,0,0,0,0,0,0,0,0,0,0,0,0,0,0,0,0,0,0,0,0,0,0,0,0,0,0,0,0,0,0,0,0,0,0,0,0,0,0,0,0,0,0,0,0,0,0,0,0,0,0,0,2147484075,2147484074,2147484073,2147484072,2147484071,2147484070,2147484069,2147484068,2147484067,441,442,443,444,445,446,447,448,449,0,0,0,0,0,0,0,0,0,0,0,0,0,0,0,0,0,0,0,0,0,0,0,0,0,0,0,0,0,0,0,0,0,0,0,0,0,0,0,0,0,0,0,0,0,0,0,0,0,0,0,0,0,0,0,0,0,0,0,0,0,0,0,0,0,0,0,0,0,0,0,0,0,0,0,0,2147484097,2147484096,2147484095,2147484094,2147484093,2147484092,2147484091,2147484090,2147484089,462,463,464,465,466,467,468,469,470,0,0,0,0,0,0,0,0,0,0,0,0,0,471,472,473,474,475,476,477,478,479,480,481,482,483,2147484131,2147484130,2147484129,2147484128,2147484127,2147484126,2147484125,2147484124,2147484123,2147484122,2147484121,2147484120,2147484131,2147484130,2147484129,2147484128,2147484127,2147484126,2147484125,2147484124,2147484123,2147484122,2147484121,2147484120,2147484131,2147484130,2147484129,2147484128,2147484127,2147484126,2147484125,2147484124,2147484123,2147484122,2147484121,2147484120,0,0,0,0,0,0,0,0,0,0,0,0,0,0,2147484118,2147484117,2147484116,2147484115,2147484114,2147484113,2147484112,2147484111,2147484110,0,0,0,0,0,0,0,0,0,0,0,0,0,0,0,0,0,0,0,0,0,0,484,485,486,487,488,489,490,491,492,493,494,495,496,2147484144,2147484143,2147484142,2147484141,2147484140,2147484139,2147484138,2147484137,2147484136,2147484135,2147484134,2147484133,2147484144,2147484143,2147484142,2147484141,2147484140,2147484139,2147484138,2147484137,2147484136,2147484135,2147484134,2147484133,2147484144,2147484143,2147484142,2147484141,2147484140,2147484139,2147484138,2147484137,2147484136,2147484135,2147484134,2147484133,0,0,0,0,0,0,0,0,0,0,0,0,0,0,0,0,0,0,0,0,0,0,0,0,0,0,0,0,0,0,0,0,0,0,0,0,0,0,0,0,0,0,0,0,0,497,498,499,500,501,502,503,504,505,506,507,508,509,2147484157,2147484156,2147484155,2147484154,2147484153,2147484152,2147484151,2147484150,2147484149,2147484148,2147484147,2147484146,2147484157,2147484156,2147484155,2147484154,2147484153,2147484152,2147484151,2147484150,2147484149,2147484148,2147484147,2147484146,2147484157,2147484156,2147484155,2147484154,2147484153,2147484152,2147484151,2147484150,2147484149,2147484148,2147484147,2147484146,0,0,0,0,0,0,0,0,0,0,0,0,0,0,0,0,0,0,0,0,0,0,0,0,0,0,0,0,0,0,0,0,0,0,0,0,0,0,0,0,0,0,0,0,0,510,511,512,513,514,515,516,517,518,519,520,521,522,2147484170,2147484169,2147484168,2147484167,2147484166,2147484165,2147484164,2147484163,2147484162,2147484161,2147484160,2147484159,2147484170,2147484169,2147484168,2147484167,2147484166,2147484165,2147484164,2147484163,2147484162,2147484161,2147484160,2147484159,2147484170,2147484169,2147484168,2147484167,2147484166,2147484165,2147484164,2147484163,2147484162,2147484161,2147484160,2147484159,0,0,0,0,0,0,0,0,0,0,0,0,0,0,0,0,0,0,0,0,0,0,0,0,0,0,0,0,0,0,0,0,0,0,0,0,0,0,0,0,0,0,0,0,0,523,524,525,526,527,528,529,530,531,532,533,534,535,2147484183,2147484182,2147484181,2147484180,2147484179,2147484178,2147484177,2147484176,2147484175,2147484174,2147484173,2147484172,2147484183,2147484182,2147484181,2147484180,2147484179,2147484178,2147484177,2147484176,2147484175,2147484174,2147484173,2147484172,2147484183,2147484182,2147484181,2147484180,2147484179,2147484178,2147484177,2147484176,2147484175,2147484174,2147484173,2147484172,0,0,0,0,0,0,0,0,0,0,0,0,0,0,0,0,0,0,0,0,0,0,0,0,0,0,0,0,0,0,0,0,0,0,0,0,0,0,0,0,0,0,0,0,0,0,0,0,0,0,0,0,0,0,0,0,0,0,0,0,0,0,0,0,0,0,0,0,0,0,0,0,0,0,0,0,0,0,0,0,0,0,0,0,0,0,0,0,0,0,0,0,0,0,0,0,0,0,0,0,0,0,0,0,0,0,0,0,0,0,0,0,0,0,0,0,0,0,0,0,0,0,0,0,0,0,0,0,0,0,0,0,0,0,0,0,0,0,0,0,0,0,0,0,0,0,0,0,0,0,0,0,0,0,0,0,0,0,0,0,0,0,0,0,0,0,0,0,0,0,0,0,0,0,0,0,0,0,0,0,0,0,0,0,0,0,0,0,0,0,0,0,0,0,0,0,0,0,0,0,0,0,0,0,0,0,0,0,0,0,0,375,376,377,378,379,380,381,382,383,0,0,0,0,0,0,0,0,0,0,0,0,0,0,0,0,0,0,0,0,0,0,0,0,0,0,0,0,0,0,0,0,0,0,0,0,0,0,0,0,0,0,0,0,0,0,0,0,0,0,0,0,0,0,0,0,0,0,0,0,0,0,0,0,0,0,0,0,0,0,0,0,0,0,0,0,2147484031,2147484030,2147484029,2147484028,2147484027,2147484026,2147484025,2147484024,2147484023,397,398,399,400,401,402,403,404,405,0,0,0,0,0,0,0,0,0,0,0,0,0,0,0,0,0,0,0,0,0,0,0,0,0,0,0,0,0,0,0,0,0,0,0,0,0,0,0,0,0,0,0,0,0,0,0,0,0,0,0,0,0,0,0,0,0,0,0,0,0,0,0,0,0,0,0,0,0,0,0,0,0,0,0,0,2147484053,2147484052,2147484051,2147484050,2147484049,2147484048,2147484047,2147484046,2147484045,419,420,421,422,423,424,425,426,427,0,0,0,0,0,0,0,0,0,0,0,0,0,0,0,0,0,0,0,0,0,0,0,0,0,0,0,0,0,0,0,0,0,0,0,0,0,0,0,0,0,0,0,0,0,0,0,0,0,0,0,0,0,0,0,0,0,0,0,0,0,0,0,0,0,0,0,0,0,0,0,0,0,0,0,0,2147484075,2147484074,2147484073,2147484072,2147484071,2147484070,2147484069,2147484068,2147484067,441,442,443,444,445,446,447,448,449,0,0,0,0,0,0,0,0,0,0,0,0,0,0,0,0,0,0,0,0,0,0,0,0,0,0,0,0,0,0,0,0,0,0,0,0,0,0,0,0,0,0,0,0,0,0,0,0,0,0,0,0,0,0,0,0,0,0,0,0,0,0,0,0,0,0,0,0,0,0,0,0,0,0,0,0,2147484097,2147484096,2147484095,2147484094,2147484093,2147484092,2147484091,2147484090,2147484089,462,463,464,465,466,467,468,469,470,0,0,0,0,0,0,0,0,0,0,0,0,0,0,0,0,0,0,0,0,0,0,0,0,0,0,0,0,0,0,0,0,0,0,0,0,0,0,0,0,0,0,0,0,0,0,0,0,0,0,0,0,0,0,0,0,0,0,0,0,0,0,0,0,0,0,0,0,0,0,0,0,0,0,0,0,2147484118,2147484117,2147484116,2147484115,2147484114,2147484113,2147484112,2147484111,2147484110,0,0,0,0,0,0,0,0,0,0,0,0,0,0,0,0,0,0,0,0,0,0,0,0,0,0,0,0,0,0,0,0,0,0,0,0,0,0,0,0,0,0,0,0,0,0,0,0,0,0,0,0,0,0,0,0,0,0,0,0,0,0,0,0,0,0,0,0,0,0,0,0,0,0,0,0,0,0,0,0,0,0,0,0,0,0,0,0,0,0,0,0,0,0,0,0,0,0,0,0,0,0,0,0,0,0,0,0,0,0,0,0,0,0,0,0,0,0,0,0,0,0,0,0,0,0,0,0,0,0,0,0,0,0,0,0,0,0,0,0,0,0,0,0,0,0,0,0,0,0,0,0,0,0,0,0,0,0,0,0,0,0,0,0,0,0,0,0,0,0,0,0,0,0,0,0,0,0,0,0,0,0,0,0,0,0,0,0,0,0,0,0,0,0,0,0,0,0,0,0,0,0,0,0,0,0,0,0,0,0,0,0,0,0,0,0,0,0,0,0,0,0,0,0,0,0,0,0,0,0,0,0,0,0,0,0,0,0,0,0,0,0,0,0,0,0,0,0,0,0,0,0,0,0,0,0,0,0,0,0,0,0,0,0,0,0,0,0,0,0,0,0,0,0,0,0,0,0,0,0,0,0,0,0,0,0,0,0,0,0,0,0,0,0,0,0,0,0,0,0,0,0,0,0,0,0,0,0,0,0,0,0,0,0,0,0,0,0,0,0,0,0,0,0,0,0,0,0,0,0,0,0,0,0,0,0,0,0,0,0,0,0,0,0,0,0,0,0,0,0,0,0,0,0,0,0,0,0,0,0,0,0,0,0,0,0,0,0,0,0,0,0,0,0,0,0,0,0,0,0,0,0,0,0,0,0,0,0,0,0,0,0,0,0,0,0,0,0,0,0,0,0,0,0,0,0,0,0,0,0,0,0,0,0,0,0,0,0,0,0,0,0,0,0,0,0,0,0,0,0,0,0,0,0,0,0,0,0,0,0,0,0,0,0,0,0,0,0,0,0,0,0,0,0,0,0,0,0,0,0,0,0,0,0,0,0,0,0,0,0,0,0,0,0,0,0,0,0,0,0,0,0,0,0,0,0,0,0,0,0,0,0,0,0,0,0,0,0,0,0,0,0,0,0,0,0,0,0,0,0,0,0,0,0,0,0,0,0,0,0,0,0,0,0,0,0,0,0,0,0,0,0,0,0,0,0,0,0,0,0,0,0,0,0,0,0,0,0,0,0,0,0,0,0,0,0,0,0,0,0,0,0,0,0,375,376,377,378,379,380,381,382,383,0,0,0,0,472,473,474,475,476,477,478,479,480,481,482,483,472,473,474,475,476,477,478,479,480,481,482,483,536,0,0,0,0,0,0,0,0,0,0,0,0,0,0,0,0,0,0,471,472,473,474,475,476,477,478,479,480,481,482,483,2147484131,2147484130,2147484129,2147484128,2147484127,2147484126,2147484125,2147484124,2147484123,2147484122,2147484121,2147484120,0,0,0,0,2147484031,2147484030,2147484029,2147484028,2147484027,2147484026,2147484025,2147484024,2147484023,397,398,399,400,401,402,403,404,405,0,0,0,0,485,486,487,488,489,490,491,492,493,494,495,496,485,486,487,488,489,490,491,492,493,494,495,496,537,0,0,0,0,0,0,0,0,0,0,0,0,0,0,0,0,0,0,484,485,486,487,488,489,490,491,492,493,494,495,496,2147484144,2147484143,2147484142,2147484141,2147484140,2147484139,2147484138,2147484137,2147484136,2147484135,2147484134,2147484133,0,0,0,0,2147484053,2147484052,2147484051,2147484050,2147484049,2147484048,2147484047,2147484046,2147484045,419,420,421,422,423,424,425,426,427,0,0,0,0,498,499,500,501,502,503,504,505,506,507,508,509,498,499,500,501,502,503,504,505,506,507,508,509,538,0,0,0,0,0,0,0,0,0,0,0,0,0,0,0,0,0,0,497,498,499,500,501,502,503,504,505,506,507,508,509,2147484157,2147484156,2147484155,2147484154,2147484153,2147484152,2147484151,2147484150,2147484149,2147484148,2147484147,2147484146,0,0,0,0,2147484075,2147484074,2147484073,2147484072,2147484071,2147484070,2147484069,2147484068,2147484067,441,442,443,444,445,446,447,448,449,0,0,0,0,511,512,513,514,515,516,517,518,519,520,521,522,511,512,513,514,515,516,517,518,519,520,521,522,539,0,0,0,540,541,542,543,544,545,546,547,548,549,550,551,0,0,0,510,511,512,513,514,515,516,517,518,519,520,521,522,2147484170,2147484169,2147484168,2147484167,2147484166,2147484165,2147484164,2147484163,2147484162,2147484161,2147484160,2147484159,0,0,0,0,2147484097,2147484096,2147484095,2147484094,2147484093,2147484092,2147484091,2147484090,2147484089,462,463,464,465,466,467,468,469,470,0,0,0,0,524,525,526,527,528,529,530,531,532,533,534,535,524,525,526,527,528,529,530,531,532,533,534,535,552,0,0,0,553,554,555,556,557,558,559,560,561,562,563,564,0,0,0,523,524,525,526,527,528,529,530,531,532,533,534,535,2147484183,2147484182,2147484181,2147484180,2147484179,2147484178,2147484177,2147484176,2147484175,2147484174,2147484173,2147484172,0,0,0,0,2147484118,2147484117,2147484116,2147484115,2147484114,2147484113,2147484112,2147484111,2147484110,0,0,0,0,0,0,0,0,0,0,0,0,0,0,0,0,0,0,0,0,0,0,0,0,0,0,0,0,0,0,0,0,0,0,0,0,0,0,0,0,0,565,566,567,568,569,570,571,572,573,574,575,576,0,0,0,0,0,0,0,0,0,0,0,0,0,0,0,0,0,0,0,0,0,0,0,0,0,0,0,0,0,0,0,0,0,0,0,0,0,0,0,0,0,0,0,0,0,0,0,0,0,0,0,0,0,0,0,0,0,0,0,0,0,0,0,0,0,0,0,0,0,0,0,0,0,0,0,0,0,0,0,0,0,0,577,578,579,580,581,582,583,584,585,586,587,588,0,0,0,0,0,0,0,0,0,0,0,0,0,0,0,0,0,0,0,0,0,0,0,0,0,0,0,0,0,0,0,0,0,0,0,0,0,0,0,0,0,0,0,0,0,0,0,0,0,0,0,0,0,0,0,0,0,0,0,0,0,0,0,0,0,0,0,0,0,0,0,0,0,0,0,0,0,0,0,0,0,0,589,590,591,592,593,594,595,596,597,598,599,600,0,0,0,0,0,0,0,0,0,0,0,0,0,0,0,0,0,0,0,0,0,0,0,0,0,0,0,0,0,0,0,0,0,0,0,0,0,0,0,0,0,0,0,0,0,0,0,0,0,0,0,0,0,0,0,0,0,0,0,0,0,0,0,0,0,0,0,0,0,0,0,0,0,0,0,0,0,0,0,0,0,0,601,602,603,604,605,606,607,608,609,610,611,612,0,0,0,0,0,0,0,0,0,0,0,0,0,0,0,0,0,0,0,0,0,0,0,0,0,0,0,0,0,0,0,0,0,0,0,0,0,0,0,0,0,0,0,0,0,0,0,0,0,0,0,0,0,0,0,0,0,0,0,0,0,0,0,0,0,0,0,0,0,0,0,0,0,0,0,0,0,0,0,0,0,0,613,614,615,616,617,618,619,620,621,622,623,624,0,0,0,0,0,0,0,0,0,0,0,0,0,0,0,0,0,0,0,0,0,0,0,0,0,0,0,0,0,0,0,0,0,0,0,0,0,0,0,0,0,0,0,0,0,0,0,0,0,0,0,0,0,0,0,0,0,0,0,0,0,0,0,0,0,0,0,0,0,0,0,0,0,0,0,0,0,0,0,0,0,0,625,626,627,628,629,630,631,632,633,634,635,636,0,0,0,0,0,0,0,0,0,0,0,0,0,0,0,0,0,0,0,0,0,0,0,0,0,0,0,0,0,0,0,0,0,0,0,0,0,0,0,0,0,375,376,377,378,379,380,381,382,383,0,0,0,0,0,0,0,0,0,0,0,0,0,0,0,0,0,0,0,0,0,0,0,0,0,0,0,0,0,0,0,0,637,638,639,640,641,642,643,644,645,646,647,648,0,0,0,0,0,0,0,0,0,0,0,0,0,0,0,0,0,0,0,0,0,0,0,0,0,0,0,0,0,0,0,0,2147484031,2147484030,2147484029,2147484028,2147484027,2147484026,2147484025,2147484024,2147484023,397,398,399,400,401,402,403,404,405,0,0,0,0,0,0,0,0,0,0,0,0,0,0,0,0,0,0,0,0,0,0,0,0,0,0,0,0,0,0,0,0,649,650,651,652,653,654,655,656,657,658,659,660,0,0,0,0,0,0,0,0,0,0,0,0,0,0,0,0,0,0,0,0,0,0,0,0,0,0,0,0,0,0,0,0,2147484053,2147484052,2147484051,2147484050,2147484049,2147484048,2147484047,2147484046,2147484045,419,420,421,422,423,424,425,426,427,0,0,0,0,0,0,0,0,0,0,0,0,0,0,0,0,0,0,0,0,0,0,0,0,0,0,0,0,0,0,0,0,661,662,663,664,665,666,667,668,669,670,671,672,0,0,0,0,0,0,0,0,0,0,0,0,0,0,0,0,0,0,0,0,0,0,0,0,0,0,0,0,0,0,0,0,2147484075,2147484074,2147484073,2147484072,2147484071,2147484070,2147484069,2147484068,2147484067,441,442,443,444,445,446,447,448,449,0,0,0,0,0,0,0,0,0,0,0,0,0,0,0,0,0,0,0,0,0,0,0,0,0,0,0,0,0,0,0,0,673,674,675,676,677,678,679,680,681,682,683,684,0,0,0,0,0,0,0,0,0,0,0,0,0,0,0,0,0,0,0,0,0,0,0,0,0,0,0,0,0,0,0,0,2147484097,2147484096,2147484095,2147484094,2147484093,2147484092,2147484091,2147484090,2147484089,462,463,464,465,466,467,468,469,470,0,0,0,0,0,0,0,0,0,0,0,0,0,0,0,0,0,0,0,0,0,0,0,0,0,0,0,0,0,0,0,0,0,0,0,0,0,0,0,0,0,0,0,0,0,0,0,0,0,0,0,0,0,0,0,0,0,0,0,0,0,0,0,0,0,0,0,0,0,0,0,0,0,0,0,0,2147484118,2147484117,2147484116,2147484115,2147484114,2147484113,2147484112,2147484111,2147484110,0,0,0,0,0,0,0,0,0,0,0,0,0,0,0,0,0,0,0,0,0,0,0,0,0,0,0,0,0,0,0,0,0,0,0,0,0,0,0,0,0,0,0,0,0,0,0,0,0,0,0,0,0,0,0,0,0,0,0,0,0,0,0,0,0,0,0,0,0,0,0,0,0,0,0,0,0,0,0,0,0,0,0,0,0,0,0,0,0,0,0,0,0,0,0,0,0,0,0,0,0,0,0,0,0,0,0,0,0,0,0,0,0,0,0,0,0,0,0,0,0,0,0,0,0,0,0,0,0,0,0,0,0,0,0,0,0,0,0,0,0,0,0,0,0,0,0,0,0,0,0,0,0,0,0,0,0,0,0,0,0,0,0,0,0,0,0,0,0,0,0,0,0,0,0,0,0,0,0,0,0,0,0,0,0,0,0,0,0,0,0,0,0,0,0,0,0,0,0,0,384,385,386,387,388,389,390,391,392,393,394,395,396,472,473,474,475,476,477,478,479,480,481,482,483,536,0,0,0,0,0,0,0,0,0,0,0,0,0,0,0,0,0,0,471,472,473,474,475,476,477,478,479,480,481,482,483,384,385,386,387,388,389,390,391,392,393,394,395,396,0,0,0,0,0,0,0,0,0,0,0,0,0,0,0,0,0,0,0,0,0,0,0,0,406,407,408,409,410,411,412,413,414,415,416,417,418,485,486,487,488,489,490,491,492,493,494,495,496,537,0,0,0,0,0,0,0,0,0,0,0,0,0,0,0,0,0,0,484,485,486,487,488,489,490,491,492,493,494,495,496,406,407,408,409,410,411,412,413,414,415,416,417,418,0,0,0,0,0,0,0,0,0,0,0,0,0,0,0,0,0,0,0,0,0,0,0,0,428,429,430,431,432,433,434,435,436,437,438,439,440,498,499,500,501,502,503,504,505,506,507,508,509,538,0,0,0,0,0,0,0,0,0,0,0,0,0,0,0,0,0,0,497,498,499,500,501,502,503,504,505,506,507,508,509,428,429,430,431,432,433,434,435,436,437,438,439,440,0,0,0,0,0,0,0,0,0,0,0,0,0,0,0,0,0,0,0,0,0,0,0,0,450,451,452,453,454,455,456,457,458,459,460,461,0,511,512,513,514,515,516,517,518,519,520,521,522,539,0,0,0,0,0,0,0,0,0,0,0,0,0,0,0,0,0,0,510,511,512,513,514,515,516,517,518,519,520,521,522,450,451,452,453,454,455,456,457,458,459,460,461,0,0,0,2147484333,2147484334,2147484335,2147484336,2147484337,2147484338,2147484339,2147484340,2147484341,2147484342,375,376,377,378,379,380,381,382,383,0,0,0,0,0,0,0,0,0,0,0,0,0,0,0,523,524,525,526,527,528,529,530,531,532,533,534,535,552,0,0,0,0,0,0,0,0,0,0,0,0,0,0,0,0,0,0,523,524,525,526,527,528,529,530,531,532,533,534,535,0,0,0,0,0,0,0,0,0,0,0,0,0,0,0,2147484343,2147484031,2147484030,2147484029,2147484028,2147484027,2147484026,2147484025,2147484024,2147484023,397,398,399,400,401,402,403,404,405,696,0,0,0,0,0,0,0,0,0,0,0,0,0,0,0,0,0,0,0,0,0,0,0,0,0,0,0,0,0,0,0,0,0,0,0,0,0,0,0,0,0,0,0,0,0,0,0,0,0,0,0,0,0,0,0,0,0,0,0,0,0,0,0,0,0,0,0,0,0,0,0,0,0,0,2147484344,2147484053,2147484052,2147484051,2147484050,2147484049,2147484048,2147484047,2147484046,2147484045,419,420,421,422,423,424,425,426,427,697,0,0,0,0,0,0,0,0,0,0,0,0,0,0,0,0,0,0,0,0,0,0,0,0,0,0,0,0,0,0,0,0,0,0,0,0,0,0,0,0,0,0,0,0,0,0,0,0,0,0,0,0,0,0,0,0,0,0,0,0,0,0,0,0,0,0,0,0,0,0,0,0,0,0,2147484345,2147484075,2147484074,2147484073,2147484072,2147484071,2147484070,2147484069,2147484068,2147484067,441,442,443,444,445,446,447,448,449,698,0,0,0,0,0,0,0,0,0,0,0,0,0,0,0,0,0,0,0,0,0,0,0,0,0,0,0,0,0,0,0,0,0,0,0,0,0,0,0,0,0,0,0,0,0,0,0,0,0,0,0,0,0,0,0,0,0,0,0,0,0,0,0,0,0,0,0,0,0,0,0,0,0,0,2147484346,2147484097,2147484096,2147484095,2147484094,2147484093,2147484092,2147484091,2147484090,2147484089,462,463,464,465,466,467,468,469,470,699,0,0,0,0,0,0,0,0,0,0,0,0,0,0,0,0,0,0,0,0,0,0,0,0,0,0,0,0,0,0,0,0,0,0,0,0,0,0,0,0,0,0,0,0,0,0,0,0,0,0,0,0,0,0,0,0,0,0,0,0,0,0,0,0,0,0,0,0,0,0,0,0,0,0,2147484347,2147484118,2147484117,2147484116,2147484115,2147484114,2147484113,2147484112,2147484111,2147484110,0,0,0,0,0,0,0,0,0,0,0,0,0,0,0,0,0,0,0,0,0,0,0,0,0,0,0,0,0,0,0,0,0,0,0,0,0,0,0,0,0,0,0,0,0,0,0,0,0,0,0,0,0,0,0,0,0,0,0,0,0,0,0,0,0,0,0,0,0,0,0,0,0,0,0,0,0,0,0,0,0,0,0,0,0,0,0,0,0,0,0,0,0,0,0,0,0,0,0,0,0,0,0,0,0,0,0,0,0,0,0,0,0,0,0,0,0,0,0,0,0,0,0,0,0,0,0,0,0,0,0,0,0,0,0,0,0,0,0,0,0,0,0,0,0,0,0,0,0,0,0,0,0,0,0,0,0,0,0,0,0,0,0,0,0,0,0,0,0,0,0,0,0,0,0,0,0,0,0,0,0,0,0,0,0,0,0,0,0,0,0,0,0,0,0,0,0,0,0,0,0,0,0,0,0,0,0,0,0,0,0,0,0,0,0,0,0,0,0,0,0,0,0,0,0,0,0,0,0,0,0,0,0,0,0,0,0,0,0,0,0,0,0,0,0,0,0,0,0,0,0,0,0,0,0,0,0,0,0,0,0,0,0,0,0,0,0,0,0,0,0,0,0,0,0,0,0,0,0,0,0,0,0,0,0,0,0,0,0,0,0,0,0,0,0,0,0,0,0,0,0,0,0,0,0,0,0,0,0,0,0,0,0,0,0,0,0,0,0,0,0,0,0,0,0,0,0,0,0,0,0,0,0,0,0,0,0,0,0,0,0,0,0,0,0,0,0,0,0,0,0,0,0,0,0,0,0,0,0,0,0,0,0,0,0,0,0,0,0,0,0,0,0,0,0,0,0,0,0,0,0,0,0,0,0,0,0,0,0,0,0,0,0,0,0,0,0,0,0,0,0,0,0,0,0,0,0,0,0,0,0,0,0,0,0,0,0,0,0,0,0,0,0,0,0,0,0,0,0,0,0,0,0,0,0,0,0,0,0,0,0,0,0,0,0,0,0,0,0,0,0,0,0,0,0,0,0,0,0,0,0,0,0,0,0,0,0,0,0,0,0,0,0,0,0,0,0,0,0,0,0,0,0,0,0,0,0,0,0,0,0,0,0,0,0,0,0,0,0,0,0,0,0,0,0,0,0,0,0,0,0,0,0,0,0,0,0,0,0,0,0,0,0,0,0,0,0,0,0,0,0,0,0,0,0,0,0,0,0,0,0,0,0,0,0,0,0,0,0,0,0,0,0,0,0,0,0,0,0,0,0,0,0,0,0,0,0,0,0,0,0,0,0,0,0,0,0,0,0,0,0,0,0,0,0,0,0,0,0,0,0,0,0,0,0,0,0,0,0,0,0,0,0,0,0,0,0,0,0,0,0,0,0,0,0,0,0,0,0,0,0,0,0,0,0,0,0,0,0,0,0,0,0,0,0,0,0,0,0,0,0,0,0,0,0,0,0,0,0,0,0,0,0,0,0,0,0,0,0,0,0,0,0,0,0,0,0,0,0,0,0,0,0,0,0,0,0,0,0,0,0,0,0,0,0,0,0,0,0,0,0,0,0,0,0,0,0,0,0,0,0,0,0,0,0,0,0,0,0,0,0,0,0,0,0,0,0,0,0,0,0,0,0,0,0,0,0,0,0,0,0,0,0,0,0,0,0,0,0,0,0,0,0,0,0,0,0,0,0,0,0,0,0,0,0,0,0,0,0,0,0,0,0,0,0,0,0,0,0,0,0,0,0,0,0,0,0,0,0,0,0,0,0,0,0,0,0,0,0,0,0,0,0,0,0,0,0,0,0,0,0,0,0,0,0,0,0,0,0,0,0,0,0,0,0,0,0,0,0,0,0,0,0,0,0,0,0,0,0,0,0,0,0,0,0,700,0,0,0,0,0,0,0,0,0,0,385,386,387,388,389,390,391,392,393,394,395,396,0,0,2147484031,2147484030,2147484029,2147484028,2147484027,2147484026,2147484025,2147484024,2147484023,375,376,377,378,379,380,381,382,383,0,0,384,385,386,387,388,389,390,391,392,393,394,395,396,384,385,386,387,388,389,390,391,392,393,394,395,396,0,0,2147484031,2147484030,2147484029,2147484028,2147484027,2147484026,2147484025,2147484024,2147484023,375,376,377,378,379,380,381,382,383,0,0,384,385,386,387,388,389,390,391,392,393,394,395,407,408,409,410,411,412,413,414,415,416,417,418,0,0,2147484053,2147484052,2147484051,2147484050,2147484049,2147484048,2147484047,2147484046,2147484045,397,398,399,400,401,402,403,404,405,0,0,406,407,408,409,410,411,412,413,414,415,416,417,418,406,407,408,409,410,411,412,413,414,415,416,417,418,0,0,2147484053,2147484052,2147484051,2147484050,2147484049,2147484048,2147484047,2147484046,2147484045,397,398,399,400,401,402,403,404,405,0,0,406,407,408,409,410,411,412,413,414,415,416,417,429,430,431,432,433,434,435,436,437,438,439,440,0,0,2147484075,2147484074,2147484073,2147484072,2147484071,2147484070,2147484069,2147484068,2147484067,419,420,421,422,423,424,425,426,427,0,0,428,429,430,431,432,433,434,435,436,437,438,439,440,428,429,430,431,432,433,434,435,436,437,438,439,440,0,0,2147484075,2147484074,2147484073,2147484072,2147484071,2147484070,2147484069,2147484068,2147484067,419,420,421,422,423,424,425,426,427,0,0,428,429,430,431,432,433,434,435,436,437,438,439,451,452,453,454,455,456,457,458,459,460,461,0,0,0,2147484097,2147484096,2147484095,2147484094,2147484093,2147484092,2147484091,2147484090,2147484089,441,442,443,444,445,446,447,448,449,0,0,450,451,452,453,454,455,456,457,458,459,460,461,0,450,451,452,453,454,455,456,457,458,459,460,461,0,0,0,2147484097,2147484096,2147484095,2147484094,2147484093,2147484092,2147484091,2147484090,2147484089,441,442,443,444,445,446,447,448,449,0,0,450,451,452,453,454,455,456,457,458,459,460,461,0,0,0,0,0,0,0,0,0,0,0,0,0,0,2147484118,2147484117,2147484116,2147484115,2147484114,2147484113,2147484112,2147484111,2147484110,462,463,464,465,466,467,468,469,470,0,0,0,0,0,0,0,0,0,0,0,0,0,0,0,0,0,0,0,0,0,0,0,0,0,0,0,0,0,0,2147484118,2147484117,2147484116,2147484115,2147484114,2147484113,2147484112,2147484111,2147484110,462,463,464,465,466,467,468,469,470,0,0,0,0,0,0,0,0,0,0,0,0,0,0,0,0,0,0,0,0,0,0,0,0,0,0,0,0,0,0,0,0,0,0,0,0,0,0,0,0,0,0,0,0,0,0,0,0,0,0,0,0,0,0,0,0,0,0,0,0,0,0,0,0,0,0,0,0,0,0,0,0,0,0,0,0,0,0,0,0,0,0,0,0,0,0,0,0,0,0,0,0,0,0,0,0,0,701,0,0,0,0,0,0,0,0,0,0,0,0,0,0,0,0,0,0,0,0,0,0,0,0,0,0,0,0,0,0,0,0,0,0,0,0,0,0,0,0,0,0,0,0,0,0,0,0,0,0,0,0,0,0,0,0,0,0,0,0,0,0,0,0,0,0,0,0,0,0,0,0,0,0,0,0,0,0,0,0,0,0,0,0,0,0,0,0,0,0,0,0,0,702,0,0,0,0,0,0,0,0,0,0,0,0,0,0,0,0,0,0,0,0,0,0,0,0,0,0,0,0,0,0,0,0,0,0,0,0,0,0,0,0,0,0,0,0,0,0,0,0,0,0,0,0,0,0,0,0,0,0,0,0,0,0,0,0,0,0,0,0,0,0,0,0,0,0,0,0,0,0,0,0,0,0,0,0,0,0,0,0,0,0,0,0,0,703,0,0,0,0,0,0,0,0,0,0,0,0,0,0,0,0,0,0,0,0,0,0,0,0,0,0,0,0,0,0,0,0,0,0,0,0,0,0,0,0,0,0,0,0,0,0,0,0,0,0,0,0,0,0,0,0,0,0,0,0,0,0,0,0,0,0,0,0,0,0,0,0,0,0,0,0,0,0,0,0,0,0,0,0,0,0,0,0,0,0,0,0,0,704,0,0,0,0,0,0,0,0,0,0,0,0,0,0,0,0,0,0,0,0,0,0,0,0,0,0,0,0,0,0,0,0,0,0,0,0,0,0,0,0,0,0,0,0,0,0,0,0,0,0,0,0,0,0,0,0,0,0,0,0,0,0,0,0,0,0,0,0,0,0,0,0,0,0,0,0,0,0,0,0,0,0,0,0,0,0,0,0,0,0,0,0,0,705,0,0,0,0,0,0,0,0,0,0,0,0,0,0,0,0,0,0,0,0,0,0,0,0,0,0,0,0,0,0,0,0,0,0,0,0,0,0,0,0,0,0,0,0,0,0,0,0,0,0,0,0,0,0,0,0,0,0,0,0,0,0,0,0,0,0,0,0,0,0,0,0,0,0,0,0,0,0,0,0,0,0,0,0,0,0,0,0,0,0,0,0,0,0,0,0,0,0,0,0,0,0,0,0,0,0,0,0,0,0,0,0,0,0,0,0,0,0,0,0,0,0,0,0,0,0,0,0,0,0,0,0,0,0,0,0,0,0,0,0,0,0,0,0,0,0,0,0,0,0,0,0,0,0,0,0,0,0,0,0,0,0,0,0,0,0,0,0,0,0,0,0,0,0,0,0,0,0,0,0,0,0,0,0,0,0,0,0,0,0,0,0,0,0,0,0,0,0,0,0,0,0,0,0,0,0,0,0,0,0,0,0,0,0,0,0,0,0,0,0,0,0,0,0,0,0,0,0,0,0,0,0,0,0,0,0,0,0,0,0,0,0,0,0,0,0,0,0,0,0,0,0,0,0,0,0,0,0,0,0,0,0,0,0,0,0,0,0,0,0,0,0,0,0,0,0,0,0,0,0,0,0,0,0,0,0,0,0,0,0,0,0,0,0,0,0,0,0,0,0,0,0,0,0,0,0,0,0,0,0,0,0,0,0,0,0,0,0,0,0,0,0,0,0,0,0,0,0,0,0,0,0,0,0,0,0,0,0,0,0,0,0,0,0,0,0,0,0,0,0,0,0,0,0,0,0,0,0,0,0,0,0,0,0,0,0,0,0,0,0,0,0,0,0,0,0,0,0,0,0,0,0,0,0,0,0],"height":83,"id":9,"name":"walls","opacity":1,"visible":true,"width":94,"x":0,"y":0},{"type":"tilelayer","data":[0,0,0,0,0,0,0,0,0,0,0,0,0,0,0,0,0,0,0,0,0,0,0,0,0,0,0,0,0,0,0,0,0,0,0,0,0,0,0,0,0,0,0,0,0,0,0,0,0,0,0,0,0,0,0,0,0,0,0,0,0,0,0,0,0,0,0,0,0,0,0,0,0,0,0,0,0,0,0,0,0,0,0,0,0,0,0,0,0,0,0,0,0,0,0,0,0,0,0,0,0,0,0,0,0,0,0,0,0,0,0,0,0,0,0,0,0,0,0,0,0,0,0,0,0,0,0,0,0,0,0,0,0,0,0,0,0,0,0,0,0,0,0,0,0,0,0,0,0,0,0,0,0,0,0,0,0,0,0,0,0,0,0,0,0,0,0,0,0,0,0,0,0,0,0,0,0,0,0,0,0,0,0,0,0,0,0,0,706,0,0,0,0,0,0,0,0,0,0,0,0,0,0,0,0,0,0,0,0,2147484354,706,0,0,0,0,0,0,0,0,0,0,0,707,708,709,0,0,0,0,0,0,0,707,708,709,707,708,709,0,0,0,0,0,0,0,707,708,709,0,0,0,0,0,0,0,0,0,0,0,2147484354,706,0,0,0,0,0,0,0,0,0,0,0,0,0,0,0,0,0,0,0,0,2147484354,710,0,0,0,0,0,0,0,0,0,0,0,0,0,0,0,0,0,0,0,0,2147484358,710,0,0,0,0,0,0,0,0,0,0,0,711,712,713,0,0,0,0,0,0,0,711,712,713,711,712,713,0,0,0,0,0,0,0,711,712,713,0,0,0,0,0,0,0,0,0,0,0,2147484358,710,0,0,0,0,0,0,0,0,0,0,0,0,0,0,0,0,0,0,0,0,2147484358,714,0,0,0,0,0,0,0,0,0,0,0,0,0,0,0,0,0,0,0,0,2147484362,714,0,0,0,0,0,0,0,0,0,0,0,715,716,717,0,0,0,0,0,0,0,715,716,717,715,716,717,0,0,0,0,0,0,0,715,716,717,0,0,0,0,0,0,0,0,0,0,0,2147484362,714,0,0,0,0,0,0,0,0,0,0,0,0,0,0,0,0,0,0,0,0,2147484362,718,0,0,0,0,0,0,0,0,0,0,0,0,0,0,0,0,0,0,0,0,2147484366,718,0,0,0,0,0,0,0,0,0,0,0,719,720,721,0,0,0,0,0,0,0,719,720,721,719,720,721,0,0,0,0,0,0,0,719,720,721,0,0,0,0,0,0,0,0,0,0,0,2147484366,718,0,0,0,0,0,0,0,0,0,0,0,0,0,0,0,0,0,0,0,0,2147484366,722,0,0,0,0,0,0,0,0,0,0,0,0,0,0,0,0,0,0,0,0,2147484370,722,0,0,0,0,0,0,0,0,0,0,0,0,0,0,0,0,0,0,0,0,0,0,0,0,0,0,0,0,0,0,0,0,0,0,0,0,0,0,0,0,0,0,0,0,0,0,0,0,2147484370,722,0,0,0,0,0,0,0,0,0,0,0,0,0,0,0,0,0,0,0,0,2147484370,723,0,0,0,0,0,0,0,0,0,0,0,0,0,0,0,0,0,0,0,0,2147484371,723,0,0,0,0,0,0,0,0,0,0,0,0,0,0,0,0,0,0,0,0,0,0,0,0,0,0,0,0,0,0,0,0,0,0,0,0,0,0,0,0,0,0,0,0,0,0,0,0,2147484371,723,0,0,0,0,0,0,0,0,0,0,0,0,0,0,0,0,0,0,0,0,2147484371,724,0,0,0,0,0,0,0,0,0,0,0,0,0,0,0,0,0,0,0,0,2147484372,724,0,0,0,0,0,0,0,0,0,0,0,0,0,0,0,0,0,0,0,0,0,0,0,0,0,0,0,0,0,0,0,0,0,0,0,0,0,0,0,0,0,0,0,0,0,0,0,0,2147484372,724,0,0,0,0,0,0,0,0,0,0,0,0,0,0,0,0,0,0,0,0,2147484372,725,0,0,0,0,0,0,0,0,0,0,0,0,0,0,0,0,0,0,0,0,2147484373,725,0,0,0,0,0,0,0,0,0,0,0,0,0,0,0,0,0,0,0,0,0,0,0,0,0,0,0,0,0,0,0,0,0,0,0,0,0,0,0,0,0,0,0,0,0,0,0,0,2147484373,725,0,0,0,0,0,0,0,0,0,0,0,0,0,0,0,0,0,0,0,0,2147484373,0,0,0,0,0,0,0,0,0,0,0,0,0,0,0,0,0,0,0,0,0,0,0,0,0,0,0,0,0,0,0,0,0,0,0,0,0,0,0,0,0,0,0,0,0,0,0,0,0,0,0,0,0,0,0,0,0,0,0,0,0,0,0,0,0,0,0,0,0,0,0,0,0,0,0,0,0,0,0,0,0,0,0,0,0,0,0,0,0,0,0,0,0,0,0,0,0,0,0,0,0,0,0,0,0,0,0,0,0,0,0,0,0,0,0,0,0,0,0,0,0,0,0,0,0,0,0,0,0,0,0,0,0,0,0,0,0,0,0,0,0,0,0,0,0,0,0,0,0,0,0,0,0,0,0,0,0,0,0,0,0,0,0,0,0,0,0,0,0,0,0,0,0,0,0,0,0,0,0,0,0,0,0,0,0,0,0,0,0,0,0,0,0,0,0,0,0,0,0,0,0,0,0,0,0,0,0,0,0,0,0,0,0,0,0,0,0,0,0,0,0,0,0,0,0,0,0,0,0,0,0,0,0,0,0,0,0,0,0,0,0,0,0,0,0,0,0,0,0,0,0,0,0,0,0,0,0,0,0,0,0,0,0,0,0,0,0,0,0,0,0,0,0,0,0,0,0,0,0,0,0,0,706,0,0,0,0,0,0,0,0,0,0,0,0,0,0,0,0,0,0,0,0,0,0,0,0,0,0,0,0,0,0,0,0,0,0,0,0,0,0,0,0,0,0,0,0,0,0,0,0,0,0,0,0,0,0,0,0,0,0,0,0,0,0,0,0,0,0,0,0,0,0,0,0,0,0,0,0,0,0,0,0,0,0,0,0,0,0,0,0,0,0,0,0,2147484354,710,0,0,0,0,0,0,0,0,0,0,0,0,0,0,0,0,0,0,0,0,0,0,0,0,0,0,0,0,0,0,0,0,0,0,0,0,0,0,0,0,0,0,0,0,0,0,0,0,0,0,0,0,0,0,0,0,0,0,0,0,0,0,0,0,0,0,0,0,0,0,0,0,0,0,0,0,0,0,0,0,0,0,0,0,0,0,0,0,0,0,0,0,2147484358,714,0,0,0,0,0,0,0,0,0,0,0,0,0,0,0,0,0,0,0,0,0,0,0,0,0,0,0,0,0,0,0,0,0,0,0,0,0,0,0,0,0,0,0,0,0,0,0,0,0,0,0,0,0,0,0,0,0,0,0,0,0,0,0,0,0,0,0,0,0,0,0,0,0,0,0,0,0,0,0,0,0,0,0,0,0,0,0,0,0,0,0,0,2147484362,718,0,0,0,0,0,0,0,0,0,0,0,0,0,0,0,0,0,0,0,0,0,0,0,0,0,0,0,0,0,0,0,0,0,0,0,0,0,0,0,0,0,0,0,0,0,0,0,0,0,0,0,0,0,0,0,0,0,0,0,0,0,0,0,0,0,0,0,0,0,0,0,0,0,0,0,0,0,0,0,0,0,0,0,0,0,0,0,0,0,0,0,0,2147484366,722,0,0,0,0,0,0,0,0,0,0,0,0,0,0,0,0,0,0,0,0,0,2147484374,0,0,0,0,0,0,0,0,0,0,0,0,2147484375,0,0,0,0,0,0,0,0,0,0,0,2147484375,0,0,0,0,0,0,0,0,0,0,0,2147484375,0,0,0,0,0,0,0,0,0,0,0,0,0,0,0,0,0,0,0,0,0,0,0,0,0,0,0,0,0,0,0,0,0,2147484370,723,0,0,0,0,0,0,0,0,0,0,0,0,0,0,0,0,0,0,0,0,0,2147484376,0,0,0,0,0,0,0,0,0,0,0,0,2147484377,0,0,0,0,0,0,0,0,0,0,0,2147484377,0,0,0,0,0,0,0,0,0,0,0,2147484377,0,0,0,0,0,0,0,0,0,0,0,0,0,0,0,0,0,0,0,0,0,0,0,0,0,0,0,0,0,0,0,0,0,2147484371,724,0,0,0,0,0,0,0,0,0,0,0,0,0,0,0,0,0,0,0,0,0,2147484378,0,0,0,0,0,0,0,0,0,0,0,0,2147484379,0,0,0,0,0,0,0,0,0,0,0,2147484379,0,0,0,0,0,0,0,0,0,0,0,2147484379,0,0,0,0,0,0,0,0,0,0,0,0,0,0,0,0,0,0,0,0,0,0,0,0,0,0,0,0,0,0,0,0,0,2147484372,725,0,0,0,0,0,0,0,0,0,0,0,0,0,0,0,0,0,0,0,0,0,2147484380,0,0,0,0,0,0,0,0,0,0,0,0,2147484381,0,0,0,0,0,0,0,0,0,0,0,2147484381,0,0,0,0,0,0,0,0,0,0,0,2147484381,0,0,0,0,0,0,0,0,0,0,0,0,0,0,0,0,0,0,0,0,0,0,0,0,0,0,0,0,0,0,0,0,0,2147484373,0,0,0,0,0,0,0,0,0,0,0,0,0,0,0,0,0,0,0,0,0,0,2147484382,0,0,0,0,0,0,0,0,0,0,0,0,2147484383,0,0,0,0,0,0,0,0,0,0,0,2147484383,0,0,0,0,0,0,0,0,0,0,0,2147484383,0,0,0,0,0,0,0,0,0,0,0,0,0,0,0,0,0,0,0,0,0,0,0,0,0,0,0,0,0,0,0,0,0,0,0,0,0,0,0,0,0,0,0,0,0,0,0,0,0,0,0,0,0,0,0,0,2147484384,0,0,0,0,0,0,0,0,0,0,0,0,2147484385,0,0,0,0,0,0,0,0,0,0,0,2147484385,0,0,0,0,0,0,0,0,0,0,0,2147484385,0,0,0,0,0,0,0,0,0,0,0,0,0,0,0,0,0,0,0,0,0,0,0,0,0,0,0,0,0,0,0,0,0,0,0,0,0,0,0,0,0,0,0,0,0,0,0,0,0,0,0,0,0,0,0,0,2147484386,0,0,0,0,0,0,0,0,0,0,0,0,2147484387,0,0,0,0,0,0,0,0,0,0,0,2147484387,0,0,0,0,0,0,0,0,0,0,0,2147484387,0,0,0,0,0,0,0,0,0,0,0,0,0,0,0,0,0,0,0,0,0,0,0,0,0,0,0,0,0,0,0,0,0,0,706,0,0,0,0,0,0,0,0,0,0,0,0,0,0,0,0,0,0,0,0,0,2147484388,0,0,0,0,0,0,0,0,0,0,0,0,2147484389,0,0,0,0,0,0,0,0,0,0,0,2147484389,0,0,0,0,0,0,0,0,0,0,0,2147484389,0,0,0,0,0,0,0,0,0,0,0,0,0,0,0,0,0,0,0,0,0,0,0,0,0,0,0,0,0,0,0,0,0,2147484354,710,0,0,0,0,0,0,0,0,0,0,0,0,0,0,0,0,0,0,0,0,0,2147484390,0,0,0,0,0,0,0,0,0,0,0,0,2147484391,0,0,0,0,0,0,0,0,0,0,0,2147484391,0,0,0,0,0,0,0,0,0,0,0,2147484391,0,0,0,0,0,0,0,0,0,0,0,0,0,0,0,0,0,0,0,0,0,0,0,0,0,0,0,0,0,0,0,0,0,2147484358,714,0,0,0,0,0,0,0,0,0,0,0,0,0,0,0,0,0,0,0,0,0,2147484392,0,0,0,0,0,0,0,0,0,0,0,0,2147484393,0,0,0,0,0,0,0,0,0,0,0,2147484393,0,0,0,0,0,0,0,0,0,0,0,2147484393,0,0,0,0,0,0,0,0,0,0,0,0,0,0,0,0,0,0,0,0,0,0,0,0,0,0,0,0,0,0,0,0,0,2147484362,718,0,0,0,0,0,0,0,0,0,0,0,0,0,0,0,0,0,0,0,0,0,2147484394,0,0,0,0,0,0,0,0,0,0,0,0,2147484395,0,0,0,0,0,0,0,0,0,0,0,2147484395,0,0,0,0,0,0,0,0,0,0,0,2147484395,0,0,0,0,0,0,0,0,0,0,0,0,0,0,0,0,0,0,0,0,0,0,0,0,0,0,0,0,0,0,0,0,0,2147484366,722,0,0,0,0,0,0,0,0,0,0,0,0,0,0,0,0,0,0,0,0,0,2147484396,0,0,0,0,0,0,0,0,0,0,0,0,2147484397,0,0,0,0,0,0,0,0,0,0,0,2147484397,0,0,0,0,0,0,0,0,0,0,0,2147484397,0,0,0,0,0,0,0,0,0,0,0,0,0,0,0,0,0,0,0,0,0,0,0,0,0,0,0,0,0,0,0,0,0,2147484370,723,0,0,0,0,0,0,0,0,0,0,0,0,0,0,0,0,0,0,0,0,0,2147484398,2147484399,0,0,0,0,0,0,0,0,0,0,0,2147484399,0,0,0,0,0,0,0,0,0,0,0,2147484399,0,0,0,0,0,0,0,0,0,0,0,2147484399,0,0,0,0,0,0,751,750,0,0,0,0,0,0,0,0,0,0,0,0,0,0,0,0,0,0,0,0,0,0,0,0,0,2147484371,724,0,0,0,0,0,0,0,0,0,0,0,0,0,0,0,0,0,0,0,0,0,0,0,0,0,0,0,0,0,0,0,0,0,0,0,0,0,0,0,0,0,0,0,0,0,0,0,0,0,0,0,0,0,0,0,0,0,0,0,0,0,0,0,0,0,0,0,0,0,0,0,0,0,0,0,0,0,0,0,0,0,0,0,0,0,0,0,0,0,0,0,0,2147484372,725,0,0,0,0,0,0,0,0,0,0,0,0,0,0,0,0,0,0,0,0,0,0,0,0,0,0,0,0,0,0,0,0,0,0,0,0,0,0,0,0,0,0,0,0,0,0,0,0,0,0,0,0,0,0,0,0,0,0,0,0,0,0,0,0,0,0,0,0,0,0,0,0,0,0,0,0,0,0,0,0,0,0,0,0,0,0,0,0,0,0,0,0,2147484373,0,0,0,0,0,0,0,0,0,0,0,0,0,0,0,0,0,0,0,0,0,0,0,0,0,0,0,0,0,0,0,0,0,0,0,0,0,0,0,0,0,0,0,0,0,0,0,0,0,0,0,0,0,0,0,0,0,0,0,0,0,0,0,0,0,0,0,0,0,0,0,0,0,0,0,0,0,0,0,0,0,0,0,0,0,0,0,0,0,0,0,0,0,0,0,0,0,0,0,0,0,0,0,0,0,0,0,0,0,0,0,0,0,0,0,0,0,0,0,0,0,0,0,0,0,0,0,0,0,0,0,0,0,0,0,0,0,0,0,0,0,0,0,0,0,0,0,0,0,0,0,0,0,0,0,0,0,0,0,0,0,0,0,0,0,0,0,0,0,0,0,0,0,0,0,0,0,0,0,0,0,0,0,0,0,0,0,0,0,0,0,0,0,0,0,0,0,0,0,0,0,0,0,0,0,0,0,0,0,0,0,0,0,0,0,0,0,0,0,0,0,0,0,0,0,0,0,0,0,0,0,0,752,753,754,755,756,757,0,0,0,0,0,0,0,0,0,0,0,0,0,0,0,0,0,0,0,0,0,0,0,0,0,0,0,0,0,0,0,0,0,0,0,0,0,0,0,0,0,0,0,0,706,0,0,0,0,0,0,0,0,0,0,0,0,0,0,0,0,0,0,0,0,0,0,0,727,2147484375,0,0,0,0,0,0,0,0,0,0,0,0,0,0,0,0,0,0,758,759,760,761,762,763,0,0,0,0,0,0,0,0,0,0,0,0,0,0,0,0,0,0,727,2147484375,0,0,0,0,0,0,0,0,0,0,0,0,0,0,0,0,0,0,0,0,0,0,0,2147484354,710,0,0,0,0,0,0,0,0,0,0,0,0,0,0,0,0,0,0,0,0,0,0,0,729,2147484377,0,0,0,0,0,0,0,0,0,0,0,0,0,0,0,0,0,764,765,766,767,768,769,770,771,0,0,0,0,0,0,0,0,0,0,0,0,0,0,0,0,0,729,2147484377,0,0,0,0,0,0,0,0,0,0,0,0,0,0,0,0,0,0,0,0,0,0,0,2147484358,714,0,0,0,0,0,0,0,0,0,0,0,0,0,0,0,0,0,0,0,0,0,0,0,731,2147484379,0,0,0,0,0,0,0,0,0,0,0,0,0,0,0,0,0,772,773,774,775,776,777,778,779,0,0,0,0,0,0,0,0,0,0,0,0,0,0,0,0,0,731,2147484379,0,0,0,0,0,0,0,0,0,0,0,0,0,0,0,0,0,0,0,0,0,0,0,2147484362,718,0,0,0,0,0,0,0,0,0,0,0,0,0,0,0,0,0,0,0,0,0,0,0,733,2147484381,0,0,0,0,0,0,0,0,0,0,0,0,0,0,0,0,0,0,0,0,0,0,0,0,0,0,0,0,0,0,0,0,0,0,0,0,0,0,0,0,0,0,733,2147484381,0,0,0,0,0,0,0,0,0,0,0,0,0,0,0,0,0,0,0,0,0,0,0,2147484366,722,0,0,0,0,0,0,0,0,0,0,0,0,0,0,0,0,0,0,0,0,0,0,0,735,2147484383,0,0,0,0,0,0,0,0,0,0,0,0,0,0,0,0,0,0,0,0,0,0,0,0,0,0,0,0,0,0,0,0,0,0,0,0,0,0,0,0,0,0,735,2147484383,0,0,0,0,0,0,0,0,0,0,0,0,0,0,0,0,0,0,0,0,0,0,0,2147484370,723,0,0,0,0,0,0,0,0,0,0,0,0,0,0,0,0,0,0,0,0,0,0,0,737,2147484385,0,0,0,0,0,0,0,0,0,0,0,0,0,0,0,0,0,0,0,0,0,0,0,0,0,0,0,0,0,0,0,0,0,0,0,0,0,0,0,0,0,0,737,2147484385,0,0,0,0,0,0,0,0,0,0,0,0,0,0,0,0,0,0,0,0,0,0,0,2147484371,724,0,0,0,0,0,0,0,0,0,0,0,0,0,0,0,0,0,0,0,0,0,0,0,739,2147484387,0,0,0,0,0,0,0,0,0,0,0,0,0,0,0,0,0,0,0,0,0,0,0,0,0,0,0,0,0,0,0,0,0,0,0,0,0,0,0,0,0,0,739,2147484387,0,0,0,0,0,0,0,0,0,0,0,0,0,0,0,0,0,0,0,0,0,0,0,2147484372,725,0,0,0,0,0,0,0,0,0,0,0,0,0,0,0,0,0,0,0,0,0,0,0,741,2147484389,0,0,0,0,0,0,0,0,0,0,0,0,0,0,0,0,0,0,0,0,0,0,0,0,0,0,0,0,0,0,0,0,0,0,0,0,0,0,0,0,0,0,741,2147484389,0,0,0,0,0,0,0,0,0,0,0,0,0,0,0,0,0,0,0,0,0,0,0,2147484373,0,0,0,0,0,0,0,0,0,0,0,0,0,0,0,0,0,0,0,0,0,0,0,0,743,2147484391,0,0,0,0,0,0,0,0,0,0,0,0,0,0,0,0,0,0,0,0,0,0,0,0,0,0,0,0,0,0,0,0,0,0,0,0,0,0,0,0,0,0,743,2147484391,0,0,0,0,0,0,0,0,0,0,0,0,0,0,0,0,0,0,0,0,0,0,0,0,0,0,0,0,0,0,0,0,0,0,0,0,0,0,0,0,0,0,0,0,0,0,0,0,745,2147484393,0,0,0,0,0,0,0,0,0,0,0,0,0,0,0,0,0,780,781,782,783,784,785,786,787,788,0,0,0,0,0,0,0,0,0,0,0,0,0,0,0,0,745,2147484393,0,0,0,0,0,0,0,0,0,0,0,0,0,0,0,0,0,0,0,0,0,0,0,0,0,0,0,0,0,0,0,0,0,0,0,0,0,0,0,0,0,0,0,0,0,0,0,0,747,2147484395,0,0,0,0,0,0,0,0,0,0,0,0,0,0,0,0,0,789,790,791,792,793,794,795,796,797,0,0,0,0,0,0,0,0,0,0,0,0,0,0,0,0,747,2147484395,0,0,0,0,0,0,0,0,0,0,0,0,0,0,0,0,0,0,0,0,0,0,0,0,706,0,0,0,0,0,0,0,0,0,0,0,0,0,0,0,0,0,0,0,0,0,0,0,749,2147484397,0,0,0,0,0,0,0,0,0,0,0,0,0,0,0,0,0,0,0,0,0,0,0,0,0,0,0,0,0,0,0,0,0,0,0,0,0,0,0,0,0,0,749,2147484397,0,0,0,0,0,0,0,0,0,0,0,0,0,0,0,0,0,0,0,0,0,0,0,2147484354,710,0,0,0,0,0,0,0,0,0,0,0,0,0,0,0,0,0,0,0,0,0,0,0,751,2147484399,0,0,0,0,0,0,0,0,0,0,0,0,0,0,0,0,0,0,0,0,0,0,0,0,0,0,0,0,0,0,0,0,0,0,0,0,0,0,0,0,0,0,751,2147484399,0,0,0,0,0,0,0,0,0,0,0,0,0,0,0,0,0,0,0,0,0,0,0,2147484358,714,0,0,0,0,0,0,0,0,0,0,0,0,0,0,0,0,0,0,0,0,0,0,0,0,0,0,0,0,0,0,0,0,0,0,0,0,0,0,0,0,0,0,0,0,0,0,0,0,0,0,0,0,0,0,0,0,0,0,0,0,0,0,0,0,0,0,0,0,0,0,0,0,0,0,0,0,0,0,0,0,0,0,0,0,0,0,0,0,0,0,0,0,2147484362,718,0,0,0,0,0,0,0,0,0,0,0,0,0,0,0,0,0,0,0,0,0,0,0,0,0,0,0,0,0,0,0,0,0,0,0,0,0,0,0,0,0,0,0,0,0,0,0,0,0,0,0,0,0,0,0,0,0,0,0,0,0,0,0,0,0,0,0,0,0,0,0,0,0,0,0,0,0,0,0,0,0,0,0,0,0,0,0,0,0,0,0,0,2147484366,722,0,0,0,0,0,0,0,0,0,0,0,0,0,0,0,0,0,0,0,0,0,0,0,0,0,0,0,0,0,0,0,0,0,0,0,0,0,0,0,0,0,0,0,0,0,0,0,0,0,0,0,0,0,0,0,0,0,0,0,0,0,0,0,0,0,0,0,0,0,0,0,0,0,0,0,0,0,0,0,0,0,0,0,0,0,0,0,0,0,0,0,0,2147484370,723,0,0,0,0,0,0,0,0,0,0,0,0,0,0,0,0,0,0,0,0,0,0,0,0,0,0,0,0,0,0,0,0,0,0,0,0,0,0,0,0,0,0,0,0,0,0,0,0,0,0,0,0,0,0,0,0,0,0,0,0,0,0,0,0,0,0,0,0,0,0,0,0,0,0,0,0,0,0,0,0,0,0,0,0,0,0,0,0,0,0,0,0,2147484371,724,0,0,0,0,0,0,0,0,0,0,0,0,0,0,0,0,0,0,0,0,0,0,0,0,0,0,0,0,0,0,0,0,0,0,0,0,0,0,0,0,0,0,0,0,0,0,0,0,0,0,0,0,0,0,0,0,0,0,0,0,0,0,0,0,0,0,0,0,0,0,0,0,0,0,0,0,0,0,0,0,0,0,0,0,0,0,0,0,0,0,0,0,2147484372,725,0,0,0,0,0,0,0,0,0,0,0,707,708,709,0,0,0,0,0,0,0,707,708,709,2147484375,0,0,0,0,0,0,0,0,0,0,0,0,0,0,0,0,0,0,0,0,0,0,0,0,0,0,0,0,0,0,0,0,0,0,0,0,0,0,0,0,0,0,727,707,708,709,0,0,0,0,0,0,0,707,708,709,0,0,0,0,0,0,0,0,0,0,0,2147484373,0,0,0,0,0,0,0,0,0,0,0,0,711,712,713,0,0,0,0,0,0,0,711,712,713,2147484377,0,0,0,0,0,0,0,0,0,0,0,0,0,0,0,0,0,0,0,0,0,0,0,0,0,0,0,0,0,0,0,0,0,0,0,0,0,0,0,0,0,0,729,711,712,713,0,0,0,0,0,0,0,711,712,713,0,0,0,0,0,0,0,0,0,0,0,0,0,0,0,0,0,0,0,0,0,0,0,0,715,716,717,0,0,0,0,0,0,0,715,716,717,2147484379,0,0,0,0,0,0,0,0,0,0,0,0,0,0,0,0,0,0,0,0,0,0,0,0,0,0,0,0,0,0,0,0,0,0,0,0,0,0,0,0,0,0,731,715,716,717,0,0,0,0,0,0,0,715,716,717,0,0,0,0,0,0,0,0,0,0,0,0,0,0,0,0,0,0,0,0,0,0,0,0,719,720,721,0,0,0,0,0,0,0,719,720,721,2147484381,0,0,0,0,0,0,0,0,0,0,0,0,0,0,0,0,0,0,0,0,0,0,0,0,0,0,0,0,0,0,0,0,0,0,0,0,0,0,0,0,0,0,733,719,720,721,0,0,0,0,0,0,0,719,720,721,0,0,0,0,0,0,0,0,0,0,0,0,706,0,0,0,0,0,0,0,0,0,0,0,0,0,0,0,0,0,0,0,0,0,0,0,2147484382,2147484383,0,0,0,0,0,0,0,0,0,0,0,0,0,0,0,0,0,0,0,0,0,0,0,0,0,0,0,0,0,0,0,0,0,0,0,0,0,0,0,0,0,0,735,0,0,0,0,0,0,0,0,0,0,0,0,0,0,0,0,0,0,0,0,0,0,0,0,2147484354,710,0,0,0,0,0,0,0,0,0,0,0,0,0,0,0,0,0,0,0,0,0,0,0,2147484384,2147484385,0,0,0,0,0,0,0,0,0,0,0,0,0,0,0,0,0,0,0,0,0,0,0,0,0,0,0,0,0,0,0,0,0,0,0,0,0,0,0,0,0,0,737,0,0,0,0,0,0,0,0,0,0,0,0,0,0,0,0,0,0,0,0,0,0,0,0,2147484358,714,0,0,0,0,0,0,0,0,0,0,0,0,0,0,0,0,0,0,0,0,0,0,0,2147484386,2147484387,0,0,0,0,0,0,0,0,0,0,0,0,0,0,0,0,0,0,0,0,0,0,0,0,0,0,0,0,0,0,0,0,0,0,0,0,0,0,0,0,0,0,739,0,0,0,0,0,0,0,0,0,0,0,0,0,0,0,0,0,0,0,0,0,0,0,0,2147484362,718,0,0,0,0,0,0,0,0,0,0,0,0,0,0,0,0,0,0,0,0,0,0,0,2147484388,2147484389,0,0,0,0,0,0,0,0,0,0,0,0,0,0,0,0,0,0,0,0,0,0,0,0,0,0,0,0,0,0,0,0,0,0,0,0,0,0,0,0,0,0,741,0,0,0,0,0,0,0,0,0,0,0,0,0,0,0,0,0,0,0,0,0,0,0,0,2147484366,722,0,0,0,0,0,0,0,0,0,0,0,0,0,0,0,0,0,0,0,0,0,0,0,2147484390,2147484391,0,0,0,0,0,0,0,0,0,0,0,0,0,0,0,0,0,0,0,0,0,0,0,0,0,0,0,0,0,0,0,0,0,0,0,0,0,0,0,0,0,0,743,0,0,0,0,0,0,0,0,0,0,0,0,0,0,0,0,0,0,0,0,0,0,0,0,2147484370,723,0,0,0,0,0,0,0,0,0,0,0,0,0,0,0,0,0,0,0,0,0,0,0,2147484392,2147484393,0,0,0,0,0,0,0,0,0,0,0,0,0,0,0,0,0,0,0,0,0,0,0,0,0,0,0,0,0,0,0,0,0,0,0,0,0,0,0,0,0,0,745,0,0,0,0,0,0,0,0,0,0,0,0,0,0,0,0,0,0,0,0,0,0,0,0,2147484371,724,0,0,0,0,0,0,0,0,0,0,0,0,0,0,0,0,0,0,0,0,0,0,0,2147484394,2147484395,0,0,0,0,0,0,0,0,0,0,0,0,0,0,0,0,0,0,0,0,0,0,0,0,0,0,0,0,0,0,0,0,0,0,0,0,0,0,0,0,0,0,747,0,0,0,0,0,0,0,0,0,0,0,0,0,0,0,0,0,0,0,0,0,0,0,0,2147484372,725,0,0,0,0,0,0,0,0,0,0,0,0,0,0,0,0,0,0,0,0,0,0,0,2147484396,2147484397,0,0,0,0,0,0,0,0,0,0,0,0,0,0,0,0,0,0,0,0,0,0,0,0,0,0,0,0,0,0,0,0,0,0,0,0,0,0,0,0,0,0,749,0,0,0,0,0,0,0,0,0,0,0,0,0,0,0,0,0,0,0,0,0,0,0,0,2147484373,798,0,0,0,0,0,0,0,0,0,0,0,0,0,0,0,0,0,0,0,0,0,0,0,2147484398,2147484399,0,0,0,0,0,0,0,0,0,0,0,0,0,0,0,0,0,0,0,0,0,0,0,0,0,0,0,0,0,0,0,0,0,0,0,0,0,0,0,0,0,0,751,0,0,0,0,0,0,0,0,0,0,0,0,0,0,0,0,0,0,0,0,0,0,0,0,2147484446,0,0,0,0,0,0,0,0,0,0,0,0,0,0,0,0,0,0,0,0,0,0,0,0,0,0,0,0,0,0,0,0,0,0,0,0,0,0,0,0,0,0,0,0,0,0,0,0,0,0,0,0,0,0,0,0,0,0,0,0,0,0,0,0,0,0,0,0,0,0,0,0,0,0,0,0,0,0,0,0,0,0,0,0,0,0,0,0,0,0,0,0,0,0,0,0,0,0,0,0,0,0,0,0,0,0,0,0,0,0,0,0,0,0,0,0,0,0,0,0,0,0,0,0,0,0,0,0,0,0,0,0,0,0,0,0,0,0,0,0,0,0,0,0,0,0,0,0,0,0,0,0,0,0,0,0,0,0,0,0,0,0,0,0,0,0,0,0,0,0,0,0,0,0,0,0,0,0,0,0,0,0,0,0,0,0,0,0,0,0,0,0,0,0,0,0,0,0,0,0,0,0,0,0,0,0,0,0,0,0,0,0,0,0,0,0,0,0,0,0,0,0,0,0,0,0,0,0,0,0,0,0,0,0,0,0,0,0,0,0,0,0,0,0,0,0,0,0,0,0,0,0,0,0,0,0,0,0,0,0,0,0,0,0,0,0,0,0,0,0,0,0,0,0,0,0,0,0,0,0,0,0,0,0,0,0,0,0,0,0,0,0,0,0,0,0,0,0,0,0,0,0,0,0,0,0,0,0,0,0,0,0,0,0,0,0,0,0,0,0,0,0,0,0,0,0,0,0,0,0,0,0,0,0,0,0,0,0,0,0,0,0,0,0,0,0,0,0,0,0,0,0,0,0,0,0,0,0,0,0,0,0,0,0,0,0,0,0,0,0,0,0,0,0,0,0,0,0,0,0,0,0,0,0,0,0,0,0,0,0,0,0,0,0,0,0,0,0,0,0,0,0,0,0,0,0,0,0,0,0,0,0,0,0,0,0,0,0,0,0,0,0,0,0,0,0,0,0,0,0,0,0,0,0,0,0,0,0,0,0,0,0,0,0,0,0,0,0,0,0,0,0,0,0,0,0,0,0,0,0,0,0,0,0,0,0,0,0,0,0,708,709,0,0,0,0,0,0,0,707,708,709,0,0,0,0,0,0,0,0,0,0,2147484354,706,0,0,0,0,0,0,0,0,0,0,707,708,709,0,0,0,0,0,0,0,707,708,709,707,708,709,0,0,0,0,0,0,0,707,708,709,0,0,0,0,0,0,0,0,0,0,2147484354,706,0,0,0,0,0,0,0,0,0,0,707,708,709,0,0,0,0,0,0,0,707,708,712,713,0,0,0,0,0,0,0,711,712,713,0,0,0,0,0,0,0,0,0,0,2147484358,710,0,0,0,0,0,0,0,0,0,0,711,712,713,0,0,0,0,0,0,0,711,712,713,711,712,713,0,0,0,0,0,0,0,711,712,713,0,0,0,0,0,0,0,0,0,0,2147484358,710,0,0,0,0,0,0,0,0,0,0,711,712,713,0,0,0,0,0,0,0,711,712,716,717,0,0,0,0,0,0,0,715,716,717,0,0,0,0,0,0,0,0,0,0,2147484362,714,0,0,0,0,0,0,0,0,0,0,715,716,717,0,0,0,0,0,0,0,715,716,717,715,716,717,0,0,0,0,0,0,0,715,716,717,0,0,0,0,0,0,0,0,0,0,2147484362,714,0,0,0,0,0,0,0,0,0,0,715,716,717,0,0,0,0,0,0,0,715,716,720,721,0,0,0,0,0,0,0,719,720,721,0,0,0,0,0,0,0,0,0,0,2147484366,718,0,0,0,0,0,0,0,0,0,0,719,720,721,0,0,0,0,0,0,0,719,720,721,719,720,721,0,0,0,0,0,0,0,719,720,721,0,0,0,0,0,0,0,0,0,0,2147484366,718,0,0,0,0,0,0,0,0,0,0,719,720,721,0,0,0,0,0,0,0,719,720,0,0,0,0,0,0,0,0,0,0,0,0,0,0,0,0,0,0,0,0,0,0,2147484370,722,0,0,0,0,0,0,0,0,0,0,0,0,0,0,0,0,0,0,0,0,0,0,0,0,0,0,0,0,0,0,0,0,0,0,0,0,0,0,0,0,0,0,0,0,0,0,2147484370,722,0,0,0,0,0,0,0,0,0,0,0,0,0,0,0,0,0,0,0,0,0,0,0,0,0,0,0,0,0,0,0,0,0,0,0,0,0,0,0,0,0,0,0,0,2147484371,723,0,0,0,0,0,0,0,0,0,0,0,0,0,0,0,0,0,0,0,0,0,0,0,0,0,0,0,0,0,0,0,0,0,0,0,0,0,0,0,0,0,0,0,0,0,0,2147484371,723,0,0,0,0,0,0,0,0,0,0,0,0,0,0,0,0,0,0,0,0,0,0,0,0,0,0,0,0,0,0,0,0,0,0,0,0,0,0,0,0,0,0,0,0,2147484372,724,0,0,0,0,0,0,0,0,0,0,0,0,0,0,0,0,0,0,0,0,0,0,0,0,0,0,0,0,0,0,0,0,0,0,0,0,0,0,0,0,0,0,0,0,0,0,2147484372,724,0,0,0,0,0,0,0,0,0,0,0,0,0,0,0,0,0,0,0,0,0,0,0,0,0,0,0,0,0,0,0,0,0,0,0,0,0,0,0,0,0,0,0,0,2147484373,725,0,0,0,0,0,0,0,0,0,0,0,0,0,0,0,0,0,0,0,0,0,0,0,0,0,0,0,0,0,0,0,0,0,0,0,0,0,0,0,0,0,0,0,0,0,0,2147484373,725,0,0,0,0,0,0,0,0,0,0,0,0,0,0,0,0,0,0,0,0,0,0,0,0,0,0,0,0,0,0,0,0,0,0,0,0,0,0,0,0,0,0,0,0,0,0,0,0,0,0,0,0,0,0,0,0,0,0,0,0,0,0,0,0,0,0,0,0,0,0,0,0,0,0,0,0,0,0,0,0,0,0,0,0,0,0,0,0,0,0,0,0,0,0,0,0,0,0,0,0,0,0,0,0,0,0,0,0,0,0,0,0,0,0,0,0,0,0,0,0,0,0,0,0,0,0,0,0,0,0,0,0,0,0,0,0,0,0,0,0,0,0,0,0,0,0,0,0,0,0,0,0,0,0,0,0,0,0,0,0,0,0,0,0,0,0,0,0,0,0,0,0,0,0,0,0,0,0,0,0,0,0,0,0,0,0,0,0,0,0,0,0,0,0,0,0,0,0,0,0,0,0,0,0,0,0,0,0,0,0,0,0,0,0,0,0,0,0,0,0,0,0,0,0,0,0,0,0,0,0,0,0,0,0,0,0,0,0,0,0,0,0,0,0,0,0,0,0,0,0,0,0,0,0,0,0,0,0,0,0,0,0,0,0,0,0,0,0,0,0,0,0,0,0,0,0,0,0,0,0,0,0,0,0,0,0,0,0,0,0,0,0,0,0,0,0,0,0,0,0,0,0,0,0,0,0,0,0,0,0,0,0,0,0,0,0,0,0,0,0,0,0,0,0,0,0,0,0,0,0,0,0,0,0,0,0,0,0,0,0,0,0,0,0,0,0,0,0,0,0,0,0,0,0,0,0,0,0,0,0,0,0,0,0,0,0,0,0,0,0,0,0,0,0,0,0,0,0,0,0,0,0,0,0,0,0,0,0,0,0,0,0,0,0,0,0,0,0],"height":83,"id":1,"name":"furniture","opacity":1,"visible":true,"width":94,"x":0,"y":0},{"type":"objectgroup","draworder":"topdown","id":2,"name":"floorLayer","objects":[],"opacity":1,"visible":true,"x":0,"y":0},{"type":"tilelayer","data":[0,0,0,0,0,0,0,0,0,0,0,0,0,0,0,0,0,0,0,0,0,0,0,0,0,0,0,0,0,0,0,0,0,0,0,0,0,0,0,0,0,0,0,0,0,0,0,0,0,0,0,0,0,0,0,0,0,0,0,0,0,0,0,0,0,0,0,0,0,0,0,0,0,0,0,0,0,0,0,0,0,0,0,0,0,0,0,0,0,0,0,0,0,0,0,0,0,0,0,0,0,0,0,0,0,0,0,0,0,0,0,0,0,0,0,0,0,0,0,0,0,0,0,0,0,0,0,0,0,0,0,0,0,0,0,0,0,0,0,0,0,0,0,0,0,0,0,0,0,0,0,0,0,0,0,0,0,0,0,0,0,0,0,0,0,0,0,0,0,0,0,0,0,0,0,0,0,0,0,0,0,0,0,0,0,0,0,0,0,0,0,0,0,0,0,0,0,0,0,0,0,0,0,0,0,0,0,0,0,0,0,0,0,0,0,0,0,0,0,0,0,0,0,0,0,0,0,0,0,0,0,0,0,0,0,0,0,0,0,0,0,0,0,0,0,0,0,0,0,0,0,0,0,0,0,0,0,0,0,0,0,0,0,0,0,0,0,0,0,0,0,0,0,0,0,0,0,0,0,0,0,0,0,0,0,0,0,0,0,0,0,0,0,0,0,0,0,0,0,0,0,0,0,0,0,0,0,0,0,0,0,0,0,0,0,0,0,0,0,0,0,0,0,0,0,0,0,0,0,0,0,0,0,0,0,0,0,0,0,0,0,0,0,0,0,0,0,0,0,0,0,0,0,0,0,0,0,0,0,0,0,0,0,0,0,0,0,0,0,0,0,0,0,0,0,0,0,0,0,0,0,0,0,0,0,0,0,0,0,0,0,0,0,0,0,0,0,0,0,0,0,0,0,0,0,0,0,0,0,0,0,0,0,0,0,0,0,0,0,0,0,0,0,0,0,0,0,0,0,0,0,0,0,0,0,0,0,0,0,0,0,0,0,0,0,0,0,0,0,0,0,0,0,0,0,0,0,0,0,0,0,0,0,0,0,0,0,0,0,0,0,0,0,0,0,0,0,0,0,0,0,0,0,0,0,0,0,0,0,0,0,0,0,0,0,0,0,0,0,0,0,0,0,0,0,0,0,0,0,0,0,0,0,0,0,0,0,0,0,0,0,0,0,0,0,0,0,0,0,0,0,0,0,0,0,0,0,0,0,0,0,0,0,0,0,0,0,0,0,0,0,0,0,0,0,0,0,0,0,0,0,0,0,0,0,0,0,0,0,0,0,0,0,0,0,0,0,0,0,0,0,0,0,0,0,0,0,0,0,0,0,0,0,0,0,0,0,0,0,0,0,0,0,0,0,0,0,0,0,0,0,0,0,0,0,0,0,0,0,0,0,0,0,0,0,0,0,0,0,0,0,0,0,0,0,0,0,0,0,0,0,0,0,0,0,0,0,0,0,0,0,0,0,0,0,0,0,0,0,0,0,0,0,0,0,0,0,0,0,0,0,0,0,0,0,0,0,0,0,0,0,0,0,0,0,0,0,0,0,0,0,0,0,0,0,0,0,0,0,0,0,0,0,0,0,0,0,0,0,0,0,0,0,0,0,0,0,0,0,0,0,0,0,0,0,0,0,0,0,0,0,0,0,0,0,0,0,0,0,0,0,0,0,0,0,0,0,0,0,0,0,0,0,0,0,0,0,0,0,0,0,0,0,0,0,0,0,0,0,0,0,0,0,0,0,0,0,0,0,0,0,0,0,0,0,0,0,0,0,0,0,0,0,0,0,0,0,0,0,0,0,0,0,0,0,0,0,0,0,0,0,0,0,0,0,0,0,0,0,0,0,0,0,0,0,0,0,0,0,0,0,0,0,0,0,0,0,0,0,0,0,0,0,0,0,0,0,0,0,0,0,0,0,0,0,0,0,0,0,0,0,0,0,0,0,0,0,0,0,0,0,0,0,0,0,0,0,0,0,0,0,0,0,0,0,0,0,0,0,0,0,0,0,0,0,0,0,0,0,0,0,0,0,0,0,0,0,0,0,0,0,0,0,0,0,0,0,0,0,0,0,0,0,0,0,0,0,0,0,0,0,0,0,0,0,0,0,0,0,0,0,0,0,0,0,0,0,0,0,0,0,0,0,0,0,0,0,0,0,0,0,0,0,0,0,0,0,0,0,0,0,0,0,0,0,0,0,0,0,0,0,0,0,0,0,0,0,0,0,0,0,0,0,0,0,0,0,0,0,0,0,0,0,0,0,0,0,0,0,0,0,0,0,0,0,0,0,0,0,0,0,0,0,0,0,0,0,0,0,0,0,0,0,0,0,0,0,0,0,0,0,0,0,0,0,0,0,0,0,0,0,0,0,0,0,0,0,0,0,0,0,0,0,0,0,0,0,0,0,0,0,0,0,0,0,0,0,0,0,0,0,0,0,0,0,0,0,0,0,0,0,0,0,0,0,0,0,0,0,0,0,0,0,0,0,0,0,0,0,0,0,0,0,0,0,0,0,0,0,0,0,0,0,0,0,0,0,0,0,0,0,0,0,0,0,0,0,0,0,0,0,0,0,0,0,0,0,0,0,0,0,0,0,0,0,0,0,0,0,0,0,0,0,0,0,0,0,0,0,0,0,0,0,0,0,0,0,0,0,0,0,0,0,0,0,0,0,0,0,0,0,0,0,0,0,0,0,0,0,0,0,0,0,0,0,0,0,0,0,0,0,0,0,0,0,0,0,0,0,0,0,0,0,0,0,0,0,0,0,0,0,0,0,0,0,0,0,0,0,0,0,0,0,0,0,0,0,0,0,0,0,0,0,0,0,0,0,0,0,0,0,0,0,0,0,0,0,0,0,0,0,0,0,0,0,0,0,0,0,0,0,0,0,0,0,0,0,0,0,0,0,0,0,0,0,0,0,0,0,0,0,0,0,0,0,0,0,0,0,0,0,0,0,0,0,0,0,0,0,0,0,0,0,0,0,0,0,0,0,0,0,0,0,0,0,0,0,0,799,800,801,802,803,804,805,806,807,808,809,810,811,2147484459,2147484458,2147484457,2147484456,2147484455,2147484454,2147484453,2147484452,2147484451,2147484450,2147484449,2147484448,2147484459,2147484458,2147484457,2147484456,2147484455,2147484454,2147484453,2147484452,2147484451,2147484450,2147484449,2147484448,2147484459,2147484458,2147484457,2147484456,2147484455,2147484454,2147484453,2147484452,2147484451,2147484450,2147484449,2147484448,0,0,0,0,0,0,0,0,0,0,0,0,0,0,0,0,0,0,0,0,0,0,0,0,0,0,0,0,0,0,0,0,0,0,0,0,0,0,0,0,0,0,0,0,0,0,0,0,0,0,0,0,0,0,0,0,0,0,0,0,0,0,0,0,0,0,0,0,0,0,0,0,0,0,0,0,0,0,0,0,0,0,0,0,0,0,0,0,0,0,0,0,0,0,0,0,0,0,0,0,0,0,0,0,0,0,0,0,0,0,0,0,0,0,0,0,0,0,0,0,0,0,0,0,0,0,0,0,0,0,0,0,0,0,0,0,0,0,0,0,0,0,0,0,0,0,0,0,0,0,0,0,0,0,0,0,0,0,0,0,0,0,0,0,0,0,0,0,0,0,0,0,0,0,0,0,0,0,0,0,0,0,0,0,0,0,0,0,0,0,0,0,0,0,0,0,0,0,0,0,0,0,0,0,0,0,0,0,0,0,0,0,0,0,0,0,0,0,0,0,0,0,0,0,0,0,0,0,0,0,0,0,0,0,0,0,0,0,0,0,0,0,0,0,0,0,0,0,0,0,0,0,0,0,0,0,0,0,0,0,0,0,0,0,0,0,0,0,0,0,0,0,0,0,0,0,0,0,0,0,0,0,0,0,0,0,0,0,0,0,0,0,0,0,0,0,0,0,0,0,0,0,0,0,0,0,0,0,0,0,0,0,0,0,0,0,0,0,0,0,0,0,0,0,0,0,0,0,0,0,0,0,0,0,0,0,0,0,0,0,0,0,0,0,0,0,0,0,0,0,0,0,0,0,0,0,0,0,0,0,0,0,0,0,0,0,0,0,0,0,0,0,0,0,0,0,0,0,0,0,0,0,0,0,0,0,0,0,0,0,0,0,0,0,0,0,0,0,0,0,0,0,0,0,0,0,0,0,0,0,0,0,0,0,0,0,0,0,0,0,0,0,0,0,0,0,0,0,0,0,0,0,0,0,0,0,0,0,0,0,0,0,0,0,0,0,0,0,0,0,0,0,0,0,0,0,0,0,0,0,0,0,0,0,0,0,0,0,0,0,0,0,0,0,0,0,0,0,0,0,0,0,0,0,0,0,0,0,0,0,0,0,0,0,0,0,0,0,0,0,0,0,0,0,0,0,0,0,0,0,0,0,0,0,0,0,0,0,0,0,0,0,0,0,0,0,0,0,0,0,0,0,0,0,0,0,0,0,0,0,0,0,0,0,0,0,0,0,0,0,0,0,0,0,0,0,0,0,0,0,0,0,0,0,0,0,0,0,0,0,0,0,0,0,0,0,0,0,0,0,0,0,0,0,0,0,0,0,0,0,0,0,0,0,0,0,0,0,0,0,0,0,0,0,0,0,0,0,0,0,0,0,0,0,0,0,0,0,0,0,0,0,0,0,0,0,0,0,0,0,0,0,0,0,0,0,0,0,0,0,0,0,0,0,0,0,0,0,0,0,0,0,0,0,0,0,0,0,0,0,0,0,0,0,0,0,0,0,0,0,0,0,0,0,0,0,0,0,0,0,0,0,0,0,0,0,0,0,0,0,0,0,0,0,0,0,0,0,0,0,0,0,0,0,0,0,0,0,0,0,0,0,0,0,0,0,0,0,0,0,0,0,0,0,0,0,0,0,0,0,0,0,0,0,0,0,0,0,0,0,0,0,0,0,0,0,0,0,0,0,0,0,0,0,0,0,0,0,0,0,0,0,0,0,0,0,0,0,0,0,0,0,0,0,0,0,0,0,0,0,0,0,0,0,0,0,0,0,0,0,0,0,0,0,0,0,0,0,0,0,0,0,0,0,0,0,0,0,0,0,0,0,0,0,0,0,0,0,0,0,0,0,0,0,0,0,0,0,0,0,0,0,0,0,0,0,0,0,0,0,0,0,0,0,0,0,0,0,0,0,0,0,0,0,0,0,0,0,0,0,0,0,0,0,0,0,0,0,0,0,0,0,0,0,0,0,0,0,0,0,0,0,0,0,0,0,0,0,0,0,0,0,0,0,0,0,0,0,0,0,0,0,0,0,0,0,0,0,0,0,0,0,0,0,0,0,0,0,0,0,0,0,0,0,0,0,0,0,0,0,0,0,0,0,0,0,0,0,0,0,0,0,0,0,0,0,0,0,0,0,0,0,0,0,0,0,0,0,0,0,0,0,0,0,0,0,0,0,0,0,0,0,0,0,0,0,0,0,0,0,0,0,0,0,0,0,0,0,0,0,0,0,0,0,0,0,0,0,0,0,0,0,0,0,0,0,0,0,0,0,0,0,0,0,0,0,0,0,0,0,0,0,0,0,0,0,0,0,0,0,0,0,0,0,0,0,0,0,0,0,0,0,0,0,0,0,0,0,0,0,0,0,0,0,0,0,0,0,0,0,0,0,0,0,0,0,0,0,0,0,0,0,0,0,0,0,0,0,0,0,0,0,0,0,0,0,0,0,0,0,0,0,0,0,0,0,0,0,0,0,0,0,0,0,0,0,0,0,0,0,0,0,0,0,0,0,0,0,0,0,0,0,0,0,0,0,0,0,0,0,0,0,0,0,0,0,0,0,0,0,0,0,0,0,0,0,0,0,0,0,0,0,0,0,0,0,0,0,0,0,0,0,0,0,0,0,0,0,0,0,0,0,0,0,0,0,0,0,0,0,0,0,0,0,0,0,0,0,0,0,0,0,0,0,0,0,0,0,0,0,0,0,0,0,0,0,0,0,0,0,0,0,0,0,0,0,0,0,0,0,0,0,0,0,0,0,0,0,0,0,0,0,0,0,0,0,0,0,0,0,0,0,0,0,0,0,0,0,0,0,0,0,0,0,0,0,0,0,0,0,0,0,0,0,0,0,0,0,0,0,0,0,0,0,0,0,0,0,0,0,0,0,0,0,0,0,0,0,0,0,0,0,0,0,0,0,0,0,0,0,0,0,0,0,0,0,0,0,0,0,0,0,0,0,0,0,0,0,0,0,0,0,0,0,0,0,0,0,0,0,0,0,0,0,0,0,0,0,0,0,0,0,0,0,0,0,0,0,0,0,0,0,0,0,0,0,0,0,0,0,0,0,0,0,0,0,0,0,0,0,0,0,0,0,0,0,0,0,0,0,0,0,0,0,0,0,0,0,0,0,0,0,0,0,0,0,0,0,0,0,0,0,0,0,0,0,0,0,0,0,0,0,0,0,0,0,0,0,0,0,0,0,0,0,0,0,0,0,0,0,0,0,0,0,0,0,0,0,0,0,0,0,0,0,0,0,0,0,0,0,0,0,0,0,0,0,0,0,0,0,0,0,0,0,0,0,0,0,0,0,0,0,0,0,0,0,0,0,0,0,0,0,0,0,0,0,0,0,0,0,0,0,0,0,0,0,0,0,0,0,0,0,0,0,0,0,0,0,0,0,0,0,0,0,0,0,0,0,0,0,0,0,0,0,0,0,0,0,0,0,0,0,0,0,0,0,0,0,0,0,0,0,0,0,0,0,0,0,0,0,0,0,0,0,0,0,0,0,0,0,0,0,0,0,0,0,0,0,0,0,0,0,0,0,0,0,0,0,0,0,0,0,0,0,0,0,0,0,0,0,0,0,0,0,0,0,0,0,0,0,0,0,0,0,0,0,0,0,0,0,0,0,0,0,0,0,0,0,0,0,0,0,0,0,0,0,0,0,0,0,0,0,0,0,800,801,802,803,804,805,806,807,808,809,810,811,800,801,802,803,804,805,806,807,808,809,810,811,812,0,0,0,813,814,815,816,817,818,819,820,821,822,823,824,0,0,0,799,800,801,802,803,804,805,806,807,808,809,810,811,2147484459,2147484458,2147484457,2147484456,2147484455,2147484454,2147484453,2147484452,2147484451,2147484450,2147484449,2147484448,0,0,0,0,0,0,0,0,0,0,0,0,0,0,0,0,0,0,0,0,0,0,0,0,0,0,0,0,0,0,0,0,0,0,0,0,0,0,0,0,0,0,0,0,0,0,0,0,0,0,0,0,0,0,825,826,827,828,829,830,831,832,833,834,835,836,0,0,0,0,0,0,0,0,0,0,0,0,0,0,0,0,0,0,0,0,0,0,0,0,0,0,0,0,0,0,0,0,0,0,0,0,0,0,0,0,0,0,0,0,0,0,0,0,0,0,0,0,0,0,0,0,0,0,0,0,0,0,0,0,0,0,0,0,0,0,0,0,0,0,0,0,0,0,0,0,0,0,837,838,839,0,0,0,0,0,0,840,841,842,0,0,0,0,0,0,0,0,0,0,0,0,0,0,0,0,0,0,0,0,0,0,0,0,0,0,0,0,0,0,0,0,0,0,0,0,0,0,0,0,0,0,0,0,0,0,0,0,0,0,0,0,0,0,0,0,0,0,0,0,0,0,0,0,0,0,0,0,0,0,0,0,0,0,0,0,0,0,0,0,0,0,843,844,845,0,0,0,0,0,0,846,847,848,0,0,0,0,0,0,0,0,0,0,0,0,0,0,0,0,0,0,0,0,0,0,0,0,0,0,0,0,0,0,0,0,0,0,0,0,0,0,0,0,0,0,0,0,0,0,0,0,0,0,0,0,0,0,0,0,0,0,0,0,0,0,0,0,0,0,0,0,0,0,0,0,0,0,0,0,0,0,0,0,0,0,849,850,0,0,0,0,0,0,0,0,851,852,0,0,0,0,0,0,0,0,0,0,0,0,0,0,0,0,0,0,0,0,0,0,0,0,0,0,0,0,0,0,0,0,0,0,0,0,0,0,0,0,0,0,0,0,0,0,0,0,0,0,0,0,0,0,0,0,0,0,0,0,0,0,0,0,0,0,0,0,0,0,0,0,0,0,0,0,0,0,0,0,0,0,853,854,0,0,0,0,0,0,0,0,855,856,0,0,0,0,0,0,0,0,0,0,0,0,0,0,0,0,0,0,0,0,0,0,0,0,0,0,0,0,0,0,0,0,0,0,0,0,0,0,0,0,0,0,0,0,0,0,0,0,0,0,0,0,0,0,0,0,0,0,0,0,0,0,0,0,0,0,0,0,0,0,0,0,0,0,0,0,0,0,0,0,0,0,857,858,859,860,861,862,863,864,865,866,867,868,0,0,0,0,0,0,0,0,0,0,0,0,0,0,0,0,0,0,0,0,0,0,0,0,0,0,0,0,0,0,0,0,0,0,0,0,0,0,0,0,0,0,0,0,0,0,0,0,0,0,0,0,0,0,0,0,0,0,0,0,0,0,0,0,0,0,0,0,0,0,0,0,0,0,0,0,0,0,0,0,0,0,869,870,871,872,873,874,875,876,877,878,879,880,0,0,0,0,0,0,0,0,0,0,0,0,0,0,0,0,0,0,0,0,0,0,0,0,0,0,0,0,0,0,0,0,0,0,0,0,0,0,0,0,0,0,0,0,0,0,0,0,0,0,0,0,0,0,0,0,0,0,0,0,0,0,0,0,0,0,0,0,0,0,0,0,0,0,0,0,0,0,0,0,0,0,881,882,883,884,885,886,887,888,889,890,891,892,0,0,0,0,0,0,0,0,0,0,0,0,0,0,0,0,0,0,0,0,0,0,0,0,0,0,0,0,0,0,0,0,0,0,0,0,0,0,0,0,0,0,0,0,0,0,0,0,0,0,0,0,0,0,0,0,0,0,0,0,0,0,0,0,0,0,0,0,0,0,0,0,0,0,0,0,0,0,0,0,0,0,893,894,895,896,897,898,899,900,901,902,903,904,0,0,0,0,0,0,0,0,0,0,0,0,0,0,0,0,0,0,0,0,0,0,0,0,0,0,0,0,0,0,0,0,0,0,0,0,0,0,0,0,0,0,0,0,0,0,0,0,0,0,0,0,0,0,0,0,0,0,0,0,0,0,0,0,0,0,0,0,0,0,0,0,0,0,0,0,0,0,0,0,0,0,905,906,907,908,909,910,911,912,913,914,915,916,0,0,0,0,0,0,0,0,0,0,0,0,0,0,0,0,0,0,0,0,0,0,0,0,0,0,0,0,0,0,0,0,0,0,0,0,0,0,0,0,0,0,0,0,0,0,0,0,0,0,0,0,0,0,0,0,0,0,0,0,0,0,0,0,0,0,0,0,0,0,0,0,0,0,0,0,0,0,0,0,0,0,917,918,919,920,921,922,923,924,925,926,927,928,0,0,0,0,0,0,0,0,0,0,0,0,0,0,0,0,0,0,0,0,0,0,0,0,0,0,0,0,0,0,0,0,0,0,0,0,0,0,0,0,0,0,0,0,0,0,0,0,0,0,0,0,0,0,0,0,0,0,0,0,0,0,0,0,0,0,0,0,0,0,0,0,0,0,0,0,0,0,0,0,0,0,929,930,0,0,0,0,0,0,0,0,0,931,0,0,0,0,0,0,0,0,0,0,0,0,0,0,0,0,0,0,0,0,0,0,0,0,0,0,0,0,0,0,0,0,0,0,0,0,0,0,0,0,0,0,0,0,0,0,0,0,0,0,0,0,0,0,0,0,0,0,0,0,0,0,0,0,0,0,0,0,0,0,0,0,0,0,0,0,0,0,0,0,0,0,932,933,0,0,0,0,0,0,0,0,0,934,0,0,0,0,0,0,0,0,0,0,0,0,0,0,0,0,0,0,0,0,0,0,0,0,0,0,0,0,0,0,0,0,0,0,0,0,0,0,0,0,0,0,0,0,0,0,0,0,0,0,0,0,0,0,0,0,0,0,0,0,0,0,0,0,0,0,0,0,0,0,0,0,0,0,0,0,0,0,0,0,0,0,935,936,0,0,0,0,0,0,0,0,0,937,0,0,0,0,0,0,0,0,0,0,0,0,0,0,0,0,0,0,0,0,0,0,0,0,0,0,0,0,0,0,0,0,0,0,0,0,0,0,0,0,0,0,0,0,0,0,0,0,0,0,0,0,0,0,0,0,0,0,0,0,0,0,0,0,0,0,0,0,0,0,0,0,0,0,0,0,0,0,0,0,0,0,935,936,0,0,0,0,0,0,0,0,938,937,0,0,0,0,0,0,0,0,0,0,0,0,0,0,0,0,0,0,0,0,0,0,0,0,0,0,0,0,0,0,0,0,0,0,0,0,0,0,0,0,0,0,0,0,0,0,0,0,0,0,0,0,0,0,0,0,0,0,0,0,0,0,0,0,0,0,0,0,0,0,0,0,0,0,0,0,0,0,0,0,0,0,0,0,0,0,0,0,0,0,0,0,0,0,0,0,0,0,0,0,0,0,0,0,0,0,0,0,0,0,0,0,0,0,0,0,0,0,0,0,0,0,0,0,0,0,0,0,0,0,0,0,0,0,0,0,0,0,0,0,0,0,0,0,0,0,0,0,939,940,941,942,943,944,945,946,947,948,949,0,0,0,0,0,0,0,0,0,0,0,0,0,0,0,0,0,0,0,0,0,0,0,0,0,0,0,0,0,0,0,0,0,0,0,0,0,0,0,0,0,0,0,0,0,700,939,940,941,942,943,944,945,946,947,948,949,950,0,0,0,0,0,0,0,0,0,0,0,0,0,0,0,0,0,0,0,0,0,0,0,0,0,951,952,953,954,955,956,957,958,959,960,961,799,800,801,802,803,804,805,806,807,808,809,810,811,812,0,0,0,0,0,0,0,0,0,0,0,0,0,0,0,0,0,0,799,800,801,802,803,804,805,806,807,808,809,810,811,962,951,952,953,954,955,956,957,958,959,960,961,963,0,0,0,0,0,0,0,0,0,0,0,0,0,0,0,0,0,0,0,0,0,0,0,0,0,0,0,0,0,0,0,0,0,0,0,0,0,0,0,0,0,0,0,0,0,0,0,0,0,0,0,0,0,0,0,0,0,0,0,0,0,0,0,0,0,0,0,0,0,0,0,0,0,0,0,0,0,0,0,0,0,0,0,0,0,0,0,0,0,0,0,0,0,0,0,0,0,0,0,0,0,0,0,0,0,0,0,0,0,0,0,0,0,0,0,0,0,0,0,0,0,0,0,0,0,0,0,0,0,0,0,0,0,0,0,0,0,0,0,0,0,0,0,0,0,0,0,0,0,0,0,0,0,0,0,0,0,0,0,0,0,0,0,0,0,0,0,0,0,0,0,0,0,0,0,0,0,0,0,0,0,0,0,0,0,0,0,0,0,0,0,0,0,0,0,0,0,0,0,0,0,0,0,0,0,0,0,0,0,0,0,0,0,0,0,0,0,0,0,0,0,0,0,0,0,0,0,0,0,0,0,0,0,0,0,0,0,0,0,0,0,0,0,0,0,0,0,0,0,0,0,0,0,0,0,0,0,0,0,0,0,0,0,0,0,0,0,0,0,0,0,0,0,0,0,0,0,0,0,0,0,0,0,0,0,0,0,0,0,0,0,0,0,0,694,693,692,691,690,689,688,687,686,685,0,0,0,0,0,0,0,0,0,0,0,0,0,0,0,0,0,0,0,0,0,0,0,0,0,0,0,0,0,0,0,0,0,0,0,0,0,0,0,0,0,0,0,0,0,0,0,0,0,0,0,0,0,0,0,0,0,0,0,0,0,0,0,0,0,0,0,0,0,0,0,0,0,0,0,0,0,0,0,0,0,0,0,0,0,0,0,0,0,0,0,0,0,0,0,0,0,0,0,0,0,0,0,0,0,0,0,0,0,0,0,0,0,0,0,0,0,0,0,0,0,0,0,0,0,0,0,0,0,0,0,0,0,0,0,0,0,0,0,0,0,0,0,0,0,0,0,0,0,0,0,0,0,0,0,0,0,0,0,0,0,0,0,0,0,0,0,0,0,0,0,0,0,0,0,0,0,0,0,0,0,0,0,0,0,0,0,0,0,0,0,0,0,0,0,0,0,0,0,0,0,0,0,0,0,0,0,0,0,0,0,0,0,0,0,0,0,0,0,0,0,0,0,0,0,0,0,0,0,0,0,0,0,0,0,0,0,0,0,0,0,0,0,0,0,0,0,0,0,0,0,0,0,0,0,0,0,0,0,0,0,0,0,0,0,0,0,0,0,0,0,0,0,0,0,0,0,0,0,0,0,0,0,0,0,0,0,0,0,0,0,0,0,0,0,0,0,0,0,0,0,0,0,0,0,0,0,0,0,0,0,0,0,0,0,0,0,0,0,0,0,0,0,0,0,0,0,0,0,0,0,0,0,0,0,0,0,0,0,0,0,0,0,0,0,0,0,0,0,0,0,0,0,0,0,0,0,0,0,0,0,0,0,0,0,0,0,0,0,0,0,0,0,0,0,0,0,0,0,0,0,0,0,0,0,0,0,0,0,0,0,0,0,0,0,0,0,0,0,0,0,0,0,0,0,0,0,0,0,0,0,0,0,0,0,0,0,0,0,0,0,0,0,0,0,0,0,0,0,0,0,0,0,0,0,0,0,0,0,0,0,0,0,0,0,0,0,0,0,0,0,0,0,0,0,0,0,0,0,0,0,0,0,0,0,0,0,0,0,0,0,0,0,0,0,0,0,0,0,0,0,0,0,0,0,0,0,0,0,0,0,0,0,0,0,0,0,0,0,0,0,0,0,0,0,0,0,0,0,0,0,0,0,0,0,0,0,0,0,0,0,0,0,0,0,0,0,0,0,0,0,0,0,0,0,0,0,0,0,0,0,0,0,0,0,0,0,0,0,0,0,0,0,0,0,0,0,0,0,0,0,0,0,0,0,0,0,0,0,0,0,0,0,0,0,0,0,0,0,0,0,0,0,0,0,0,0,0,0,0,0,0,0,0,0,0,0,0,0,0,0,0,0,0,0,0,0,0,0,0,0,0,0,0,0,0,0,0,0,0,0,0,0,0,0,0,0,0,0,0,0,0,0,0,0,0,0,0,0,0,0,0,0,0,0,0,0,0,0,0,0,0,0,0,0,0,0,0,0,0,0,0,0,0,0,0,0,0,0,0,0,0,0,0,0,0,0,0,0,0,0,0,0,0,0,0,0,0,0,0,0,0,0,0,0,0,0,0,0,0,0,0,0,0,0,0,0,0,0,0,0,0,0,0,0,0,0,0,0,0,0,0,0,0,0,0,0,0,0,0,0,0,0,0,0,0,0,0,0,0,0,0,0,0,0,0,0,0,0,0,0,0,0,0,0,0,0,0,0,0,0,0,0,0,0,0,0,0,0,0,0,0,0,0,0,0,0,0,0,0,0,0,0,0,0,0,0,0,0,0,0,0,0,0,0,0,0,0,0,0,0,0,0,0,0,0,0,0,0,0,0,0,0,0,0,0,0,0,0,0,0,0,0,0,0,0,0,0,0,0,0,0,0,0,0,0,0,0,0,0,0,0,0,0,0,0,0,0,0,0,0,0,0,0,0,0,0,0,0,0,0,0,0,0,0,0,0,0,0,0,0,0,0,0,0,0,0,0,0,0,0,0,0,0,0,0,0,0,0,0,0,0,0,0,0,0,0,0,0,0,0,0,0,0,0,0,0,0,0,0,0,0,0,0,0,0,0,0,0,0,0,0,0,0,0,0,0,0,0,0,0,0,0,0,0,0,0,0,0,0,0,0,0,0,0,0,0,0,0,0,0,0,0,0,0,0,0,0,0,0,0,0,0,0,0,0,0,0,0,0,0,0,0,0,0,0,0,0,0,0,0,0,0,0,0,0,0,0,0,0,0,0,0,0,0,0,0,0,0,0,0,0,0,0,0,0,0,0,0,0,0,0,0,0,0,0,0,0,0,0,0,0,0,0,0,0,0,0,0,0,0,0,0,0,0,0,0,0,0,0,0,0,0,0,0,0,0,0,0,0,0,0,0,0,0,0,0,0,0,0,0,0,0,0,0,0,0,0,0,0,0,0,0,0,0,0,0,0,0,0,0,0,0,0,0,0,0,0,0,0,0,0,0,0,0,0,0,0,0,0,0,0,0,0,0,0,0,0,0,0,0,0,0,0,0,0,0,0,0,0,0,0,0,0,0,0,0,0,0,0,0,0,0,0,0,0,0,0,0,0,0,0,0,0,0,0,0,0,0,0,0,0,0,0,0,0,0,0,0,0,0,0,0,0,0,0,0,0,0,0,0,0,0,0,0,0,0,0,0,0,0,0,0,0,0,0,0,0,0,0,0,0,0,0,0,0,0,0,0,0,0,0,0,0,0,0,0,0,0,0,0,0,939,940,941,942,943,944,945,946,947,948,949,950,0,0,0,0,0,0,0,0,0,0,0,0,0,0,0,0,0,0,0,0,0,0,700,939,940,941,942,943,944,945,946,947,948,949,950,700,939,940,941,942,943,944,945,946,947,948,949,950,0,0,0,0,0,0,0,0,0,0,0,0,0,0,0,0,0,0,0,0,0,0,700,939,940,941,942,943,944,945,946,947,948,949,951,952,953,954,955,956,957,958,959,960,961,963,0,0,0,0,0,0,0,0,0,0,0,0,0,0,0,0,0,0,0,0,0,0,962,951,952,953,954,955,956,957,958,959,960,961,963,962,951,952,953,954,955,956,957,958,959,960,961,963,0,0,0,0,0,0,0,0,0,0,0,0,0,0,0,0,0,0,0,0,0,0,962,951,952,953,954,955,956,957,958,959,960,961,0,0,0,0,0,0,0,0,0,0,0,0,0,0,0,0,0,0,0,0,0,0,0,0,0,0,0,0,0,0,0,0,0,0,0,0,0,0,0,0,0,0,0,0,0,0,0,0,0,0,0,0,0,0,0,0,0,0,0,0,0,0,0,0,0,0,0,0,0,0,0,0,0,0,0,0,0,0,0,0,0,0,0,0,0,0,0,0,0,0,0,0,0,0,0,0,0,0,0,0,0,0,0,0,0,0,0,0,0,0,0,0,0,0,0,0,0,0,0,0,0,0,0,0,0,0,0,0,0,0,0,0,0,0,0,0,0,0,0,0,0,0,0,0,0,0,0,0,0,0,0,0,0,0,0,0,0,0,0,0,0,0,0,0,0,0,0,0,0,0,0,0,0,0,0,0,0,0,0,0,0,0,0,0,0,0,0,0,0,0,0,0,0,0,0,0,0,0,0,0,0,0,0,0,0,0,0,0,0,0,0,0,0,0,0,0,0,0,0,0,0,0,0,0,0,0,0,0,0,0,0,0,0,0,0,0,0,0,0,0,0,0,0,0,0,0,0,0,0,0,0,0,0,0,0,0,0,0,0,0,0,0,0,0,0,0,0,0,0,0,0,0,0,0,0,0,0,0,0,0,0,0,0,0,0,0,0,0,0,0,0,0,0,0,0,0,0,0,0,0,0,0,0,0,0,0,0,0,0,0,0,0,0,0,0,0,0,0,0,0,0,0,0,0,0,0,0,0,0,0,0,0,0,0,0,0,0,0,0,0,0,0,0,0,0,0,0,0,0,0,0,0,0,0,0,0,0,0,0,0,0,0,0,0,0,0,0,0,0,0,0,0,0,0,0,0,0,0,0,0,0,0,0,0,0,0,0,0,0,0,0,0,0,0,0,0,0,0,0,0,0,0,0,0,0,0,0,0,0,0,0,0,0,0,0,0,0,0,0,0,0,0,0,0,0,0,0,0,0,0,0,0,0,0,0,0,0,0,0,0,0,0,0,0,0,0,0,0,0,0,0,0,0,0,0,0,0,0,0,0,0,0,0,0,0,0,0,0,0,0,0,0,0,0,0,0,0,0,0,0,0,0,0,0,0,0,0,0,0,0,0,0,0,0,0,0,0,0,0,0,0,0,0,0,0,0,0,0,0,0,0,0,0,0,0,0,0,0,0,0,0,0,0,0,0,0,0,0,0,0,0,0,0,0,0,0,0,0,0,0,0,0,0,0,0,0,0,0,0,0,0,0,0,0,0,0,0,0,0,0,0,0,0,0,0,0,0,0,0,0,0,0,0,0,0,0,0,0,0,0,0,0,0,0,0,0,0,0,0,0,0,0,0,0,0,0,0,0,0,0,0,0,0,0,0,0,0,0,0,0,0,0,0,0,0,0,0,0,0,0,0,0,0,0,0,0,0,0,0,0,0,0,0,0,0,0,0,0,0,0,0,0,0,0,0,0,0,0,0,0,0,0,0,0,0,0,0,0,0,0,0,0,0,0,0,0,0,0,0,0,0,0,0,0,0,0,0,0,0,0,0,0,0,0,0,0,0,0,0,0,0,0,0,0,0,0,0,0,0,0,0,0,0,0,0,0,0,0,0,0,0,0,0,0,0,0,0,0,0,0,0,0,0,0,0,0,0,0,0,0,0,0,0,0,0,0,0,0,0,0,0,0,0,0,0,0,0,0,0,0,0,0,0,0,0,0,0,0,0,0,0,0,0,0,0,0,0,0,0,0,0,0,0,0,0,0,0,0,0,0,0,0,0,0,0,0,0,0,0,0,0,0,0,0,0,0,0,0,0,0,0,0,0,0,0,0,0,0,0,0,0,0,0,0,0,0,0,0,0,0,0,0,0,0,0,0,0,0,0,0,0,0,0,0,0,0,0,0,0,0,0,0,0,0,0,0,0,0,0,0,0,0,0,0,0,0,0,0,0,0,0,0,0,0,0,0,0,0,0,0,0,0,0,0,0,0,0,0,0,0,0,0,0,0,0,0,0,0,0,0,0,0,0,0,0,0,0,0,0,0,0,0,0,0,0,0,0,0,0,0,0,0,0,0,0,0,0,0,0,0,0,0,0,0,0,0,0,0,0,0,0,0,0,0,0,0,0,0,0,0,0,0,0,0,0,0,0,0,0,0,0,0,0,0,0,0,0,0,0,0,0,0,0,0,0,0,0,0,0,0,0,0,0,0,0,0,0,0,0,0,0,0,0,0,0,0,0,0,0,0,0,0,0,0,0,0,0,0,0,0,0,0,0,0,0,0,0,0,0,0,0,0,0,0,0,0,0,0,0,0,0,0,0,0,0,0,0,0,0,0,0,0,0,0,0,0,0,0,0,0,0,0,0,0,0,0,0,0,0,0,0,0,0,0,0,0,0,0,0,0,0,0,0,0,0,0,0,0,0,0,0,0,0,0,0,0,0,0,0,0,0,0,0,0,0,0,0,0,0,0,0,0,0,0,0,0,0,0,0,0,0,0,0,0,0,0,0,0,0,0,0,0,0,0,0,0,0,0,0,0,0,0,0,0,0,0,0,0,0,0,0,0,0,0,0,0,0,0,0,0,0,0,0,0,0,0,0,0,0,0,0,0,0,0,0,0,0,0,0,0,0,0,0,0,0,0,0,0,0,0,0,0,0,0,0,0,0,0,0,0,0,0,0,0,0,0,0,0,0,0,0,0,0,0,0,0,0,0,0,0,0,0,0,0,0,0,0,0,0,0,0,0,0,0,0,0,0,0,0,0,0,0,0,0,0,0,0,0,0,0,0,0,0,0,0,0,0,0,0,0,0,0,0,0,0,0,0,0,0,0,0,0,0,0,0,0,0,0,0,0,0,0,0,0,0,0,0,0,0,0,0,0,0,0,0,0,0,0,0,0,0,0,0,0,0,0,0,0,0,0,0,0,0,0,0,0,0,0,0,0,0,0,0,0,0,0,0,0,0,0,0,0,0,0,0,0],"height":83,"id":3,"name":"abovePlayer1","opacity":1,"visible":true,"width":94,"x":0,"y":0}],"compressionlevel":-1,"height":83,"infinite":false,"nextlayerid":51,"nextobjectid":17,"orientation":"orthogonal","renderorder":"right-down","tiledversion":"1.11.0","version":"1.10","width":94}